; KISSlicer - PRO
; Linux
; version 1.0.9.7
; Built: Jun 12 2012, 22:57:28
;
; Saved: Sat May  4 18:57:45 2013
; 'BatteryFrame2.gcode'
;
; *** Printer Settings ***
;
; printer_name = Blade-1
; extension = gcode
; cost_per_hour = 2.5
; g_code_prefix = 473238
; g_code_postfix = 0A4D313430205330203B207475726E206F6666206265640A4730205938302046353030303B2050726573656E7420506172740A4D383420202020203B2064697361626C65206D6F746F72730A
; g_code_ext_change = NULL
; post_process = NULL
; num_extruders = 1
; firmware_type = 2
; M104_M109 = 1
; add_comments = 1
; z_speed_mm_per_s = 3.5
; z_settle_mm = 0.25
; bed_size_x_mm = 100
; bed_size_y_mm = 100
; bed_size_z_mm = 150
; bed_offset_x_mm = 50
; bed_offset_y_mm = 60
; bed_offset_z_mm = 0
; bed_roughness_mm = 0.4
; travel_speed_mm_per_s = 150
; first_layer_speed_mm_per_s = 10
; lo_speed_perim_mm_per_s = 10
; lo_speed_solid_mm_per_s = 20
; lo_speed_sparse_mm_per_s = 30
; hi_speed_perim_mm_per_s = 25
; hi_speed_solid_mm_per_s = 60
; hi_speed_sparse_mm_per_s = 75
; ext_mm_per_rev_1 = 1.25
; ext_material_1 = 0
; ext_axis_1 = 0
; ext_mm_per_rev_2 = 1.25
; ext_material_2 = 0
; ext_axis_2 = 0
; ext_mm_per_rev_3 = 1.25
; ext_material_3 = 0
; ext_axis_3 = 0
; model_ext = 0
; support_ext = 0
; support_body_ext = 0
; raft_ext = 0
; solid_loop_overlap_fraction = 0.5
;
; *** Material Settings for Extruder 1 ***
;
; material_name = ABS
; fan_off_ISOs_all = 1
; temperature_C = 250
; keep_warm_C = 150
; first_layer_C = 250
; bed_C = 110
; sec_per_C_per_C = 0
; RPM_min = 3
; RPM_max = 75
; destring_suck = 0.4
; destring_prime = 0.2
; destring_min_mm = 0
; destring_speed_mm_per_s = 15
; min_layer_time_s = 15
; wipe_mm = 0
; cost_per_cm3 = 0.062
; flowrate_tweak = 1
; fiber_dia_mm = 1.75
; color = 0
;
; *** Style Settings ***
;
; style_name = High
; layer_thickness_mm = 0.2
; extrusion_width_mm = 0.4
; num_loops = 2
; skin_thickness_mm = 0.8
; infill_extrusion_width = 0.4
; infill_density_denominator = 4
; stacked_layers = 1
; use_destring = 0
; loops_insideout = 1
; round_infill = 1
;
; *** Actual Slicing Settings As Used ***
;
; layer_thickness_mm = 0.2
; extrusion_width = 0.4
; num_ISOs = 2
; wall_thickness = 0.8
; infill_style = 5
; support_style = 0
; support_angle = 90
; destring_min_mm = 0
; stacked_infill_layers = 1
; ISO_wipe_mm = 0
; raft_style = 0
; extra_raft_depth = 0.4
; oversample_res_mm = 0.125
; crowning_threshold_mm = 1
; loops_insideout = 1
; sheathed_support = 0
; solid_loop_overlap_fraction = 0.5
; inflate_raft_mm = 0
; inflate_support_mm = 1
; model_support_gap_mm = 0.5
; round_infill = 1
; Speed vs Quality = 0.50
;
; *** Header ***
;
; fan off
M107
; [mm] mode
G21
; absolute mode
G90
; *** User-Supplied G-code Prefix ***
;
G28
;
; *** Main G-code ***
;
; Reset extruder pos
G92 E0
; BEGIN_LAYER_OBJECT z=0.20
;
; *** Warming Extruder 1 to 250 C ***
M109 S250
G92 E0
;
;
; 'Loop', 16.0 [RPM], 10.0 [mm/s]
G1 F9000
G1 X79.49 Y70.93 Z0.45 E0
G1 F210
G1 X79.49 Y70.93 Z0.2 E0
G1 F600
G1 X78.6 Y71.75 E0.04
G1 X77.65 Y72.49 E0.0802
G1 X76.6 Y73.14 E0.1212
G1 X75.6 Y73.65 E0.1585
G1 X74.53 Y74.09 E0.197
G1 X73.46 Y74.42 E0.2343
G1 X72.26 Y74.69 E0.2752
G1 X71.12 Y74.83 E0.3133
G1 X69.85 Y74.88 E0.3556
G1 X30.09 Y74.88 E1.6781
G1 X28.83 Y74.83 E1.7201
G1 X27.71 Y74.68 E1.7576
G1 X26.74 Y74.47 E1.7907
G1 X26.44 Y74.39 E1.801
G1 X25.44 Y74.08 E1.8359
G1 X24.37 Y73.64 E1.8743
G1 X23.38 Y73.12 E1.9115
G1 X22.33 Y72.47 E1.9524
G1 X21.38 Y71.73 E1.9927
G1 X20.5 Y70.91 E2.0326
G1 X19.77 Y70.13 E2.0681
G1 X19.11 Y69.28 E2.1039
G1 X18.38 Y68.13 E2.1493
G1 X17.86 Y67.13 E2.1866
G1 X17.42 Y66.06 E2.225
G1 X17.06 Y64.91 E2.2651
G1 X16.82 Y63.83 E2.302
G1 X16.67 Y62.66 E2.3412
G1 X16.62 Y61.57 E2.3776
G1 X16.67 Y60.3 E2.4198
G1 X16.83 Y59.14 E2.4588
G1 X17.07 Y58.06 E2.4955
G1 X17.43 Y56.91 E2.5355
G1 X17.87 Y55.85 E2.5739
G1 X18.39 Y54.85 E2.6111
G1 X19.04 Y53.82 E2.652
G1 X19.79 Y52.86 E2.6922
G1 X20.51 Y52.07 E2.7277
G1 X21.39 Y51.26 E2.7676
G1 X22.35 Y50.52 E2.8079
G1 X23.39 Y49.87 E2.8489
G1 X24.39 Y49.35 E2.8861
G1 X25.46 Y48.92 E2.9246
G1 X26.57 Y48.57 E2.9633
G1 X27.7 Y48.32 E3.0017
G1 X28.87 Y48.17 E3.041
G1 X29.95 Y48.12 E3.0771
G1 X30.11 Y48.09 E3.0824
G1 X30.34 Y47.94 E3.0915
G1 X30.52 Y47.75 E3.1003
G1 X30.62 Y47.46 E3.1102
G1 X30.62 Y47.34 E3.1144
G1 X30.62 Y45.21 E3.1854
G1 X30.72 Y45.12 E3.1898
G1 X69.35 Y45.12 E4.4746
G1 X69.38 Y45.27 E4.4798
G1 X69.38 Y47.5 E4.5541
G1 X69.42 Y47.69 E4.5604
G1 X69.56 Y47.92 E4.5695
G1 X69.8 Y48.06 E4.5786
G1 X70.11 Y48.12 E4.5893
G1 X71.19 Y48.18 E4.6252
G1 X72.35 Y48.33 E4.6642
G1 X73.43 Y48.57 E4.701
G1 X74.58 Y48.93 E4.741
G1 X75.65 Y49.37 E4.7793
G1 X76.64 Y49.89 E4.8165
G1 X77.68 Y50.54 E4.8575
G1 X78.64 Y51.28 E4.8977
G1 X79.42 Y52.01 E4.9332
G1 X80.32 Y52.99 E4.9776
G1 X81.06 Y53.95 E5.0179
G1 X81.65 Y54.87 E5.0542
G1 X81.69 Y55.01 E5.0591
G1 X82.15 Y55.88 E5.0917
G1 X82.59 Y56.95 E5.1301
G1 X82.82 Y57.66 E5.1551
G1 X82.91 Y57.95 E5.1651
G1 X83.15 Y59.03 E5.2019
G1 X83.31 Y60.19 E5.2409
G1 X83.34 Y60.54 E5.2525
G1 X83.38 Y61.45 E5.2827
G1 X83.32 Y62.71 E5.3248
G1 X83.17 Y63.87 E5.3637
G1 X82.93 Y64.95 E5.4005
G1 X82.57 Y66.1 E5.4404
G1 X82.12 Y67.16 E5.4788
G1 X81.61 Y68.15 E5.516
G1 X80.95 Y69.19 E5.5569
G1 X80.29 Y70.04 E5.5926
G1 X79.49 Y70.93 E5.6326
;
; 'Perimeter', 16.0 [RPM], 10.0 [mm/s]
G1 F9000
G1 X79.69 Y71 E5.6326
G1 F600
G1 X79.77 Y71.22 E5.6401
G1 X78.78 Y72.11 E5.6845
G1 X77.82 Y72.85 E5.7248
G1 X76.89 Y73.44 E5.7616
G1 X75.73 Y74.04 E5.8049
G1 X74.71 Y74.46 E5.8415
G1 X73.56 Y74.82 E5.8816
G1 X72.32 Y75.08 E5.9238
G1 X71.15 Y75.23 E5.963
G1 X69.88 Y75.29 E6.0054
G1 X30.07 Y75.28 E7.3295
G1 X28.8 Y75.23 E7.3715
G1 X27.64 Y75.08 E7.4107
G1 X26.4 Y74.81 E7.4527
G1 X25.26 Y74.45 E7.4927
G1 X24.2 Y74.01 E7.5309
G1 X23.08 Y73.42 E7.5728
G1 X22.16 Y72.83 E7.6092
G1 X21.2 Y72.1 E7.6494
G1 X20.21 Y71.19 E7.6938
G1 X19.4 Y70.31 E7.7338
G1 X18.67 Y69.34 E7.774
G1 X18.08 Y68.42 E7.8104
G1 X17.5 Y67.31 E7.8522
G1 X17.06 Y66.24 E7.8907
G1 X16.69 Y65.09 E7.9307
G1 X16.42 Y63.86 E7.9729
G1 X16.27 Y62.68 E8.0121
G1 X16.22 Y61.54 E8.0503
G1 X16.27 Y60.28 E8.0923
G1 X16.43 Y59.11 E8.1313
G1 X16.69 Y57.91 E8.1722
G1 X17.04 Y56.81 E8.2106
G1 X17.51 Y55.67 E8.2516
G1 X18.02 Y54.68 E8.2888
G1 X18.68 Y53.64 E8.3297
G1 X19.42 Y52.68 E8.3699
G1 X20.22 Y51.79 E8.4099
G1 X21.21 Y50.89 E8.4543
G1 X22.17 Y50.16 E8.4946
G1 X23.17 Y49.53 E8.5336
G1 X24.21 Y48.99 E8.5728
G1 X25.28 Y48.55 E8.6113
G1 X26.43 Y48.19 E8.6513
G1 X27.67 Y47.92 E8.6935
G1 X28.84 Y47.77 E8.7328
G1 X29.93 Y47.72 E8.769
G1 X30.06 Y47.66 E8.7737
G1 X30.16 Y47.57 E8.7781
G1 X30.21 Y47.44 E8.7829
G1 X30.21 Y44.8 E8.8705
G1 X30.31 Y44.71 E8.8749
G1 X69.74 Y44.72 E10.1865
G1 X69.78 Y44.87 E10.1916
G1 X69.79 Y47.51 E10.2795
G1 X69.85 Y47.64 E10.2842
G1 X70.14 Y47.72 E10.2942
G1 X71.04 Y47.76 E10.3243
G1 X71.22 Y47.77 E10.3302
G1 X72.38 Y47.92 E10.3693
G1 X73.62 Y48.2 E10.4113
G1 X74.76 Y48.56 E10.4513
G1 X75.78 Y48.99 E10.4881
G1 X76.93 Y49.59 E10.5314
G1 X77.86 Y50.18 E10.5677
G1 X78.82 Y50.91 E10.6079
G1 X79.7 Y51.72 E10.6479
G1 X80.61 Y52.71 E10.6923
G1 X81.34 Y53.67 E10.7326
G1 X81.93 Y54.59 E10.7689
G1 X82.49 Y55.67 E10.8096
G1 X82.95 Y56.77 E10.8492
G1 X83.31 Y57.92 E10.8893
G1 X83.58 Y59.16 E10.9315
G1 X83.73 Y60.34 E10.9708
G1 X83.78 Y61.47 E11.0086
G1 X83.73 Y62.73 E11.0506
G1 X83.57 Y63.9 E11.0896
G1 X83.33 Y64.98 E11.1265
G1 X82.95 Y66.22 E11.1698
G1 X82.49 Y67.33 E11.2098
G1 X81.98 Y68.33 E11.2471
G1 X81.32 Y69.37 E11.288
G1 X80.58 Y70.33 E11.3282
G1 X79.77 Y71.22 E11.3682
G1 X79.55 Y71.15 E11.3757
;
; 'Loop', 16.0 [RPM], 10.0 [mm/s]
G1 F9000
G1 X58.94 Y68.91 E11.3757
G1 F600
G1 X58.71 Y69.05 E11.3848
G1 X58.4 Y69.12 E11.3954
G1 X41.48 Y69.12 E11.9579
G1 X41.33 Y69.08 E11.9633
G1 X41.09 Y68.94 E11.9724
G1 X40.95 Y68.71 E11.9814
G1 X40.88 Y68.4 E11.9921
G1 X40.88 Y58.63 E12.3167
G1 X40.92 Y58.3 E12.3281
G1 X41.07 Y58.06 E12.3372
G1 X41.3 Y57.92 E12.3463
G1 X41.57 Y57.88 E12.3554
G1 X58.45 Y57.88 E12.9169
G1 X58.66 Y57.92 E12.924
G1 X58.9 Y58.06 E12.9331
G1 X59.04 Y58.29 E12.9422
G1 X59.12 Y58.6 E12.9526
G1 X59.12 Y68.52 E13.2827
G1 X59.08 Y68.67 E13.288
G1 X58.94 Y68.91 E13.2971
;
; 'Perimeter', 16.0 [RPM], 10.0 [mm/s]
G1 F9000
G1 X58.84 Y68.67 E13.2971
G1 F600
G1 X58.66 Y68.62 E13.3034
G1 X58.37 Y68.71 E13.3134
G1 X50.35 Y68.71 E13.5801
G1 X41.5 Y68.72 E13.8743
G1 X41.38 Y68.66 E13.879
G1 X41.29 Y68.37 E13.8891
G1 X41.29 Y58.66 E14.212
G1 X41.29 Y58.54 E14.2158
G1 X41.29 Y58.47 E14.2181
G1 X41.35 Y58.35 E14.2228
G1 X41.55 Y58.28 E14.2297
G1 X58.48 Y58.28 E14.7928
G1 X58.61 Y58.34 E14.7978
G1 X58.71 Y58.62 E14.8076
G1 X58.72 Y68.5 E15.136
G1 X58.66 Y68.62 E15.1407
G1 X58.71 Y68.81 E15.1471
;
; 'Solid', 16.0 [RPM], 10.0 [mm/s]
G1 F9000
G1 X77.1 Y72.47 E15.1471
G1 F600
G1 X81 Y68.56 E15.3308
;
; 'Solid', 16.0 [RPM], 10.0 [mm/s]
G1 F9000
G1 X81.74 Y67.25 E15.3308
G1 F600
G1 X75.91 Y73.1 E15.6054
G1 X74.9 Y73.55 E15.6422
G1 X82.09 Y66.33 E15.9808
G1 X82.38 Y65.47 E16.0112
G1 X74 Y73.88 E16.4062
G1 X73.21 Y74.1 E16.4333
G1 X82.62 Y64.66 E16.8767
G1 X82.78 Y63.94 E16.9014
G1 X72.47 Y74.28 E17.3872
G1 X71.81 Y74.38 E17.4095
G1 X82.89 Y63.26 E17.9318
G1 X82.96 Y62.62 E17.9532
G1 X71.16 Y74.46 E18.5093
G1 X70.57 Y74.5 E18.5292
G1 X83 Y62.01 E19.1152
G1 X83.01 Y61.43 E19.1345
G1 X69.98 Y74.52 E19.7489
G1 X69.41 Y74.52 E19.7678
G1 X83 Y60.89 E20.408
G1 X82.96 Y60.35 E20.4258
G1 X68.85 Y74.52 E21.091
G1 X68.28 Y74.52 E21.1098
G1 X82.91 Y59.84 E21.7991
G1 X82.84 Y59.34 E21.8157
G1 X67.72 Y74.52 E22.5283
G1 X67.15 Y74.52 E22.5471
G1 X82.74 Y58.87 E23.2818
G1 X82.64 Y58.41 E23.2977
G1 X66.59 Y74.52 E24.0544
G1 X66.02 Y74.52 E24.0732
G1 X82.52 Y57.96 E24.8508
G1 X82.4 Y57.52 E24.8661
G1 X65.46 Y74.52 E25.6644
G1 X64.89 Y74.52 E25.6832
G1 X82.27 Y57.08 E26.5019
G1 X82.11 Y56.68 E26.5165
G1 X64.33 Y74.52 E27.3544
G1 X63.76 Y74.52 E27.3732
G1 X81.95 Y56.27 E28.23
G1 X81.75 Y55.9 E28.2439
G1 X63.2 Y74.52 E29.1181
G1 X62.63 Y74.52 E29.1369
G1 X81.55 Y55.53 E30.0284
G1 X81.39 Y55.13 E30.0428
G1 X62.07 Y74.52 E30.9531
G1 X61.51 Y74.52 E30.9719
G1 X81.17 Y54.78 E31.8986
G1 X80.95 Y54.44 E31.9122
G1 X60.94 Y74.52 E32.8551
G1 X60.38 Y74.52 E32.8739
G1 X80.72 Y54.1 E33.8328
G1 X80.48 Y53.78 E33.8462
G1 X59.81 Y74.52 E34.8201
G1 X59.25 Y74.52 E34.8389
G1 X80.23 Y53.46 E35.8279
G1 X79.98 Y53.14 E35.8413
G1 X58.68 Y74.52 E36.845
G1 X58.12 Y74.52 E36.8638
G1 X79.71 Y52.85 E37.8815
G1 X79.44 Y52.55 E37.8948
G1 X57.55 Y74.52 E38.9263
G1 X56.99 Y74.52 E38.945
G1 X79.17 Y52.26 E39.9902
G1 X78.87 Y51.99 E40.0035
G1 X56.42 Y74.52 E41.0614
G1 X55.86 Y74.52 E41.0802
G1 X78.58 Y51.72 E42.1508
G1 X78.28 Y51.45 E42.1641
G1 X55.29 Y74.52 E43.2471
G1 X54.73 Y74.52 E43.2659
G1 X77.95 Y51.21 E44.3603
G1 X77.64 Y50.96 E44.3737
G1 X54.17 Y74.52 E45.4797
G1 X53.6 Y74.52 E45.4985
G1 X58.69 Y69.42 E45.7381
G1 X58.05 Y69.49 E45.7593
G1 X53.04 Y74.52 E45.9957
G1 X52.47 Y74.52 E46.0145
G1 X57.5 Y69.48 E46.2513
G1 X56.93 Y69.48 E46.2701
G1 X51.91 Y74.52 E46.5068
G1 X51.34 Y74.52 E46.5256
G1 X56.37 Y69.48 E46.7624
G1 X55.8 Y69.48 E46.7812
G1 X50.78 Y74.52 E47.0179
G1 X50.21 Y74.52 E47.0367
G1 X55.24 Y69.48 E47.2735
G1 X54.67 Y69.48 E47.2923
G1 X49.65 Y74.52 E47.529
G1 X49.08 Y74.52 E47.5478
G1 X54.11 Y69.48 E47.7846
G1 X53.54 Y69.48 E47.8034
G1 X48.52 Y74.52 E48.0402
G1 X47.95 Y74.52 E48.0589
G1 X52.98 Y69.48 E48.2957
G1 X52.41 Y69.48 E48.3145
G1 X47.39 Y74.52 E48.5513
G1 X46.83 Y74.52 E48.5701
G1 X51.85 Y69.48 E48.8069
G1 X51.29 Y69.48 E48.8257
G1 X46.26 Y74.52 E49.0625
G1 X45.7 Y74.52 E49.0812
G1 X50.72 Y69.48 E49.318
G1 X50.16 Y69.48 E49.3368
G1 X45.13 Y74.52 E49.5736
G1 X44.57 Y74.52 E49.5924
G1 X49.59 Y69.48 E49.8292
G1 X49.03 Y69.48 E49.848
G1 X44 Y74.52 E50.0848
G1 X43.44 Y74.52 E50.1036
G1 X48.46 Y69.48 E50.3404
G1 X47.9 Y69.48 E50.3592
G1 X42.87 Y74.52 E50.596
G1 X42.31 Y74.52 E50.6148
G1 X47.33 Y69.48 E50.8516
G1 X46.77 Y69.48 E50.8704
G1 X41.74 Y74.52 E51.1072
G1 X41.18 Y74.52 E51.126
G1 X46.2 Y69.48 E51.3629
G1 X45.64 Y69.48 E51.3816
G1 X40.61 Y74.52 E51.6185
G1 X40.05 Y74.52 E51.6373
G1 X45.08 Y69.48 E51.8741
G1 X44.51 Y69.48 E51.8929
G1 X39.48 Y74.52 E52.1298
G1 X38.92 Y74.52 E52.1486
G1 X43.95 Y69.48 E52.3854
G1 X43.38 Y69.48 E52.4042
G1 X38.36 Y74.52 E52.6411
G1 X37.79 Y74.52 E52.6599
G1 X42.82 Y69.48 E52.8967
G1 X42.25 Y69.48 E52.9155
G1 X37.23 Y74.52 E53.1524
G1 X36.66 Y74.52 E53.1712
G1 X41.69 Y69.47 E53.4083
G1 X41.18 Y69.42 E53.4256
G1 X36.1 Y74.52 E53.6649
G1 X35.53 Y74.52 E53.6837
G1 X40.84 Y69.2 E53.9338
G1 X40.62 Y68.85 E53.9474
G1 X34.97 Y74.52 E54.2139
G1 X34.4 Y74.52 E54.2326
G1 X40.53 Y68.38 E54.5212
G1 X40.52 Y67.81 E54.5399
G1 X33.84 Y74.52 E54.8549
G1 X33.27 Y74.52 E54.8737
G1 X40.52 Y67.25 E55.2153
G1 X40.52 Y66.68 E55.2342
G1 X32.71 Y74.52 E55.6024
G1 X32.14 Y74.52 E55.6212
G1 X40.52 Y66.11 E56.016
G1 X40.52 Y65.55 E56.0348
G1 X31.58 Y74.52 E56.4563
G1 X31.01 Y74.52 E56.475
G1 X40.52 Y64.98 E56.9231
G1 X40.52 Y64.41 E56.9419
G1 X30.45 Y74.52 E57.4167
G1 X29.89 Y74.51 E57.4351
G1 X40.52 Y63.85 E57.936
G1 X40.52 Y63.28 E57.9549
G1 X29.35 Y74.49 E58.4814
G1 X28.82 Y74.46 E58.4991
G1 X40.52 Y62.71 E59.0508
G1 X40.52 Y62.15 E59.0696
G1 X28.32 Y74.4 E59.6449
G1 X27.82 Y74.33 E59.6616
G1 X40.52 Y61.58 E60.2603
G1 X40.52 Y61.01 E60.2792
G1 X27.35 Y74.23 E60.9
G1 X26.88 Y74.13 E60.9158
G1 X40.52 Y60.44 E61.5585
G1 X40.52 Y59.88 E61.5773
G1 X26.44 Y74.02 E62.2411
G1 X26.01 Y73.88 E62.256
G1 X40.52 Y59.31 E62.9401
G1 X40.52 Y58.74 E62.9589
G1 X25.58 Y73.74 E63.6631
G1 X25.18 Y73.58 E63.6776
G1 X53.17 Y45.48 E64.997
G1 X52.61 Y45.48 E65.0158
G1 X24.78 Y73.42 E66.3274
G1 X24.39 Y73.24 E66.3416
G1 X52.05 Y45.48 E67.645
G1 X51.48 Y45.48 E67.6638
G1 X24.01 Y73.05 E68.9581
G1 X23.64 Y72.85 E68.9721
G1 X50.92 Y45.48 E70.2573
G1 X50.35 Y45.48 E70.2761
G1 X23.29 Y72.64 E71.5515
G1 X22.94 Y72.43 E71.5652
G1 X49.79 Y45.48 E72.8303
G1 X49.22 Y45.48 E72.8491
G1 X22.59 Y72.21 E74.104
G1 X22.27 Y71.96 E74.1174
G1 X48.66 Y45.48 E75.3609
G1 X48.09 Y45.48 E75.3797
G1 X21.95 Y71.72 E76.6116
G1 X21.63 Y71.47 E76.625
G1 X47.53 Y45.48 E77.8454
G1 X46.96 Y45.48 E77.8642
G1 X21.33 Y71.2 E79.0719
G1 X21.04 Y70.93 E79.0853
G1 X46.4 Y45.48 E80.2803
G1 X45.83 Y45.48 E80.2991
G1 X20.75 Y70.66 E81.4812
G1 X20.48 Y70.36 E81.4945
G1 X45.27 Y45.48 E82.6628
G1 X44.71 Y45.48 E82.6815
G1 X20.21 Y70.07 E83.836
G1 X19.95 Y69.76 E83.8493
G1 X44.14 Y45.48 E84.9895
G1 X43.58 Y45.48 E85.0083
G1 X19.7 Y69.44 E86.1333
G1 X19.45 Y69.12 E86.1468
G1 X43.01 Y45.48 E87.2569
G1 X42.45 Y45.48 E87.2757
G1 X19.22 Y68.79 E88.3701
G1 X19 Y68.44 E88.3838
G1 X41.88 Y45.48 E89.462
G1 X41.32 Y45.48 E89.4808
G1 X18.78 Y68.1 E90.5428
G1 X18.58 Y67.73 E90.5566
G1 X40.75 Y45.48 E91.6015
G1 X40.19 Y45.48 E91.6203
G1 X18.39 Y67.36 E92.6476
G1 X18.19 Y66.99 E92.6616
G1 X39.62 Y45.48 E93.6715
G1 X39.06 Y45.48 E93.6903
G1 X18.03 Y66.59 E94.6813
G1 X17.86 Y66.19 E94.6957
G1 X38.49 Y45.48 E95.668
G1 X37.93 Y45.48 E95.6868
G1 X17.71 Y65.77 E96.6397
G1 X17.57 Y65.34 E96.6548
G1 X37.37 Y45.48 E97.5874
G1 X36.8 Y45.48 E97.6062
G1 X17.44 Y64.91 E98.5186
G1 X17.33 Y64.45 E98.5342
G1 X36.24 Y45.48 E99.4251
G1 X35.67 Y45.48 E99.4439
G1 X17.23 Y63.99 E100.3129
G1 X17.14 Y63.51 E100.3291
G1 X35.11 Y45.48 E101.1757
G1 X34.54 Y45.48 E101.1945
G1 X17.08 Y63.01 E102.0174
G1 X17.02 Y62.5 E102.0344
G1 X33.98 Y45.48 E102.8336
G1 X33.41 Y45.48 E102.8523
G1 X17 Y61.95 E103.6259
G1 X16.98 Y61.41 E103.6442
G1 X29.85 Y48.48 E104.2509
G1 X29.26 Y48.51 E104.2706
G1 X17.01 Y60.81 E104.848
G1 X17.05 Y60.2 E104.8682
G1 X28.65 Y48.56 E105.415
G1 X28 Y48.64 E105.4367
G1 X17.14 Y59.55 E105.9486
G1 X17.26 Y58.86 E105.9717
G1 X27.3 Y48.78 E106.4452
G1 X26.57 Y48.94 E106.4701
G1 X17.44 Y58.11 E106.9006
G1 X17.68 Y57.3 E106.9288
G1 X25.74 Y49.21 E107.3084
G1 X24.83 Y49.56 E107.3407
G1 X18.06 Y56.35 E107.6598
G1 X18.57 Y55.28 E107.6993
G1 X23.86 Y49.96 E107.9488
;
; 'Solid', 16.0 [RPM], 10.0 [mm/s]
G1 F9000
G1 X22.4 Y50.86 E107.9488
G1 F600
G1 X19.38 Y53.89 E108.0911
;
; 'Wipe', 0.0 [RPM], 10.0 [mm/s]
;
; 'Solid', 16.0 [RPM], 10.0 [mm/s]
G1 F9000
G1 X31.18 Y45.46 E108.0911
G1 F600
G1 X30.98 Y45.66 E108.1004
G1 X30.98 Y46.22 E108.1193
G1 X31.72 Y45.48 E108.1542
G1 X32.28 Y45.48 E108.173
G1 X30.98 Y46.79 E108.2345
G1 X30.97 Y47.36 E108.2536
G1 X32.91 Y45.42 E108.3449
;
; 'Solid', 16.0 [RPM], 10.0 [mm/s]
G1 F9000
G1 X53.8 Y45.42 E108.3449
G1 F600
G1 X41.74 Y57.52 E108.9132
G1 X42.31 Y57.52 E108.932
G1 X54.3 Y45.48 E109.4974
G1 X54.87 Y45.48 E109.5162
G1 X42.87 Y57.52 E110.0816
G1 X43.43 Y57.52 E110.1004
G1 X55.43 Y45.48 E110.6659
G1 X56 Y45.48 E110.6846
G1 X44 Y57.52 E111.2501
G1 X44.56 Y57.52 E111.2689
G1 X56.56 Y45.48 E111.8343
G1 X57.13 Y45.48 E111.8531
G1 X45.13 Y57.52 E112.4185
G1 X45.69 Y57.52 E112.4373
G1 X57.69 Y45.48 E113.0028
G1 X58.26 Y45.48 E113.0216
G1 X46.26 Y57.52 E113.587
G1 X46.82 Y57.52 E113.6058
G1 X58.82 Y45.48 E114.1713
G1 X59.39 Y45.48 E114.19
G1 X47.39 Y57.52 E114.7555
G1 X47.95 Y57.52 E114.7743
G1 X59.95 Y45.48 E115.3397
G1 X60.52 Y45.48 E115.3585
G1 X48.52 Y57.52 E115.924
G1 X49.08 Y57.52 E115.9428
G1 X61.08 Y45.48 E116.5082
G1 X61.64 Y45.48 E116.527
G1 X49.65 Y57.52 E117.0924
G1 X50.21 Y57.52 E117.1112
G1 X62.21 Y45.48 E117.6767
G1 X62.77 Y45.48 E117.6955
G1 X50.77 Y57.52 E118.2609
G1 X51.34 Y57.52 E118.2797
G1 X63.34 Y45.48 E118.8451
G1 X63.9 Y45.48 E118.8639
G1 X51.9 Y57.52 E119.4294
G1 X52.47 Y57.52 E119.4482
G1 X64.47 Y45.48 E120.0136
G1 X65.03 Y45.48 E120.0324
G1 X53.03 Y57.52 E120.5978
G1 X53.6 Y57.52 E120.6166
G1 X65.6 Y45.48 E121.1821
G1 X66.16 Y45.48 E121.2009
G1 X54.16 Y57.52 E121.7663
G1 X54.73 Y57.52 E121.7851
G1 X66.73 Y45.48 E122.3505
G1 X67.29 Y45.48 E122.3693
G1 X55.29 Y57.52 E122.9348
G1 X55.86 Y57.52 E122.9536
G1 X67.86 Y45.48 E123.519
G1 X68.42 Y45.48 E123.5378
G1 X56.42 Y57.52 E124.1033
G1 X56.99 Y57.52 E124.122
G1 X68.99 Y45.47 E124.6877
G1 X69.02 Y46.01 E124.7054
G1 X57.55 Y57.52 E125.246
G1 X58.12 Y57.52 E125.2648
G1 X69.02 Y46.58 E125.7787
G1 X69.02 Y47.14 E125.7976
G1 X58.65 Y57.55 E126.2863
G1 X59.05 Y57.72 E126.3008
G1 X69.06 Y47.67 E126.7722
G1 X69.22 Y48.08 E126.7866
G1 X59.32 Y58.02 E127.2534
G1 X59.45 Y58.45 E127.2684
G1 X69.52 Y48.34 E127.743
G1 X69.96 Y48.46 E127.7583
G1 X59.48 Y58.99 E128.2525
G1 X59.48 Y59.56 E128.2713
G1 X70.49 Y48.5 E128.7903
G1 X71.03 Y48.53 E128.8083
G1 X59.48 Y60.12 E129.3527
G1 X59.48 Y60.69 E129.3715
G1 X71.54 Y48.58 E129.9399
G1 X72.04 Y48.65 E129.9567
G1 X59.48 Y61.26 E130.5487
G1 X59.48 Y61.82 E130.5675
G1 X72.52 Y48.73 E131.1821
G1 X72.98 Y48.84 E131.1978
G1 X59.48 Y62.39 E131.8341
G1 X59.48 Y62.96 E131.8529
G1 X73.44 Y48.94 E132.5108
G1 X73.87 Y49.08 E132.5258
G1 X59.48 Y63.52 E133.2038
G1 X59.48 Y64.09 E133.2227
G1 X74.3 Y49.21 E133.9211
G1 X74.71 Y49.37 E133.9356
G1 X59.48 Y64.66 E134.6533
G1 X59.48 Y65.22 E134.6721
G1 X75.11 Y49.54 E135.4087
G1 X75.5 Y49.7 E135.4231
G1 X59.48 Y65.79 E136.1784
G1 X59.48 Y66.36 E136.1973
G1 X75.88 Y49.9 E136.9701
G1 X76.25 Y50.09 E136.9841
G1 X59.48 Y66.92 E137.7744
G1 X59.48 Y67.49 E137.7933
G1 X76.61 Y50.29 E138.6009
G1 X76.96 Y50.51 E138.6145
G1 X59.48 Y68.05 E139.4381
G1 X59.44 Y68.66 E139.4582
G1 X77.35 Y50.69 E140.3019
;
; 'Wipe', 0.0 [RPM], 10.0 [mm/s]
G1 F210
G1 X77.35 Y50.69 Z0.65 E140.3019
; END_LAYER_OBJECT z=0.20
; Reset extruder pos
G92 E0
; BEGIN_LAYER_OBJECT z=0.40
; fan on
M106
;
; 'Loop', 53.3 [RPM], 33.4 [mm/s]
G1 F9000
G1 X79.49 Y70.93 E0
G1 F210
G1 X79.49 Y70.93 Z0.4 E0
G1 F2004.6
G1 X78.6 Y71.75 E0.0399
G1 X77.65 Y72.49 E0.0802
G1 X76.6 Y73.14 E0.1212
G1 X75.6 Y73.65 E0.1585
G1 X74.53 Y74.09 E0.197
G1 X73.46 Y74.42 E0.2343
G1 X72.26 Y74.69 E0.2752
G1 X71.12 Y74.83 E0.3133
G1 X69.85 Y74.88 E0.3556
G1 X30.09 Y74.88 E1.6781
G1 X28.83 Y74.83 E1.7201
G1 X27.71 Y74.68 E1.7576
G1 X26.74 Y74.47 E1.7907
G1 X26.44 Y74.39 E1.801
G1 X25.44 Y74.08 E1.8359
G1 X24.37 Y73.64 E1.8743
G1 X23.37 Y73.12 E1.9115
G1 X22.33 Y72.47 E1.9524
G1 X21.38 Y71.73 E1.9927
G1 X20.49 Y70.91 E2.0326
G1 X19.77 Y70.13 E2.0681
G1 X19.11 Y69.28 E2.1039
G1 X18.38 Y68.13 E2.1493
G1 X17.86 Y67.13 E2.1866
G1 X17.42 Y66.06 E2.225
G1 X17.06 Y64.91 E2.2652
G1 X16.82 Y63.83 E2.302
G1 X16.67 Y62.66 E2.3412
G1 X16.62 Y61.57 E2.3776
G1 X16.67 Y60.3 E2.4198
G1 X16.83 Y59.14 E2.4588
G1 X17.07 Y58.06 E2.4956
G1 X17.43 Y56.91 E2.5355
G1 X17.87 Y55.85 E2.5739
G1 X18.39 Y54.85 E2.6111
G1 X19.04 Y53.81 E2.652
G1 X19.79 Y52.86 E2.6922
G1 X20.51 Y52.07 E2.7277
G1 X21.39 Y51.26 E2.7677
G1 X22.35 Y50.52 E2.8079
G1 X23.39 Y49.87 E2.8489
G1 X24.39 Y49.35 E2.8862
G1 X25.46 Y48.92 E2.9247
G1 X26.57 Y48.57 E2.9634
G1 X27.7 Y48.32 E3.0017
G1 X28.87 Y48.17 E3.041
G1 X29.95 Y48.12 E3.0771
G1 X30.11 Y48.09 E3.0824
G1 X30.34 Y47.94 E3.0915
G1 X30.52 Y47.75 E3.1004
G1 X30.62 Y47.46 E3.1103
G1 X30.62 Y47.34 E3.1144
G1 X30.62 Y45.21 E3.1854
G1 X30.72 Y45.12 E3.1898
G1 X69.35 Y45.12 E4.4746
G1 X69.38 Y45.27 E4.4799
G1 X69.38 Y47.5 E4.5542
G1 X69.42 Y47.69 E4.5604
G1 X69.56 Y47.92 E4.5695
G1 X69.8 Y48.06 E4.5786
G1 X70.11 Y48.12 E4.5893
G1 X71.19 Y48.18 E4.6252
G1 X72.35 Y48.33 E4.6643
G1 X73.43 Y48.57 E4.701
G1 X74.58 Y48.93 E4.741
G1 X75.65 Y49.37 E4.7794
G1 X76.64 Y49.89 E4.8166
G1 X77.68 Y50.54 E4.8575
G1 X78.64 Y51.28 E4.8977
G1 X79.42 Y52 E4.9332
G1 X80.32 Y52.99 E4.9776
G1 X81.06 Y53.95 E5.0179
G1 X81.65 Y54.87 E5.0543
G1 X81.7 Y55.01 E5.0592
G1 X82.15 Y55.88 E5.0917
G1 X82.59 Y56.95 E5.1301
G1 X82.82 Y57.66 E5.1551
G1 X82.91 Y57.95 E5.1651
G1 X83.15 Y59.03 E5.202
G1 X83.31 Y60.19 E5.2409
G1 X83.34 Y60.54 E5.2526
G1 X83.38 Y61.45 E5.2828
G1 X83.32 Y62.71 E5.3248
G1 X83.17 Y63.87 E5.3638
G1 X82.93 Y64.95 E5.4005
G1 X82.57 Y66.1 E5.4405
G1 X82.12 Y67.16 E5.4788
G1 X81.61 Y68.15 E5.516
G1 X80.95 Y69.19 E5.5569
G1 X80.3 Y70.04 E5.5927
G1 X79.49 Y70.93 E5.6326
;
; 'Perimeter', 27.9 [RPM], 17.5 [mm/s]
G1 F9000
G1 X79.69 Y71 E5.6326
G1 F1050
G1 X79.77 Y71.22 E5.6402
G1 X78.89 Y72.03 E5.6801
G1 X77.82 Y72.85 E5.7249
G1 X76.89 Y73.44 E5.7617
G1 X75.73 Y74.04 E5.805
G1 X74.71 Y74.46 E5.8416
G1 X73.56 Y74.82 E5.8816
G1 X72.32 Y75.08 E5.9239
G1 X71.15 Y75.23 E5.963
G1 X69.88 Y75.29 E6.0055
G1 X30.07 Y75.28 E7.3295
G1 X28.8 Y75.23 E7.3716
G1 X27.64 Y75.08 E7.4107
G1 X26.4 Y74.81 E7.4528
G1 X25.26 Y74.45 E7.4927
G1 X24.2 Y74.01 E7.5309
G1 X23.08 Y73.42 E7.5729
G1 X22.16 Y72.83 E7.6092
G1 X21.2 Y72.1 E7.6495
G1 X20.21 Y71.2 E7.6938
G1 X19.4 Y70.31 E7.7338
G1 X18.67 Y69.34 E7.7741
G1 X18.08 Y68.42 E7.8104
G1 X17.5 Y67.31 E7.8523
G1 X17.06 Y66.24 E7.8907
G1 X16.69 Y65.09 E7.9307
G1 X16.42 Y63.86 E7.9729
G1 X16.27 Y62.68 E8.0122
G1 X16.22 Y61.54 E8.0503
G1 X16.27 Y60.28 E8.0924
G1 X16.43 Y59.11 E8.1314
G1 X16.69 Y57.91 E8.1722
G1 X17.04 Y56.81 E8.2107
G1 X17.51 Y55.67 E8.2516
G1 X18.02 Y54.68 E8.2889
G1 X18.68 Y53.64 E8.3298
G1 X19.41 Y52.68 E8.37
G1 X20.22 Y51.79 E8.41
G1 X21.21 Y50.89 E8.4543
G1 X22.17 Y50.16 E8.4946
G1 X23.17 Y49.53 E8.5337
G1 X24.21 Y48.99 E8.5729
G1 X25.28 Y48.55 E8.6113
G1 X26.43 Y48.19 E8.6514
G1 X27.67 Y47.92 E8.6936
G1 X28.84 Y47.77 E8.7329
G1 X29.93 Y47.72 E8.769
G1 X30.06 Y47.66 E8.7738
G1 X30.16 Y47.57 E8.7782
G1 X30.21 Y47.44 E8.7829
G1 X30.21 Y44.8 E8.8706
G1 X30.31 Y44.71 E8.875
G1 X69.74 Y44.72 E10.1865
G1 X69.78 Y44.87 E10.1917
G1 X69.79 Y47.51 E10.2796
G1 X69.85 Y47.64 E10.2843
G1 X70.14 Y47.72 E10.2943
G1 X71.04 Y47.76 E10.3244
G1 X71.22 Y47.77 E10.3303
G1 X72.38 Y47.92 E10.3694
G1 X73.62 Y48.2 E10.4114
G1 X74.76 Y48.56 E10.4513
G1 X75.78 Y48.99 E10.4881
G1 X76.93 Y49.59 E10.5314
G1 X77.86 Y50.18 E10.5678
G1 X78.82 Y50.91 E10.608
G1 X79.71 Y51.72 E10.648
G1 X80.61 Y52.71 E10.6924
G1 X81.34 Y53.67 E10.7326
G1 X81.93 Y54.59 E10.769
G1 X82.49 Y55.67 E10.8096
G1 X82.95 Y56.77 E10.8493
G1 X83.31 Y57.92 E10.8893
G1 X83.58 Y59.16 E10.9316
G1 X83.73 Y60.34 E10.9709
G1 X83.78 Y61.47 E11.0087
G1 X83.73 Y62.73 E11.0507
G1 X83.57 Y63.9 E11.0897
G1 X83.33 Y64.98 E11.1266
G1 X82.95 Y66.22 E11.1699
G1 X82.49 Y67.33 E11.2099
G1 X81.98 Y68.33 E11.2472
G1 X81.32 Y69.37 E11.288
G1 X80.58 Y70.33 E11.3283
G1 X79.77 Y71.22 E11.3682
G1 X79.55 Y71.15 E11.3758
;
; 'Loop', 53.3 [RPM], 33.4 [mm/s]
G1 F9000
G1 X58.94 Y68.91 E11.3758
G1 F2004.6
G1 X58.71 Y69.05 E11.3849
G1 X58.4 Y69.12 E11.3955
G1 X41.48 Y69.12 E11.958
G1 X41.33 Y69.08 E11.9633
G1 X41.09 Y68.94 E11.9724
G1 X40.95 Y68.71 E11.9815
G1 X40.88 Y68.4 E11.9922
G1 X40.88 Y58.63 E12.3168
G1 X40.92 Y58.3 E12.3281
G1 X41.07 Y58.06 E12.3372
G1 X41.3 Y57.92 E12.3463
G1 X41.57 Y57.88 E12.3554
G1 X58.45 Y57.88 E12.9169
G1 X58.66 Y57.92 E12.9241
G1 X58.9 Y58.06 E12.9332
G1 X59.04 Y58.29 E12.9423
G1 X59.12 Y58.6 E12.9526
G1 X59.12 Y68.52 E13.2827
G1 X59.08 Y68.67 E13.288
G1 X58.94 Y68.91 E13.2971
;
; 'Perimeter', 27.9 [RPM], 17.5 [mm/s]
G1 F9000
G1 X58.84 Y68.67 E13.2971
G1 F1050
G1 X58.66 Y68.62 E13.3034
G1 X58.37 Y68.71 E13.3134
G1 X50.35 Y68.71 E13.5801
G1 X41.5 Y68.72 E13.8743
G1 X41.38 Y68.66 E13.8791
G1 X41.29 Y68.37 E13.8891
G1 X41.29 Y58.66 E14.2121
G1 X41.29 Y58.54 E14.2159
G1 X41.29 Y58.48 E14.2181
G1 X41.35 Y58.35 E14.2228
G1 X41.55 Y58.28 E14.2296
G1 X58.48 Y58.28 E14.7928
G1 X58.61 Y58.34 E14.7978
G1 X58.71 Y58.62 E14.8076
G1 X58.72 Y68.5 E15.136
G1 X58.66 Y68.62 E15.1407
G1 X58.71 Y68.81 E15.1471
; fan off
M107
;
; 'Solid', 63.9 [RPM], 40.0 [mm/s]
G1 F9000
G1 X69.08 Y47.39 E15.1471
G1 F2400
G1 X67.16 Y45.48 E15.2373
G1 X67.73 Y45.48 E15.2561
G1 X69.02 Y46.77 E15.3168
G1 X69.02 Y46.2 E15.3356
G1 X68.29 Y45.48 E15.3697
G1 X68.86 Y45.48 E15.3886
G1 X69.06 Y45.68 E15.3981
;
; 'Wipe', 0.0 [RPM], 40.0 [mm/s]
;
; 'Solid', 63.9 [RPM], 40.0 [mm/s]
G1 F9000
G1 X76.26 Y50.03 E15.3981
G1 F2400
G1 X81.37 Y55.12 E15.6381
G1 X81.91 Y56.22 E15.6788
G1 X75.26 Y49.6 E15.991
G1 X74.33 Y49.24 E16.024
G1 X82.29 Y57.17 E16.3977
G1 X82.53 Y57.96 E16.4253
G1 X73.49 Y48.96 E16.8496
G1 X72.75 Y48.78 E16.8749
G1 X82.71 Y58.71 E17.3426
G1 X82.84 Y59.41 E17.3662
G1 X72.04 Y48.65 E17.8732
G1 X71.39 Y48.56 E17.895
G1 X82.94 Y60.07 E18.4372
G1 X82.98 Y60.68 E18.4575
G1 X70.77 Y48.51 E19.0308
G1 X70.18 Y48.49 E19.0505
G1 X83.02 Y61.27 E19.6531
G1 X83.01 Y61.83 E19.6716
G1 X66.59 Y45.48 E20.4422
G1 X66.03 Y45.48 E20.461
G1 X82.99 Y62.37 E21.2572
G1 X82.94 Y62.89 E21.2744
G1 X65.46 Y45.48 E22.0948
G1 X64.89 Y45.48 E22.1137
G1 X82.87 Y63.39 E22.9578
G1 X82.79 Y63.88 E22.9741
G1 X64.33 Y45.48 E23.8411
G1 X63.76 Y45.48 E23.86
G1 X82.69 Y64.34 E24.7489
G1 X82.59 Y64.8 E24.7646
G1 X63.19 Y45.48 E25.6752
G1 X62.63 Y45.48 E25.694
G1 X82.46 Y65.24 E26.6251
G1 X82.33 Y65.67 E26.6402
G1 X62.06 Y45.48 E27.5916
G1 X61.49 Y45.48 E27.6104
G1 X82.18 Y66.09 E28.5817
G1 X82.01 Y66.49 E28.596
G1 X60.93 Y45.48 E29.586
G1 X60.36 Y45.48 E29.6048
G1 X81.85 Y66.89 E30.6137
G1 X81.66 Y67.27 E30.6278
G1 X59.79 Y45.48 E31.6545
G1 X59.23 Y45.48 E31.6733
G1 X81.47 Y67.64 E32.7176
G1 X81.27 Y68.01 E32.7315
G1 X58.66 Y45.48 E33.7932
G1 X58.09 Y45.48 E33.812
G1 X81.06 Y68.36 E34.8901
G1 X80.84 Y68.7 E34.9037
G1 X57.53 Y45.48 E35.9981
G1 X56.96 Y45.48 E36.0169
G1 X80.61 Y69.04 E37.1272
G1 X80.36 Y69.36 E37.1407
G1 X56.39 Y45.48 E38.2661
G1 X55.83 Y45.48 E38.2849
G1 X80.12 Y69.68 E39.4254
G1 X79.86 Y69.99 E39.4387
G1 X55.26 Y45.48 E40.5938
G1 X54.69 Y45.48 E40.6127
G1 X79.59 Y70.29 E41.7817
G1 X79.32 Y70.58 E41.795
G1 X54.13 Y45.48 E42.9779
G1 X53.56 Y45.48 E42.9967
G1 X79.04 Y70.86 E44.1929
G1 X78.74 Y71.13 E44.2062
G1 X52.99 Y45.48 E45.4151
G1 X52.43 Y45.48 E45.4339
G1 X78.45 Y71.4 E46.6555
G1 X78.13 Y71.65 E46.6689
G1 X51.86 Y45.48 E47.9024
G1 X51.29 Y45.48 E47.9213
G1 X77.81 Y71.9 E49.1664
G1 X77.49 Y72.15 E49.1798
G1 X50.73 Y45.48 E50.4365
G1 X50.16 Y45.48 E50.4553
G1 X77.15 Y72.37 E51.7225
G1 X76.8 Y72.59 E51.7361
G1 X49.59 Y45.48 E53.0137
G1 X49.03 Y45.48 E53.0325
G1 X76.45 Y72.8 E54.3202
G1 X76.08 Y73 E54.3342
G1 X48.46 Y45.48 E55.6311
G1 X47.89 Y45.48 E55.6499
G1 X75.71 Y73.19 E56.9558
G1 X75.33 Y73.37 E56.97
G1 X47.33 Y45.48 E58.2845
G1 X46.76 Y45.48 E58.3034
G1 X74.92 Y73.54 E59.6257
G1 X74.53 Y73.71 E59.6401
G1 X59.48 Y58.71 E60.3466
G1 X59.48 Y59.28 E60.3654
G1 X74.1 Y73.85 E61.0519
G1 X73.67 Y73.98 E61.0669
G1 X59.48 Y59.84 E61.7332
G1 X59.48 Y60.41 E61.7519
G1 X73.23 Y74.11 E62.3975
G1 X72.76 Y74.21 E62.4132
G1 X59.48 Y60.97 E63.0371
G1 X59.48 Y61.54 E63.0559
G1 X72.3 Y74.31 E63.6578
G1 X71.81 Y74.38 E63.6744
G1 X59.48 Y62.1 E64.2532
G1 X59.48 Y62.67 E64.272
G1 X71.3 Y74.45 E64.8271
G1 X70.78 Y74.49 E64.8446
G1 X59.48 Y63.23 E65.3751
G1 X59.48 Y63.8 E65.3939
G1 X70.23 Y74.51 E65.8988
G1 X69.68 Y74.52 E65.9171
G1 X59.48 Y64.36 E66.3961
G1 X59.48 Y64.92 E66.4149
G1 X69.11 Y74.52 E66.8671
G1 X68.54 Y74.52 E66.886
G1 X59.48 Y65.49 E67.3117
G1 X59.48 Y66.05 E67.3305
G1 X67.98 Y74.52 E67.7295
G1 X67.41 Y74.52 E67.7484
G1 X59.48 Y66.62 E68.1208
G1 X59.48 Y67.18 E68.1396
G1 X66.84 Y74.52 E68.4855
G1 X66.28 Y74.52 E68.5043
G1 X59.48 Y67.75 E68.8236
G1 X59.48 Y68.31 E68.8423
G1 X65.71 Y74.52 E69.135
G1 X65.14 Y74.52 E69.1538
G1 X59.41 Y68.81 E69.4229
G1 X59.2 Y69.16 E69.4365
G1 X64.58 Y74.52 E69.6891
G1 X64.01 Y74.52 E69.708
G1 X58.86 Y69.39 E69.9499
G1 X58.37 Y69.47 E69.9663
G1 X63.44 Y74.52 E70.2045
G1 X62.88 Y74.52 E70.2234
G1 X57.81 Y69.48 E70.461
G1 X57.25 Y69.48 E70.4799
G1 X62.31 Y74.52 E70.7176
G1 X61.74 Y74.52 E70.7364
G1 X56.68 Y69.48 E70.9741
G1 X56.11 Y69.48 E70.9929
G1 X61.17 Y74.52 E71.2306
G1 X60.61 Y74.52 E71.2494
G1 X55.55 Y69.48 E71.4871
G1 X54.98 Y69.48 E71.506
G1 X60.04 Y74.52 E71.7436
G1 X59.47 Y74.52 E71.7625
G1 X54.41 Y69.48 E72.0001
G1 X53.85 Y69.48 E72.019
G1 X58.91 Y74.52 E72.2567
G1 X58.34 Y74.52 E72.2755
G1 X53.28 Y69.48 E72.5132
G1 X52.71 Y69.48 E72.532
G1 X57.77 Y74.52 E72.7697
G1 X57.21 Y74.52 E72.7886
G1 X52.15 Y69.48 E73.0262
G1 X51.58 Y69.48 E73.0451
G1 X56.64 Y74.52 E73.2828
G1 X56.07 Y74.52 E73.3016
G1 X51.01 Y69.48 E73.5393
G1 X50.44 Y69.48 E73.5582
G1 X55.51 Y74.52 E73.7958
G1 X54.94 Y74.52 E73.8147
G1 X49.88 Y69.48 E74.0524
G1 X49.31 Y69.48 E74.0712
G1 X54.37 Y74.52 E74.3089
G1 X53.81 Y74.52 E74.3278
G1 X48.74 Y69.48 E74.5655
G1 X48.18 Y69.48 E74.5843
G1 X53.24 Y74.52 E74.822
G1 X52.67 Y74.52 E74.8409
G1 X47.61 Y69.48 E75.0786
G1 X47.04 Y69.48 E75.0974
G1 X52.11 Y74.52 E75.3351
G1 X51.54 Y74.52 E75.354
G1 X46.48 Y69.48 E75.5917
G1 X45.91 Y69.48 E75.6105
G1 X50.97 Y74.52 E75.8482
G1 X50.41 Y74.52 E75.8671
G1 X45.34 Y69.48 E76.1048
G1 X44.78 Y69.48 E76.1237
G1 X49.84 Y74.52 E76.3614
G1 X49.27 Y74.52 E76.3802
G1 X44.21 Y69.48 E76.618
G1 X43.64 Y69.48 E76.6368
G1 X48.71 Y74.52 E76.8745
G1 X48.14 Y74.52 E76.8934
G1 X43.08 Y69.48 E77.1311
G1 X42.51 Y69.48 E77.15
G1 X47.57 Y74.52 E77.3877
G1 X47.01 Y74.52 E77.4066
G1 X41.95 Y69.48 E77.6441
G1 X41.34 Y69.44 E77.6642
G1 X46.44 Y74.52 E77.9035
G1 X45.87 Y74.52 E77.9224
G1 X22.29 Y51.02 E79.0297
G1 X21.97 Y51.27 E79.0432
G1 X45.31 Y74.52 E80.1389
G1 X44.74 Y74.52 E80.1578
G1 X21.65 Y51.51 E81.242
G1 X21.35 Y51.78 E81.2553
G1 X44.17 Y74.52 E82.3269
G1 X43.61 Y74.52 E82.3457
G1 X21.06 Y52.05 E83.4045
G1 X20.76 Y52.33 E83.4178
G1 X43.04 Y74.52 E84.4637
G1 X42.47 Y74.52 E84.4825
G1 X20.49 Y52.62 E85.5145
G1 X20.22 Y52.92 E85.5278
G1 X41.91 Y74.52 E86.5459
G1 X41.34 Y74.52 E86.5647
G1 X19.96 Y53.22 E87.5686
G1 X19.71 Y53.54 E87.582
G1 X40.77 Y74.52 E88.5707
G1 X40.21 Y74.52 E88.5896
G1 X19.47 Y53.86 E89.5632
G1 X19.23 Y54.19 E89.5767
G1 X39.64 Y74.52 E90.5348
G1 X39.07 Y74.52 E90.5537
G1 X19.01 Y54.54 E91.4954
G1 X18.79 Y54.88 E91.509
G1 X38.51 Y74.52 E92.4345
G1 X37.94 Y74.52 E92.4534
G1 X18.59 Y55.25 E93.3617
G1 X18.4 Y55.62 E93.3757
G1 X37.37 Y74.52 E94.2665
G1 X36.81 Y74.52 E94.2854
G1 X18.21 Y55.99 E95.1587
G1 X18.04 Y56.39 E95.173
G1 X36.24 Y74.52 E96.0276
G1 X35.67 Y74.52 E96.0464
G1 X17.87 Y56.79 E96.8821
G1 X17.72 Y57.2 E96.8966
G1 X35.11 Y74.52 E97.7131
G1 X34.54 Y74.52 E97.732
G1 X17.58 Y57.63 E98.5281
G1 X17.45 Y58.06 E98.543
G1 X33.97 Y74.52 E99.3189
G1 X33.41 Y74.52 E99.3378
G1 X17.34 Y58.51 E100.0922
G1 X17.24 Y58.98 E100.1079
G1 X32.84 Y74.52 E100.8405
G1 X32.27 Y74.52 E100.8593
G1 X17.15 Y59.46 E101.5694
G1 X17.08 Y59.95 E101.5861
G1 X31.71 Y74.52 E102.2726
G1 X31.14 Y74.52 E102.2915
G1 X17.03 Y60.46 E102.9541
G1 X17 Y61 E102.9719
G1 X30.57 Y74.52 E103.6092
G1 X30 Y74.52 E103.6282
G1 X16.98 Y61.55 E104.2393
G1 X17 Y62.13 E104.2588
G1 X29.41 Y74.49 E104.8413
G1 X28.82 Y74.47 E104.8611
G1 X17.04 Y62.74 E105.4137
G1 X17.13 Y63.39 E105.4354
G1 X28.16 Y74.37 E105.9532
G1 X27.49 Y74.27 E105.9758
G1 X17.25 Y64.07 E106.4566
G1 X17.41 Y64.79 E106.4812
G1 X26.74 Y74.09 E106.9195
G1 X25.94 Y73.86 E106.9472
G1 X17.66 Y65.62 E107.3358
G1 X17.98 Y66.5 E107.367
G1 X25.03 Y73.51 E107.6977
G1 X23.99 Y73.04 E107.7356
G1 X18.36 Y67.44 E107.9999
;
; 'Solid', 63.9 [RPM], 40.0 [mm/s]
G1 F9000
G1 X19.14 Y68.78 E107.9999
G1 F2400
G1 X22.71 Y72.34 E108.1673
;
; 'Solid', 63.9 [RPM], 40.0 [mm/s]
G1 F9000
G1 X22.57 Y50.74 E108.1673
G1 F2400
G1 X40.58 Y68.69 E109.0131
G1 X40.51 Y68.05 E109.0343
G1 X22.96 Y50.56 E109.8585
G1 X23.31 Y50.34 E109.8721
G1 X40.52 Y67.5 E110.6804
G1 X40.52 Y66.93 E110.6992
G1 X23.66 Y50.13 E111.4908
G1 X24.04 Y49.94 E111.5047
G1 X40.52 Y66.37 E112.2788
G1 X40.52 Y65.8 E112.2975
G1 X24.41 Y49.75 E113.0541
G1 X24.8 Y49.57 E113.0684
G1 X40.52 Y65.24 E113.8065
G1 X40.52 Y64.67 E113.8253
G1 X25.2 Y49.41 E114.5447
G1 X25.61 Y49.25 E114.5592
G1 X40.52 Y64.11 E115.2595
G1 X40.52 Y63.54 E115.2783
G1 X26.04 Y49.11 E115.9584
G1 X26.47 Y48.97 E115.9734
G1 X40.52 Y62.98 E116.6333
G1 X40.52 Y62.41 E116.6521
G1 X26.92 Y48.86 E117.2909
G1 X27.38 Y48.76 E117.3067
G1 X40.52 Y61.85 E117.9237
G1 X40.52 Y61.29 E117.9425
G1 X27.86 Y48.67 E118.5372
G1 X28.35 Y48.6 E118.5539
G1 X40.52 Y60.72 E119.1253
G1 X40.52 Y60.16 E119.144
G1 X28.86 Y48.54 E119.6916
G1 X29.39 Y48.5 E119.7094
G1 X40.52 Y59.59 E120.2319
G1 X40.52 Y59.03 E120.2507
G1 X29.93 Y48.47 E120.748
G1 X30.39 Y48.36 E120.7636
G1 X40.54 Y58.48 E121.2402
G1 X40.65 Y58.02 E121.2559
G1 X30.7 Y48.11 E121.723
G1 X30.91 Y47.76 E121.7367
G1 X40.91 Y57.72 E122.2062
G1 X41.31 Y57.56 E122.2207
G1 X30.98 Y47.26 E122.7058
G1 X30.98 Y46.69 E122.7246
G1 X41.85 Y57.52 E123.2349
G1 X42.41 Y57.52 E123.2537
G1 X30.98 Y46.13 E123.7906
G1 X30.98 Y45.57 E123.8093
G1 X42.98 Y57.52 E124.3728
G1 X43.55 Y57.52 E124.3916
G1 X31.46 Y45.48 E124.9592
G1 X32.02 Y45.48 E124.9781
G1 X44.11 Y57.52 E125.5457
G1 X44.68 Y57.52 E125.5645
G1 X32.59 Y45.48 E126.1321
G1 X33.16 Y45.48 E126.1509
G1 X45.25 Y57.52 E126.7185
G1 X45.81 Y57.52 E126.7374
G1 X33.72 Y45.48 E127.3049
G1 X34.29 Y45.48 E127.3238
G1 X46.38 Y57.52 E127.8914
G1 X46.95 Y57.52 E127.9102
G1 X34.86 Y45.48 E128.4778
G1 X35.42 Y45.48 E128.4966
G1 X47.51 Y57.52 E129.0642
G1 X48.08 Y57.52 E129.0831
G1 X35.99 Y45.48 E129.6506
G1 X36.56 Y45.48 E129.6695
G1 X48.65 Y57.52 E130.237
G1 X49.21 Y57.52 E130.2559
G1 X37.12 Y45.48 E130.8234
G1 X37.69 Y45.48 E130.8423
G1 X49.78 Y57.52 E131.4098
G1 X50.35 Y57.52 E131.4287
G1 X38.26 Y45.48 E131.9962
G1 X38.83 Y45.48 E132.0151
G1 X50.91 Y57.52 E132.5826
G1 X51.48 Y57.52 E132.6014
G1 X39.39 Y45.48 E133.169
G1 X39.96 Y45.48 E133.1878
G1 X52.05 Y57.52 E133.7554
G1 X52.61 Y57.52 E133.7742
G1 X40.53 Y45.48 E134.3417
G1 X41.09 Y45.48 E134.3606
G1 X53.18 Y57.52 E134.9281
G1 X53.75 Y57.52 E134.947
G1 X41.66 Y45.48 E135.5145
G1 X42.23 Y45.48 E135.5333
G1 X54.31 Y57.52 E136.1008
G1 X54.88 Y57.52 E136.1197
G1 X42.79 Y45.48 E136.6872
G1 X43.36 Y45.48 E136.7061
G1 X55.45 Y57.52 E137.2736
G1 X56.01 Y57.52 E137.2924
G1 X43.93 Y45.48 E137.8599
G1 X44.49 Y45.48 E137.8788
G1 X56.58 Y57.52 E138.4463
G1 X57.15 Y57.52 E138.4651
G1 X45.06 Y45.48 E139.0326
G1 X45.63 Y45.48 E139.0515
G1 X57.71 Y57.52 E139.619
G1 X58.28 Y57.52 E139.6378
G1 X46.13 Y45.42 E140.2081
;
; 'Solid', 63.9 [RPM], 40.0 [mm/s]
G1 F9000
G1 X77.88 Y51.08 E140.2081
G1 F2400
G1 X80.43 Y53.62 E140.3278
;
; 'Wipe', 0.0 [RPM], 40.0 [mm/s]
G1 F210
G1 X80.43 Y53.62 Z0.85 E140.3278
; END_LAYER_OBJECT z=0.40
; Reset extruder pos
G92 E0
; BEGIN_LAYER_OBJECT z=0.60
; fan on
M106
;
; 'Loop', 53.3 [RPM], 33.4 [mm/s]
G1 F9000
G1 X79.49 Y70.93 E0
G1 F210
G1 X79.49 Y70.93 Z0.6 E0
G1 F2004.6
G1 X78.6 Y71.75 E0.0399
G1 X77.65 Y72.49 E0.0802
G1 X76.6 Y73.14 E0.1212
G1 X75.6 Y73.65 E0.1585
G1 X74.53 Y74.09 E0.197
G1 X73.46 Y74.42 E0.2343
G1 X72.26 Y74.69 E0.2752
G1 X71.12 Y74.83 E0.3133
G1 X69.85 Y74.88 E0.3556
G1 X30.09 Y74.88 E1.6781
G1 X28.83 Y74.83 E1.7201
G1 X27.71 Y74.68 E1.7576
G1 X26.74 Y74.47 E1.7907
G1 X26.44 Y74.39 E1.801
G1 X25.44 Y74.08 E1.8359
G1 X24.37 Y73.64 E1.8743
G1 X23.37 Y73.12 E1.9115
G1 X22.33 Y72.47 E1.9524
G1 X21.38 Y71.73 E1.9927
G1 X20.49 Y70.91 E2.0326
G1 X19.77 Y70.13 E2.0681
G1 X19.11 Y69.28 E2.1039
G1 X18.38 Y68.13 E2.1493
G1 X17.86 Y67.13 E2.1866
G1 X17.42 Y66.06 E2.225
G1 X17.06 Y64.91 E2.2652
G1 X16.82 Y63.83 E2.302
G1 X16.67 Y62.66 E2.3412
G1 X16.62 Y61.57 E2.3776
G1 X16.67 Y60.3 E2.4198
G1 X16.83 Y59.14 E2.4588
G1 X17.07 Y58.06 E2.4956
G1 X17.43 Y56.91 E2.5355
G1 X17.87 Y55.85 E2.5739
G1 X18.39 Y54.85 E2.6111
G1 X19.04 Y53.81 E2.652
G1 X19.79 Y52.86 E2.6922
G1 X20.51 Y52.07 E2.7277
G1 X21.39 Y51.26 E2.7677
G1 X22.35 Y50.52 E2.8079
G1 X23.39 Y49.87 E2.8489
G1 X24.39 Y49.35 E2.8862
G1 X25.46 Y48.92 E2.9247
G1 X26.57 Y48.57 E2.9634
G1 X27.7 Y48.32 E3.0017
G1 X28.87 Y48.17 E3.041
G1 X29.95 Y48.12 E3.0771
G1 X30.11 Y48.09 E3.0824
G1 X30.34 Y47.94 E3.0915
G1 X30.52 Y47.75 E3.1004
G1 X30.62 Y47.46 E3.1103
G1 X30.62 Y47.34 E3.1144
G1 X30.62 Y45.21 E3.1854
G1 X30.72 Y45.12 E3.1898
G1 X69.35 Y45.12 E4.4746
G1 X69.38 Y45.27 E4.4799
G1 X69.38 Y47.5 E4.5542
G1 X69.42 Y47.69 E4.5604
G1 X69.56 Y47.92 E4.5695
G1 X69.8 Y48.06 E4.5786
G1 X70.11 Y48.12 E4.5893
G1 X71.19 Y48.18 E4.6252
G1 X72.35 Y48.33 E4.6643
G1 X73.43 Y48.57 E4.701
G1 X74.58 Y48.93 E4.741
G1 X75.65 Y49.37 E4.7794
G1 X76.64 Y49.89 E4.8166
G1 X77.68 Y50.54 E4.8575
G1 X78.64 Y51.28 E4.8977
G1 X79.42 Y52 E4.9332
G1 X80.32 Y52.99 E4.9776
G1 X81.06 Y53.95 E5.0179
G1 X81.65 Y54.87 E5.0543
G1 X81.7 Y55.01 E5.0592
G1 X82.15 Y55.88 E5.0917
G1 X82.59 Y56.95 E5.1301
G1 X82.82 Y57.66 E5.1551
G1 X82.91 Y57.95 E5.1651
G1 X83.15 Y59.03 E5.202
G1 X83.31 Y60.19 E5.2409
G1 X83.34 Y60.54 E5.2526
G1 X83.38 Y61.45 E5.2828
G1 X83.32 Y62.71 E5.3248
G1 X83.17 Y63.87 E5.3638
G1 X82.93 Y64.95 E5.4005
G1 X82.57 Y66.1 E5.4405
G1 X82.12 Y67.16 E5.4788
G1 X81.61 Y68.15 E5.516
G1 X80.95 Y69.19 E5.5569
G1 X80.3 Y70.04 E5.5927
G1 X79.49 Y70.93 E5.6326
;
; 'Perimeter', 27.9 [RPM], 17.5 [mm/s]
G1 F9000
G1 X79.69 Y71 E5.6326
G1 F1050
G1 X79.77 Y71.22 E5.6402
G1 X78.89 Y72.03 E5.6801
G1 X77.82 Y72.85 E5.7249
G1 X76.89 Y73.44 E5.7617
G1 X75.73 Y74.04 E5.805
G1 X74.71 Y74.46 E5.8416
G1 X73.56 Y74.82 E5.8816
G1 X72.32 Y75.08 E5.9239
G1 X71.15 Y75.23 E5.963
G1 X69.88 Y75.29 E6.0055
G1 X30.07 Y75.28 E7.3295
G1 X28.8 Y75.23 E7.3716
G1 X27.64 Y75.08 E7.4107
G1 X26.4 Y74.81 E7.4528
G1 X25.26 Y74.45 E7.4927
G1 X24.2 Y74.01 E7.5309
G1 X23.08 Y73.42 E7.5729
G1 X22.16 Y72.83 E7.6092
G1 X21.2 Y72.1 E7.6495
G1 X20.21 Y71.2 E7.6938
G1 X19.4 Y70.31 E7.7338
G1 X18.67 Y69.34 E7.7741
G1 X18.08 Y68.42 E7.8104
G1 X17.5 Y67.31 E7.8523
G1 X17.06 Y66.24 E7.8907
G1 X16.69 Y65.09 E7.9307
G1 X16.42 Y63.86 E7.9729
G1 X16.27 Y62.68 E8.0122
G1 X16.22 Y61.54 E8.0503
G1 X16.27 Y60.28 E8.0924
G1 X16.43 Y59.11 E8.1314
G1 X16.69 Y57.91 E8.1722
G1 X17.04 Y56.81 E8.2107
G1 X17.51 Y55.67 E8.2516
G1 X18.02 Y54.68 E8.2889
G1 X18.68 Y53.64 E8.3298
G1 X19.41 Y52.68 E8.37
G1 X20.22 Y51.79 E8.41
G1 X21.21 Y50.89 E8.4543
G1 X22.17 Y50.16 E8.4946
G1 X23.17 Y49.53 E8.5337
G1 X24.21 Y48.99 E8.5729
G1 X25.28 Y48.55 E8.6113
G1 X26.43 Y48.19 E8.6514
G1 X27.67 Y47.92 E8.6936
G1 X28.84 Y47.77 E8.7329
G1 X29.93 Y47.72 E8.769
G1 X30.06 Y47.66 E8.7738
G1 X30.16 Y47.57 E8.7782
G1 X30.21 Y47.44 E8.7829
G1 X30.21 Y44.8 E8.8706
G1 X30.31 Y44.71 E8.875
G1 X69.74 Y44.72 E10.1865
G1 X69.78 Y44.87 E10.1917
G1 X69.79 Y47.51 E10.2796
G1 X69.85 Y47.64 E10.2843
G1 X70.14 Y47.72 E10.2943
G1 X71.04 Y47.76 E10.3244
G1 X71.22 Y47.77 E10.3303
G1 X72.38 Y47.92 E10.3694
G1 X73.62 Y48.2 E10.4114
G1 X74.76 Y48.56 E10.4513
G1 X75.78 Y48.99 E10.4881
G1 X76.93 Y49.59 E10.5314
G1 X77.86 Y50.18 E10.5678
G1 X78.82 Y50.91 E10.608
G1 X79.71 Y51.72 E10.648
G1 X80.61 Y52.71 E10.6924
G1 X81.34 Y53.67 E10.7326
G1 X81.93 Y54.59 E10.769
G1 X82.49 Y55.67 E10.8096
G1 X82.95 Y56.77 E10.8493
G1 X83.31 Y57.92 E10.8893
G1 X83.58 Y59.16 E10.9316
G1 X83.73 Y60.34 E10.9709
G1 X83.78 Y61.47 E11.0087
G1 X83.73 Y62.73 E11.0507
G1 X83.57 Y63.9 E11.0897
G1 X83.33 Y64.98 E11.1266
G1 X82.95 Y66.22 E11.1699
G1 X82.49 Y67.33 E11.2099
G1 X81.98 Y68.33 E11.2472
G1 X81.32 Y69.37 E11.288
G1 X80.58 Y70.33 E11.3283
G1 X79.77 Y71.22 E11.3682
G1 X79.55 Y71.15 E11.3758
;
; 'Loop', 53.3 [RPM], 33.4 [mm/s]
G1 F9000
G1 X58.94 Y68.91 E11.3758
G1 F2004.6
G1 X58.71 Y69.05 E11.3849
G1 X58.4 Y69.12 E11.3955
G1 X41.48 Y69.12 E11.958
G1 X41.33 Y69.08 E11.9633
G1 X41.09 Y68.94 E11.9724
G1 X40.95 Y68.71 E11.9815
G1 X40.88 Y68.4 E11.9922
G1 X40.88 Y58.63 E12.3168
G1 X40.92 Y58.3 E12.3281
G1 X41.07 Y58.06 E12.3372
G1 X41.3 Y57.92 E12.3463
G1 X41.57 Y57.88 E12.3554
G1 X58.45 Y57.88 E12.9169
G1 X58.66 Y57.92 E12.9241
G1 X58.9 Y58.06 E12.9332
G1 X59.04 Y58.29 E12.9423
G1 X59.12 Y58.6 E12.9526
G1 X59.12 Y68.52 E13.2827
G1 X59.08 Y68.67 E13.288
G1 X58.94 Y68.91 E13.2971
;
; 'Perimeter', 27.9 [RPM], 17.5 [mm/s]
G1 F9000
G1 X58.84 Y68.67 E13.2971
G1 F1050
G1 X58.66 Y68.62 E13.3034
G1 X58.37 Y68.71 E13.3134
G1 X50.35 Y68.71 E13.5801
G1 X41.5 Y68.72 E13.8743
G1 X41.38 Y68.66 E13.8791
G1 X41.29 Y68.37 E13.8891
G1 X41.29 Y58.66 E14.2121
G1 X41.29 Y58.54 E14.2159
G1 X41.29 Y58.48 E14.2181
G1 X41.35 Y58.35 E14.2228
G1 X41.55 Y58.28 E14.2296
G1 X58.48 Y58.28 E14.7928
G1 X58.61 Y58.34 E14.7978
G1 X58.71 Y58.62 E14.8076
G1 X58.72 Y68.5 E15.136
G1 X58.66 Y68.62 E15.1407
G1 X58.71 Y68.81 E15.1471
; fan off
M107
;
; 'Solid', 63.9 [RPM], 40.0 [mm/s]
G1 F9000
G1 X77.1 Y72.47 E15.1471
G1 F2400
G1 X81 Y68.56 E15.331
;
; 'Solid', 63.9 [RPM], 40.0 [mm/s]
G1 F9000
G1 X81.74 Y67.25 E15.331
G1 F2400
G1 X75.91 Y73.1 E15.6055
G1 X74.9 Y73.55 E15.6423
G1 X82.09 Y66.33 E15.981
G1 X82.38 Y65.47 E16.0114
G1 X74 Y73.88 E16.4064
G1 X73.21 Y74.1 E16.4336
G1 X82.62 Y64.66 E16.877
G1 X82.78 Y63.94 E16.9017
G1 X72.47 Y74.28 E17.3875
G1 X71.81 Y74.38 E17.4098
G1 X82.89 Y63.26 E17.9321
G1 X82.96 Y62.62 E17.9535
G1 X71.16 Y74.46 E18.5096
G1 X70.57 Y74.5 E18.5295
G1 X83 Y62.01 E19.1155
G1 X83.01 Y61.43 E19.1348
G1 X69.98 Y74.52 E19.7493
G1 X69.41 Y74.52 E19.7681
G1 X83 Y60.89 E20.4083
G1 X82.96 Y60.35 E20.4261
G1 X68.85 Y74.52 E21.0913
G1 X68.28 Y74.52 E21.1101
G1 X82.91 Y59.84 E21.7994
G1 X82.84 Y59.34 E21.8161
G1 X67.72 Y74.52 E22.5287
G1 X67.15 Y74.52 E22.5474
G1 X82.74 Y58.87 E23.2821
G1 X82.64 Y58.41 E23.298
G1 X66.59 Y74.52 E24.0547
G1 X66.02 Y74.52 E24.0735
G1 X82.52 Y57.96 E24.8511
G1 X82.4 Y57.52 E24.8664
G1 X65.46 Y74.52 E25.6647
G1 X64.89 Y74.52 E25.6835
G1 X82.27 Y57.08 E26.5023
G1 X82.11 Y56.67 E26.5168
G1 X64.33 Y74.52 E27.3547
G1 X63.76 Y74.52 E27.3735
G1 X81.95 Y56.27 E28.2303
G1 X81.75 Y55.9 E28.2443
G1 X63.2 Y74.52 E29.1185
G1 X62.63 Y74.52 E29.1373
G1 X81.56 Y55.53 E30.0289
G1 X81.39 Y55.13 E30.0433
G1 X62.07 Y74.52 E30.9536
G1 X61.51 Y74.52 E30.9724
G1 X81.17 Y54.78 E31.899
G1 X80.95 Y54.44 E31.9127
G1 X60.94 Y74.52 E32.8556
G1 X60.38 Y74.52 E32.8743
G1 X80.72 Y54.1 E33.8332
G1 X80.48 Y53.78 E33.8467
G1 X59.81 Y74.52 E34.8206
G1 X59.25 Y74.52 E34.8394
G1 X80.23 Y53.46 E35.8283
G1 X79.98 Y53.14 E35.8417
G1 X58.68 Y74.52 E36.8455
G1 X58.12 Y74.52 E36.8643
G1 X79.71 Y52.85 E37.8819
G1 X79.44 Y52.55 E37.8953
G1 X57.55 Y74.52 E38.9268
G1 X56.99 Y74.52 E38.9455
G1 X79.17 Y52.26 E39.9908
G1 X78.87 Y51.99 E40.0041
G1 X56.42 Y74.52 E41.062
G1 X55.86 Y74.52 E41.0808
G1 X78.58 Y51.72 E42.1514
G1 X78.28 Y51.45 E42.1647
G1 X55.29 Y74.52 E43.2477
G1 X54.73 Y74.52 E43.2665
G1 X77.96 Y51.21 E44.3609
G1 X77.64 Y50.96 E44.3743
G1 X54.17 Y74.52 E45.4804
G1 X53.6 Y74.52 E45.4991
G1 X58.69 Y69.42 E45.7388
G1 X58.05 Y69.49 E45.76
G1 X53.04 Y74.52 E45.9964
G1 X52.47 Y74.52 E46.0151
G1 X57.5 Y69.48 E46.2519
G1 X56.93 Y69.48 E46.2707
G1 X51.91 Y74.52 E46.5075
G1 X51.34 Y74.52 E46.5262
G1 X56.37 Y69.48 E46.763
G1 X55.8 Y69.48 E46.7818
G1 X50.78 Y74.52 E47.0186
G1 X50.21 Y74.52 E47.0373
G1 X55.24 Y69.48 E47.2741
G1 X54.67 Y69.48 E47.2929
G1 X49.65 Y74.52 E47.5297
G1 X49.08 Y74.52 E47.5485
G1 X54.11 Y69.48 E47.7852
G1 X53.54 Y69.48 E47.804
G1 X48.52 Y74.52 E48.0408
G1 X47.95 Y74.52 E48.0596
G1 X52.98 Y69.48 E48.2964
G1 X52.41 Y69.48 E48.3151
G1 X47.39 Y74.52 E48.5519
G1 X46.83 Y74.52 E48.5707
G1 X51.85 Y69.48 E48.8075
G1 X51.29 Y69.48 E48.8263
G1 X46.26 Y74.52 E49.0631
G1 X45.7 Y74.52 E49.0819
G1 X50.72 Y69.48 E49.3187
G1 X50.16 Y69.48 E49.3374
G1 X45.13 Y74.52 E49.5743
G1 X44.57 Y74.52 E49.593
G1 X49.59 Y69.48 E49.8298
G1 X49.03 Y69.48 E49.8486
G1 X44 Y74.52 E50.0854
G1 X43.44 Y74.52 E50.1042
G1 X48.46 Y69.48 E50.341
G1 X47.9 Y69.48 E50.3598
G1 X42.87 Y74.52 E50.5966
G1 X42.31 Y74.52 E50.6154
G1 X47.33 Y69.48 E50.8523
G1 X46.77 Y69.48 E50.871
G1 X41.74 Y74.52 E51.1079
G1 X41.18 Y74.52 E51.1267
G1 X46.2 Y69.48 E51.3635
G1 X45.64 Y69.48 E51.3823
G1 X40.61 Y74.52 E51.6191
G1 X40.05 Y74.52 E51.6379
G1 X45.08 Y69.48 E51.8748
G1 X44.51 Y69.48 E51.8935
G1 X39.48 Y74.52 E52.1304
G1 X38.92 Y74.52 E52.1492
G1 X43.95 Y69.48 E52.386
G1 X43.38 Y69.48 E52.4048
G1 X38.36 Y74.52 E52.6417
G1 X37.79 Y74.52 E52.6605
G1 X42.82 Y69.48 E52.8974
G1 X42.25 Y69.48 E52.9161
G1 X37.23 Y74.52 E53.153
G1 X36.66 Y74.52 E53.1718
G1 X41.69 Y69.47 E53.4089
G1 X41.18 Y69.42 E53.4262
G1 X36.1 Y74.52 E53.6656
G1 X35.53 Y74.52 E53.6843
G1 X40.84 Y69.2 E53.9344
G1 X40.62 Y68.85 E53.9481
G1 X34.97 Y74.52 E54.2145
G1 X34.4 Y74.52 E54.2333
G1 X40.53 Y68.38 E54.5218
G1 X40.52 Y67.81 E54.5406
G1 X33.84 Y74.52 E54.8556
G1 X33.27 Y74.52 E54.8743
G1 X40.52 Y67.25 E55.2159
G1 X40.52 Y66.68 E55.2348
G1 X32.71 Y74.52 E55.603
G1 X32.14 Y74.52 E55.6218
G1 X40.52 Y66.11 E56.0166
G1 X40.52 Y65.55 E56.0355
G1 X31.58 Y74.52 E56.4569
G1 X31.01 Y74.52 E56.4757
G1 X40.52 Y64.98 E56.9237
G1 X40.52 Y64.41 E56.9426
G1 X30.45 Y74.52 E57.4173
G1 X29.89 Y74.51 E57.4358
G1 X40.52 Y63.85 E57.9366
G1 X40.52 Y63.28 E57.9555
G1 X29.35 Y74.49 E58.482
G1 X28.82 Y74.46 E58.4998
G1 X40.52 Y62.71 E59.0514
G1 X40.52 Y62.15 E59.0703
G1 X28.32 Y74.4 E59.6455
G1 X27.82 Y74.33 E59.6622
G1 X40.52 Y61.58 E60.261
G1 X40.52 Y61.01 E60.2798
G1 X27.35 Y74.23 E60.9006
G1 X26.88 Y74.13 E60.9164
G1 X40.52 Y60.44 E61.5591
G1 X40.52 Y59.88 E61.5779
G1 X26.44 Y74.02 E62.2417
G1 X26.01 Y73.88 E62.2567
G1 X40.52 Y59.31 E62.9407
G1 X40.52 Y58.74 E62.9595
G1 X25.58 Y73.74 E63.6637
G1 X25.18 Y73.58 E63.6782
G1 X53.17 Y45.48 E64.9976
G1 X52.61 Y45.48 E65.0164
G1 X24.78 Y73.42 E66.328
G1 X24.39 Y73.24 E66.3423
G1 X52.05 Y45.48 E67.6457
G1 X51.48 Y45.48 E67.6644
G1 X24.01 Y73.05 E68.9588
G1 X23.64 Y72.86 E68.9728
G1 X50.92 Y45.48 E70.2581
G1 X50.35 Y45.48 E70.2769
G1 X23.29 Y72.65 E71.5523
G1 X22.94 Y72.43 E71.5659
G1 X49.79 Y45.48 E72.8311
G1 X49.22 Y45.48 E72.8499
G1 X22.59 Y72.21 E74.1048
G1 X22.27 Y71.96 E74.1182
G1 X48.66 Y45.48 E75.3617
G1 X48.09 Y45.48 E75.3804
G1 X21.95 Y71.72 E76.6124
G1 X21.63 Y71.47 E76.6258
G1 X47.53 Y45.48 E77.8462
G1 X46.96 Y45.48 E77.865
G1 X21.33 Y71.2 E79.0727
G1 X21.04 Y70.93 E79.0861
G1 X46.4 Y45.48 E80.2811
G1 X45.83 Y45.48 E80.2999
G1 X20.75 Y70.66 E81.482
G1 X20.48 Y70.36 E81.4953
G1 X45.27 Y45.48 E82.6636
G1 X44.71 Y45.48 E82.6824
G1 X20.21 Y70.07 E83.8368
G1 X19.95 Y69.76 E83.8502
G1 X44.14 Y45.48 E84.9903
G1 X43.58 Y45.48 E85.0091
G1 X19.7 Y69.44 E86.1343
G1 X19.45 Y69.12 E86.1477
G1 X43.01 Y45.48 E87.2578
G1 X42.45 Y45.48 E87.2766
G1 X19.22 Y68.79 E88.3711
G1 X19 Y68.44 E88.3847
G1 X41.88 Y45.48 E89.463
G1 X41.32 Y45.48 E89.4818
G1 X18.78 Y68.1 E90.5437
G1 X18.58 Y67.73 E90.5576
G1 X40.75 Y45.48 E91.6025
G1 X40.19 Y45.48 E91.6213
G1 X18.39 Y67.36 E92.6486
G1 X18.19 Y66.99 E92.6626
G1 X39.62 Y45.48 E93.6724
G1 X39.06 Y45.48 E93.6912
G1 X18.03 Y66.59 E94.6822
G1 X17.86 Y66.19 E94.6966
G1 X38.49 Y45.48 E95.6689
G1 X37.93 Y45.48 E95.6877
G1 X17.71 Y65.77 E96.6406
G1 X17.57 Y65.34 E96.6557
G1 X37.37 Y45.48 E97.5883
G1 X36.8 Y45.48 E97.6071
G1 X17.44 Y64.91 E98.5195
G1 X17.33 Y64.45 E98.5351
G1 X36.24 Y45.48 E99.426
G1 X35.67 Y45.48 E99.4448
G1 X17.23 Y63.99 E100.3139
G1 X17.14 Y63.51 E100.33
G1 X35.11 Y45.48 E101.1766
G1 X34.54 Y45.48 E101.1954
G1 X17.08 Y63.01 E102.0183
G1 X17.02 Y62.5 E102.0353
G1 X33.98 Y45.48 E102.8345
G1 X33.41 Y45.48 E102.8532
G1 X17 Y61.95 E103.6268
G1 X16.98 Y61.41 E103.6451
G1 X29.85 Y48.48 E104.2518
G1 X29.26 Y48.51 E104.2715
G1 X17.01 Y60.81 E104.8489
G1 X17.05 Y60.2 E104.8691
G1 X28.65 Y48.56 E105.4159
G1 X28 Y48.64 E105.4376
G1 X17.14 Y59.55 E105.9495
G1 X17.26 Y58.86 E105.9726
G1 X27.3 Y48.78 E106.4461
G1 X26.57 Y48.94 E106.471
G1 X17.44 Y58.11 E106.9015
G1 X17.68 Y57.3 E106.9298
G1 X25.74 Y49.21 E107.3094
G1 X24.83 Y49.56 E107.3417
G1 X18.06 Y56.35 E107.6607
G1 X18.57 Y55.28 E107.7003
G1 X23.86 Y49.96 E107.9498
;
; 'Solid', 63.9 [RPM], 40.0 [mm/s]
G1 F9000
G1 X22.4 Y50.86 E107.9498
G1 F2400
G1 X19.38 Y53.89 E108.0921
;
; 'Wipe', 0.0 [RPM], 40.0 [mm/s]
;
; 'Solid', 63.9 [RPM], 40.0 [mm/s]
G1 F9000
G1 X31.18 Y45.46 E108.0921
G1 F2400
G1 X30.98 Y45.66 E108.1014
G1 X30.98 Y46.22 E108.1203
G1 X31.72 Y45.48 E108.1552
G1 X32.28 Y45.48 E108.174
G1 X30.98 Y46.79 E108.2355
G1 X30.97 Y47.36 E108.2546
G1 X32.91 Y45.42 E108.3459
;
; 'Solid', 63.9 [RPM], 40.0 [mm/s]
G1 F9000
G1 X53.8 Y45.42 E108.3459
G1 F2400
G1 X41.74 Y57.52 E108.9142
G1 X42.31 Y57.52 E108.9329
G1 X54.3 Y45.48 E109.4984
G1 X54.87 Y45.48 E109.5172
G1 X42.87 Y57.52 E110.0826
G1 X43.43 Y57.52 E110.1014
G1 X55.43 Y45.48 E110.6668
G1 X56 Y45.48 E110.6856
G1 X44 Y57.52 E111.2511
G1 X44.56 Y57.52 E111.2698
G1 X56.56 Y45.48 E111.8353
G1 X57.13 Y45.48 E111.8541
G1 X45.13 Y57.52 E112.4195
G1 X45.69 Y57.52 E112.4383
G1 X57.69 Y45.48 E113.0038
G1 X58.26 Y45.48 E113.0225
G1 X46.26 Y57.52 E113.588
G1 X46.82 Y57.52 E113.6068
G1 X58.82 Y45.48 E114.1722
G1 X59.39 Y45.48 E114.191
G1 X47.39 Y57.52 E114.7565
G1 X47.95 Y57.52 E114.7753
G1 X59.95 Y45.48 E115.3407
G1 X60.52 Y45.48 E115.3595
G1 X48.52 Y57.52 E115.9249
G1 X49.08 Y57.52 E115.9437
G1 X61.08 Y45.48 E116.5092
G1 X61.64 Y45.48 E116.528
G1 X49.65 Y57.52 E117.0934
G1 X50.21 Y57.52 E117.1122
G1 X62.21 Y45.48 E117.6777
G1 X62.77 Y45.48 E117.6964
G1 X50.77 Y57.52 E118.2619
G1 X51.34 Y57.52 E118.2807
G1 X63.34 Y45.48 E118.8461
G1 X63.9 Y45.48 E118.8649
G1 X51.9 Y57.52 E119.4304
G1 X52.47 Y57.52 E119.4491
G1 X64.47 Y45.48 E120.0146
G1 X65.03 Y45.48 E120.0334
G1 X53.03 Y57.52 E120.5988
G1 X53.6 Y57.52 E120.6176
G1 X65.6 Y45.48 E121.1831
G1 X66.16 Y45.48 E121.2018
G1 X54.16 Y57.52 E121.7673
G1 X54.73 Y57.52 E121.7861
G1 X66.73 Y45.48 E122.3515
G1 X67.29 Y45.48 E122.3703
G1 X55.29 Y57.52 E122.9358
G1 X55.86 Y57.52 E122.9545
G1 X67.86 Y45.48 E123.52
G1 X68.42 Y45.48 E123.5388
G1 X56.42 Y57.52 E124.1042
G1 X56.99 Y57.52 E124.123
G1 X68.99 Y45.47 E124.6886
G1 X69.02 Y46.01 E124.7063
G1 X57.55 Y57.52 E125.247
G1 X58.12 Y57.52 E125.2658
G1 X69.02 Y46.58 E125.7797
G1 X69.02 Y47.14 E125.7986
G1 X58.65 Y57.55 E126.2873
G1 X59.05 Y57.72 E126.3018
G1 X69.06 Y47.67 E126.7732
G1 X69.22 Y48.08 E126.7876
G1 X59.32 Y58.02 E127.2543
G1 X59.45 Y58.45 E127.2694
G1 X69.52 Y48.34 E127.744
G1 X69.96 Y48.46 E127.7593
G1 X59.48 Y58.99 E128.2535
G1 X59.48 Y59.56 E128.2723
G1 X70.49 Y48.5 E128.7913
G1 X71.03 Y48.53 E128.8093
G1 X59.48 Y60.12 E129.3537
G1 X59.48 Y60.69 E129.3725
G1 X71.54 Y48.58 E129.9409
G1 X72.04 Y48.65 E129.9577
G1 X59.48 Y61.26 E130.5497
G1 X59.48 Y61.82 E130.5685
G1 X72.52 Y48.73 E131.1831
G1 X72.98 Y48.84 E131.1988
G1 X59.48 Y62.39 E131.8351
G1 X59.48 Y62.96 E131.8539
G1 X73.44 Y48.94 E132.5117
G1 X73.87 Y49.08 E132.5267
G1 X59.48 Y63.52 E133.2048
G1 X59.48 Y64.09 E133.2237
G1 X74.3 Y49.21 E133.9221
G1 X74.71 Y49.37 E133.9366
G1 X59.48 Y64.66 E134.6543
G1 X59.48 Y65.22 E134.6731
G1 X75.11 Y49.54 E135.4097
G1 X75.51 Y49.7 E135.4241
G1 X59.48 Y65.79 E136.1794
G1 X59.48 Y66.36 E136.1983
G1 X75.88 Y49.9 E136.9711
G1 X76.25 Y50.09 E136.9851
G1 X59.48 Y66.92 E137.7755
G1 X59.48 Y67.49 E137.7943
G1 X76.61 Y50.29 E138.6019
G1 X76.96 Y50.51 E138.6155
G1 X59.48 Y68.05 E139.4391
G1 X59.44 Y68.66 E139.4592
G1 X77.35 Y50.69 E140.303
;
; 'Wipe', 0.0 [RPM], 40.0 [mm/s]
G1 F210
G1 X77.35 Y50.69 Z1.05 E140.303
; END_LAYER_OBJECT z=0.60
; Reset extruder pos
G92 E0
; BEGIN_LAYER_OBJECT z=0.80
; fan on
M106
;
; 'Loop', 53.3 [RPM], 33.4 [mm/s]
G1 F9000
G1 X79.49 Y70.93 E0
G1 F210
G1 X79.49 Y70.93 Z0.8 E0
G1 F2004.6
G1 X78.6 Y71.75 E0.0399
G1 X77.65 Y72.49 E0.0802
G1 X76.6 Y73.14 E0.1212
G1 X75.6 Y73.65 E0.1585
G1 X74.53 Y74.09 E0.197
G1 X73.46 Y74.42 E0.2343
G1 X72.26 Y74.69 E0.2752
G1 X71.12 Y74.83 E0.3133
G1 X69.85 Y74.88 E0.3556
G1 X30.09 Y74.88 E1.6781
G1 X28.83 Y74.83 E1.7201
G1 X27.71 Y74.68 E1.7576
G1 X26.58 Y74.44 E1.7959
G1 X25.44 Y74.08 E1.8359
G1 X24.37 Y73.64 E1.8743
G1 X23.37 Y73.12 E1.9115
G1 X22.33 Y72.47 E1.9524
G1 X21.38 Y71.73 E1.9927
G1 X20.49 Y70.91 E2.0326
G1 X19.77 Y70.13 E2.0681
G1 X19.11 Y69.28 E2.1039
G1 X18.38 Y68.13 E2.1493
G1 X17.86 Y67.13 E2.1866
G1 X17.42 Y66.06 E2.225
G1 X17.06 Y64.91 E2.2652
G1 X16.82 Y63.83 E2.302
G1 X16.67 Y62.66 E2.3412
G1 X16.62 Y61.57 E2.3776
G1 X16.67 Y60.3 E2.4198
G1 X16.83 Y59.14 E2.4588
G1 X17.07 Y58.06 E2.4956
G1 X17.43 Y56.91 E2.5355
G1 X17.87 Y55.85 E2.5739
G1 X18.39 Y54.85 E2.6111
G1 X19.04 Y53.81 E2.652
G1 X19.79 Y52.86 E2.6922
G1 X20.51 Y52.07 E2.7277
G1 X21.39 Y51.26 E2.7677
G1 X22.35 Y50.52 E2.8079
G1 X23.39 Y49.87 E2.8489
G1 X24.39 Y49.35 E2.8862
G1 X25.46 Y48.92 E2.9247
G1 X26.57 Y48.57 E2.9633
G1 X27.7 Y48.32 E3.0017
G1 X28.87 Y48.17 E3.041
G1 X29.95 Y48.12 E3.0771
G1 X30.11 Y48.09 E3.0824
G1 X30.34 Y47.94 E3.0915
G1 X30.52 Y47.75 E3.1004
G1 X30.62 Y47.46 E3.1103
G1 X30.62 Y47.34 E3.1144
G1 X30.62 Y45.21 E3.1854
G1 X30.72 Y45.12 E3.1898
G1 X69.35 Y45.12 E4.4746
G1 X69.38 Y45.27 E4.4799
G1 X69.38 Y47.5 E4.5542
G1 X69.42 Y47.69 E4.5604
G1 X69.56 Y47.92 E4.5695
G1 X69.8 Y48.06 E4.5786
G1 X70.11 Y48.12 E4.5893
G1 X71.19 Y48.18 E4.6252
G1 X72.35 Y48.33 E4.6643
G1 X73.43 Y48.57 E4.701
G1 X74.58 Y48.93 E4.741
G1 X75.65 Y49.37 E4.7794
G1 X76.64 Y49.89 E4.8166
G1 X77.68 Y50.54 E4.8575
G1 X78.64 Y51.28 E4.8977
G1 X79.42 Y52 E4.9332
G1 X80.32 Y52.99 E4.9776
G1 X81.06 Y53.95 E5.0179
G1 X81.65 Y54.87 E5.0543
G1 X81.7 Y55.01 E5.0592
G1 X82.15 Y55.88 E5.0917
G1 X82.59 Y56.95 E5.1301
G1 X82.82 Y57.66 E5.1551
G1 X82.91 Y57.95 E5.1651
G1 X83.15 Y59.03 E5.202
G1 X83.31 Y60.19 E5.2409
G1 X83.34 Y60.54 E5.2526
G1 X83.38 Y61.45 E5.2828
G1 X83.32 Y62.71 E5.3248
G1 X83.17 Y63.87 E5.3638
G1 X82.93 Y64.95 E5.4005
G1 X82.57 Y66.1 E5.4405
G1 X82.12 Y67.16 E5.4788
G1 X81.61 Y68.15 E5.516
G1 X80.95 Y69.19 E5.5569
G1 X80.3 Y70.04 E5.5927
G1 X79.49 Y70.93 E5.6326
;
; 'Perimeter', 27.9 [RPM], 17.5 [mm/s]
G1 F9000
G1 X79.69 Y71 E5.6326
G1 F1050
G1 X79.77 Y71.22 E5.6402
G1 X78.89 Y72.03 E5.6801
G1 X77.82 Y72.85 E5.7249
G1 X76.89 Y73.44 E5.7617
G1 X75.73 Y74.04 E5.805
G1 X74.71 Y74.46 E5.8416
G1 X73.56 Y74.82 E5.8816
G1 X72.32 Y75.08 E5.9239
G1 X71.15 Y75.23 E5.963
G1 X69.88 Y75.29 E6.0055
G1 X30.07 Y75.28 E7.3295
G1 X28.8 Y75.23 E7.3716
G1 X27.64 Y75.08 E7.4107
G1 X26.4 Y74.81 E7.4528
G1 X25.26 Y74.45 E7.4927
G1 X24.2 Y74.01 E7.5309
G1 X23.08 Y73.42 E7.5729
G1 X22.16 Y72.83 E7.6092
G1 X21.2 Y72.1 E7.6495
G1 X20.21 Y71.2 E7.6938
G1 X19.4 Y70.31 E7.7338
G1 X18.67 Y69.34 E7.7741
G1 X18.08 Y68.42 E7.8104
G1 X17.5 Y67.31 E7.8523
G1 X17.06 Y66.24 E7.8907
G1 X16.69 Y65.09 E7.9307
G1 X16.42 Y63.86 E7.9729
G1 X16.27 Y62.68 E8.0122
G1 X16.22 Y61.54 E8.0503
G1 X16.27 Y60.28 E8.0924
G1 X16.43 Y59.11 E8.1314
G1 X16.69 Y57.91 E8.1722
G1 X17.04 Y56.81 E8.2107
G1 X17.51 Y55.67 E8.2516
G1 X18.02 Y54.68 E8.2889
G1 X18.68 Y53.64 E8.3297
G1 X19.41 Y52.68 E8.37
G1 X20.22 Y51.79 E8.41
G1 X21.21 Y50.89 E8.4543
G1 X22.17 Y50.16 E8.4946
G1 X23.17 Y49.53 E8.5337
G1 X24.21 Y48.99 E8.5729
G1 X25.28 Y48.55 E8.6113
G1 X26.43 Y48.19 E8.6514
G1 X27.67 Y47.92 E8.6936
G1 X28.84 Y47.77 E8.7329
G1 X29.93 Y47.72 E8.769
G1 X30.06 Y47.66 E8.7738
G1 X30.16 Y47.57 E8.7782
G1 X30.21 Y47.44 E8.7829
G1 X30.21 Y44.8 E8.8706
G1 X30.31 Y44.71 E8.875
G1 X69.74 Y44.72 E10.1865
G1 X69.78 Y44.87 E10.1917
G1 X69.79 Y47.51 E10.2795
G1 X69.85 Y47.64 E10.2843
G1 X70.14 Y47.72 E10.2943
G1 X71.04 Y47.76 E10.3244
G1 X71.22 Y47.77 E10.3303
G1 X72.38 Y47.92 E10.3694
G1 X73.62 Y48.2 E10.4114
G1 X74.76 Y48.56 E10.4513
G1 X75.78 Y48.99 E10.4881
G1 X76.93 Y49.59 E10.5314
G1 X77.86 Y50.18 E10.5677
G1 X78.82 Y50.91 E10.608
G1 X79.71 Y51.72 E10.648
G1 X80.61 Y52.71 E10.6924
G1 X81.34 Y53.67 E10.7326
G1 X81.93 Y54.59 E10.769
G1 X82.49 Y55.67 E10.8096
G1 X82.95 Y56.77 E10.8493
G1 X83.31 Y57.92 E10.8893
G1 X83.58 Y59.16 E10.9316
G1 X83.73 Y60.34 E10.9709
G1 X83.78 Y61.47 E11.0087
G1 X83.73 Y62.73 E11.0507
G1 X83.57 Y63.9 E11.0897
G1 X83.33 Y64.98 E11.1266
G1 X82.95 Y66.22 E11.1699
G1 X82.49 Y67.33 E11.2099
G1 X81.98 Y68.33 E11.2472
G1 X81.32 Y69.37 E11.288
G1 X80.58 Y70.33 E11.3283
G1 X79.77 Y71.22 E11.3682
G1 X79.55 Y71.15 E11.3758
;
; 'Loop', 53.3 [RPM], 33.4 [mm/s]
G1 F9000
G1 X58.94 Y68.91 E11.3758
G1 F2004.6
G1 X58.71 Y69.05 E11.3849
G1 X58.4 Y69.12 E11.3955
G1 X41.48 Y69.12 E11.958
G1 X41.33 Y69.08 E11.9633
G1 X41.09 Y68.94 E11.9724
G1 X40.95 Y68.71 E11.9815
G1 X40.88 Y68.4 E11.9922
G1 X40.88 Y58.63 E12.3168
G1 X40.92 Y58.3 E12.3281
G1 X41.07 Y58.06 E12.3372
G1 X41.3 Y57.92 E12.3463
G1 X41.57 Y57.88 E12.3554
G1 X58.45 Y57.88 E12.9169
G1 X58.66 Y57.92 E12.9241
G1 X58.9 Y58.06 E12.9332
G1 X59.04 Y58.29 E12.9423
G1 X59.12 Y58.6 E12.9526
G1 X59.12 Y68.52 E13.2827
G1 X59.08 Y68.67 E13.288
G1 X58.94 Y68.91 E13.2971
;
; 'Perimeter', 27.9 [RPM], 17.5 [mm/s]
G1 F9000
G1 X58.84 Y68.67 E13.2971
G1 F1050
G1 X58.66 Y68.62 E13.3034
G1 X58.37 Y68.71 E13.3134
G1 X50.35 Y68.71 E13.5801
G1 X41.5 Y68.72 E13.8743
G1 X41.38 Y68.66 E13.8791
G1 X41.29 Y68.37 E13.8891
G1 X41.29 Y58.66 E14.2121
G1 X41.29 Y58.54 E14.2159
G1 X41.29 Y58.48 E14.2181
G1 X41.35 Y58.35 E14.2228
G1 X41.55 Y58.28 E14.2296
G1 X58.48 Y58.28 E14.7928
G1 X58.61 Y58.34 E14.7978
G1 X58.71 Y58.62 E14.8076
G1 X58.72 Y68.5 E15.136
G1 X58.66 Y68.62 E15.1407
G1 X58.71 Y68.81 E15.1471
; fan off
M107
;
; 'Solid', 63.9 [RPM], 40.0 [mm/s]
G1 F9000
G1 X69.08 Y47.39 E15.1471
G1 F2400
G1 X67.16 Y45.48 E15.2373
G1 X67.73 Y45.48 E15.2561
G1 X69.02 Y46.77 E15.3168
G1 X69.02 Y46.2 E15.3356
G1 X68.29 Y45.48 E15.3697
G1 X68.86 Y45.48 E15.3886
G1 X69.06 Y45.68 E15.3981
;
; 'Wipe', 0.0 [RPM], 40.0 [mm/s]
;
; 'Solid', 63.9 [RPM], 40.0 [mm/s]
G1 F9000
G1 X76.26 Y50.03 E15.3981
G1 F2400
G1 X81.37 Y55.12 E15.6381
G1 X81.91 Y56.22 E15.6788
G1 X75.26 Y49.6 E15.991
G1 X74.33 Y49.24 E16.024
G1 X82.29 Y57.17 E16.3977
G1 X82.53 Y57.96 E16.4253
G1 X73.49 Y48.96 E16.8496
G1 X72.75 Y48.78 E16.8749
G1 X82.71 Y58.71 E17.3426
G1 X82.84 Y59.41 E17.3662
G1 X72.04 Y48.65 E17.8732
G1 X71.39 Y48.56 E17.895
G1 X82.94 Y60.07 E18.4372
G1 X82.98 Y60.68 E18.4575
G1 X70.77 Y48.51 E19.0308
G1 X70.18 Y48.49 E19.0505
G1 X83.02 Y61.27 E19.6531
G1 X83.01 Y61.83 E19.6716
G1 X66.59 Y45.48 E20.4422
G1 X66.03 Y45.48 E20.461
G1 X82.99 Y62.37 E21.2572
G1 X82.94 Y62.89 E21.2744
G1 X65.46 Y45.48 E22.0948
G1 X64.89 Y45.48 E22.1137
G1 X82.87 Y63.39 E22.9578
G1 X82.79 Y63.88 E22.9741
G1 X64.33 Y45.48 E23.8411
G1 X63.76 Y45.48 E23.86
G1 X82.69 Y64.34 E24.7489
G1 X82.59 Y64.8 E24.7646
G1 X63.19 Y45.48 E25.6752
G1 X62.63 Y45.48 E25.694
G1 X82.46 Y65.24 E26.6251
G1 X82.33 Y65.67 E26.6402
G1 X62.06 Y45.48 E27.5916
G1 X61.49 Y45.48 E27.6104
G1 X82.18 Y66.09 E28.5817
G1 X82.01 Y66.49 E28.596
G1 X60.93 Y45.48 E29.586
G1 X60.36 Y45.48 E29.6048
G1 X81.85 Y66.89 E30.6137
G1 X81.66 Y67.27 E30.6278
G1 X59.79 Y45.48 E31.6545
G1 X59.23 Y45.48 E31.6733
G1 X81.47 Y67.64 E32.7176
G1 X81.27 Y68.01 E32.7315
G1 X58.66 Y45.48 E33.7932
G1 X58.09 Y45.48 E33.812
G1 X81.06 Y68.36 E34.8901
G1 X80.84 Y68.7 E34.9037
G1 X57.53 Y45.48 E35.9981
G1 X56.96 Y45.48 E36.0169
G1 X80.61 Y69.04 E37.1272
G1 X80.36 Y69.36 E37.1407
G1 X56.39 Y45.48 E38.2661
G1 X55.83 Y45.48 E38.2849
G1 X80.12 Y69.68 E39.4254
G1 X79.86 Y69.99 E39.4387
G1 X55.26 Y45.48 E40.5938
G1 X54.69 Y45.48 E40.6127
G1 X79.59 Y70.29 E41.7817
G1 X79.32 Y70.58 E41.795
G1 X54.13 Y45.48 E42.9779
G1 X53.56 Y45.48 E42.9967
G1 X79.04 Y70.86 E44.1929
G1 X78.74 Y71.13 E44.2062
G1 X52.99 Y45.48 E45.4151
G1 X52.43 Y45.48 E45.4339
G1 X78.45 Y71.4 E46.6555
G1 X78.13 Y71.65 E46.6689
G1 X51.86 Y45.48 E47.9024
G1 X51.29 Y45.48 E47.9213
G1 X77.81 Y71.9 E49.1664
G1 X77.49 Y72.15 E49.1798
G1 X50.73 Y45.48 E50.4365
G1 X50.16 Y45.48 E50.4553
G1 X77.15 Y72.37 E51.7225
G1 X76.8 Y72.59 E51.7361
G1 X49.59 Y45.48 E53.0137
G1 X49.03 Y45.48 E53.0325
G1 X76.45 Y72.8 E54.3202
G1 X76.08 Y73 E54.3342
G1 X48.46 Y45.48 E55.6311
G1 X47.89 Y45.48 E55.6499
G1 X75.71 Y73.19 E56.9558
G1 X75.33 Y73.37 E56.97
G1 X47.33 Y45.48 E58.2845
G1 X46.76 Y45.48 E58.3034
G1 X74.92 Y73.54 E59.6257
G1 X74.53 Y73.71 E59.6401
G1 X59.48 Y58.71 E60.3466
G1 X59.48 Y59.28 E60.3654
G1 X74.1 Y73.85 E61.0519
G1 X73.67 Y73.98 E61.0669
G1 X59.48 Y59.84 E61.7332
G1 X59.48 Y60.41 E61.7519
G1 X73.23 Y74.11 E62.3975
G1 X72.76 Y74.21 E62.4132
G1 X59.48 Y60.97 E63.0371
G1 X59.48 Y61.54 E63.0559
G1 X72.3 Y74.31 E63.6578
G1 X71.81 Y74.38 E63.6744
G1 X59.48 Y62.1 E64.2532
G1 X59.48 Y62.67 E64.272
G1 X71.3 Y74.45 E64.8271
G1 X70.78 Y74.49 E64.8446
G1 X59.48 Y63.23 E65.3751
G1 X59.48 Y63.8 E65.3939
G1 X70.23 Y74.51 E65.8988
G1 X69.68 Y74.52 E65.9171
G1 X59.48 Y64.36 E66.3961
G1 X59.48 Y64.92 E66.4149
G1 X69.11 Y74.52 E66.8671
G1 X68.54 Y74.52 E66.886
G1 X59.48 Y65.49 E67.3117
G1 X59.48 Y66.05 E67.3305
G1 X67.98 Y74.52 E67.7295
G1 X67.41 Y74.52 E67.7484
G1 X59.48 Y66.62 E68.1208
G1 X59.48 Y67.18 E68.1396
G1 X66.84 Y74.52 E68.4855
G1 X66.28 Y74.52 E68.5043
G1 X59.48 Y67.75 E68.8236
G1 X59.48 Y68.31 E68.8423
G1 X65.71 Y74.52 E69.135
G1 X65.14 Y74.52 E69.1538
G1 X59.41 Y68.81 E69.4229
G1 X59.2 Y69.16 E69.4365
G1 X64.58 Y74.52 E69.6891
G1 X64.01 Y74.52 E69.708
G1 X58.86 Y69.39 E69.9499
G1 X58.37 Y69.47 E69.9663
G1 X63.44 Y74.52 E70.2045
G1 X62.88 Y74.52 E70.2234
G1 X57.81 Y69.48 E70.461
G1 X57.25 Y69.48 E70.4799
G1 X62.31 Y74.52 E70.7176
G1 X61.74 Y74.52 E70.7364
G1 X56.68 Y69.48 E70.9741
G1 X56.11 Y69.48 E70.9929
G1 X61.17 Y74.52 E71.2306
G1 X60.61 Y74.52 E71.2494
G1 X55.55 Y69.48 E71.4871
G1 X54.98 Y69.48 E71.506
G1 X60.04 Y74.52 E71.7436
G1 X59.47 Y74.52 E71.7625
G1 X54.41 Y69.48 E72.0001
G1 X53.85 Y69.48 E72.019
G1 X58.91 Y74.52 E72.2567
G1 X58.34 Y74.52 E72.2755
G1 X53.28 Y69.48 E72.5132
G1 X52.71 Y69.48 E72.532
G1 X57.77 Y74.52 E72.7697
G1 X57.21 Y74.52 E72.7886
G1 X52.15 Y69.48 E73.0262
G1 X51.58 Y69.48 E73.0451
G1 X56.64 Y74.52 E73.2828
G1 X56.07 Y74.52 E73.3016
G1 X51.01 Y69.48 E73.5393
G1 X50.44 Y69.48 E73.5582
G1 X55.51 Y74.52 E73.7958
G1 X54.94 Y74.52 E73.8147
G1 X49.88 Y69.48 E74.0524
G1 X49.31 Y69.48 E74.0712
G1 X54.37 Y74.52 E74.3089
G1 X53.81 Y74.52 E74.3278
G1 X48.74 Y69.48 E74.5655
G1 X48.18 Y69.48 E74.5843
G1 X53.24 Y74.52 E74.822
G1 X52.67 Y74.52 E74.8409
G1 X47.61 Y69.48 E75.0786
G1 X47.04 Y69.48 E75.0974
G1 X52.11 Y74.52 E75.3351
G1 X51.54 Y74.52 E75.354
G1 X46.48 Y69.48 E75.5917
G1 X45.91 Y69.48 E75.6105
G1 X50.97 Y74.52 E75.8482
G1 X50.41 Y74.52 E75.8671
G1 X45.34 Y69.48 E76.1048
G1 X44.78 Y69.48 E76.1237
G1 X49.84 Y74.52 E76.3614
G1 X49.27 Y74.52 E76.3802
G1 X44.21 Y69.48 E76.618
G1 X43.64 Y69.48 E76.6368
G1 X48.71 Y74.52 E76.8745
G1 X48.14 Y74.52 E76.8934
G1 X43.08 Y69.48 E77.1311
G1 X42.51 Y69.48 E77.15
G1 X47.57 Y74.52 E77.3877
G1 X47.01 Y74.52 E77.4066
G1 X41.95 Y69.48 E77.6441
G1 X41.34 Y69.44 E77.6642
G1 X46.44 Y74.52 E77.9035
G1 X45.87 Y74.52 E77.9224
G1 X22.29 Y51.02 E79.0297
G1 X21.97 Y51.27 E79.0432
G1 X45.31 Y74.52 E80.1389
G1 X44.74 Y74.52 E80.1578
G1 X21.65 Y51.51 E81.242
G1 X21.35 Y51.78 E81.2553
G1 X44.17 Y74.52 E82.3269
G1 X43.61 Y74.52 E82.3457
G1 X21.06 Y52.05 E83.4045
G1 X20.76 Y52.33 E83.4178
G1 X43.04 Y74.52 E84.4637
G1 X42.47 Y74.52 E84.4825
G1 X20.49 Y52.62 E85.5145
G1 X20.22 Y52.92 E85.5278
G1 X41.91 Y74.52 E86.5459
G1 X41.34 Y74.52 E86.5647
G1 X19.96 Y53.22 E87.5686
G1 X19.71 Y53.54 E87.582
G1 X40.77 Y74.52 E88.5707
G1 X40.21 Y74.52 E88.5896
G1 X19.47 Y53.86 E89.5632
G1 X19.23 Y54.19 E89.5767
G1 X39.64 Y74.52 E90.5348
G1 X39.07 Y74.52 E90.5537
G1 X19.01 Y54.54 E91.4954
G1 X18.79 Y54.88 E91.509
G1 X38.51 Y74.52 E92.4345
G1 X37.94 Y74.52 E92.4534
G1 X18.59 Y55.25 E93.3617
G1 X18.4 Y55.62 E93.3757
G1 X37.37 Y74.52 E94.2665
G1 X36.81 Y74.52 E94.2854
G1 X18.21 Y55.99 E95.1587
G1 X18.04 Y56.39 E95.173
G1 X36.24 Y74.52 E96.0276
G1 X35.67 Y74.52 E96.0464
G1 X17.87 Y56.79 E96.8821
G1 X17.72 Y57.2 E96.8966
G1 X35.11 Y74.52 E97.7131
G1 X34.54 Y74.52 E97.732
G1 X17.58 Y57.63 E98.5281
G1 X17.45 Y58.06 E98.543
G1 X33.97 Y74.52 E99.3189
G1 X33.41 Y74.52 E99.3378
G1 X17.34 Y58.51 E100.0922
G1 X17.24 Y58.98 E100.1079
G1 X32.84 Y74.52 E100.8405
G1 X32.27 Y74.52 E100.8593
G1 X17.15 Y59.46 E101.5694
G1 X17.08 Y59.95 E101.5861
G1 X31.71 Y74.52 E102.2726
G1 X31.14 Y74.52 E102.2915
G1 X17.03 Y60.46 E102.9541
G1 X17 Y61 E102.9719
G1 X30.57 Y74.52 E103.6092
G1 X30 Y74.52 E103.6282
G1 X16.98 Y61.55 E104.2393
G1 X17 Y62.13 E104.2588
G1 X29.41 Y74.49 E104.8413
G1 X28.82 Y74.47 E104.8611
G1 X17.04 Y62.74 E105.4137
G1 X17.13 Y63.39 E105.4354
G1 X28.16 Y74.37 E105.9532
G1 X27.49 Y74.27 E105.9758
G1 X17.25 Y64.07 E106.4566
G1 X17.41 Y64.79 E106.4812
G1 X26.74 Y74.09 E106.9195
G1 X25.94 Y73.86 E106.9472
G1 X17.66 Y65.62 E107.3358
G1 X17.98 Y66.5 E107.367
G1 X25.03 Y73.51 E107.6977
G1 X23.99 Y73.04 E107.7356
G1 X18.36 Y67.44 E107.9999
;
; 'Solid', 63.9 [RPM], 40.0 [mm/s]
G1 F9000
G1 X19.14 Y68.78 E107.9999
G1 F2400
G1 X22.71 Y72.34 E108.1673
;
; 'Solid', 63.9 [RPM], 40.0 [mm/s]
G1 F9000
G1 X22.57 Y50.74 E108.1673
G1 F2400
G1 X40.58 Y68.69 E109.0131
G1 X40.51 Y68.05 E109.0343
G1 X22.96 Y50.56 E109.8585
G1 X23.31 Y50.34 E109.8721
G1 X40.52 Y67.5 E110.6804
G1 X40.52 Y66.93 E110.6992
G1 X23.66 Y50.13 E111.4908
G1 X24.04 Y49.94 E111.5047
G1 X40.52 Y66.37 E112.2788
G1 X40.52 Y65.8 E112.2975
G1 X24.41 Y49.75 E113.0541
G1 X24.8 Y49.57 E113.0684
G1 X40.52 Y65.24 E113.8065
G1 X40.52 Y64.67 E113.8253
G1 X25.2 Y49.41 E114.5447
G1 X25.61 Y49.25 E114.5592
G1 X40.52 Y64.11 E115.2595
G1 X40.52 Y63.54 E115.2783
G1 X26.04 Y49.11 E115.9584
G1 X26.47 Y48.97 E115.9734
G1 X40.52 Y62.98 E116.6333
G1 X40.52 Y62.41 E116.6521
G1 X26.92 Y48.86 E117.2909
G1 X27.38 Y48.76 E117.3067
G1 X40.52 Y61.85 E117.9237
G1 X40.52 Y61.29 E117.9425
G1 X27.86 Y48.67 E118.5372
G1 X28.35 Y48.6 E118.5539
G1 X40.52 Y60.72 E119.1253
G1 X40.52 Y60.16 E119.144
G1 X28.86 Y48.54 E119.6916
G1 X29.39 Y48.5 E119.7094
G1 X40.52 Y59.59 E120.2319
G1 X40.52 Y59.03 E120.2507
G1 X29.93 Y48.47 E120.748
G1 X30.39 Y48.36 E120.7636
G1 X40.54 Y58.48 E121.2402
G1 X40.65 Y58.02 E121.2559
G1 X30.7 Y48.11 E121.723
G1 X30.91 Y47.76 E121.7367
G1 X40.91 Y57.72 E122.2062
G1 X41.31 Y57.56 E122.2207
G1 X30.98 Y47.26 E122.7058
G1 X30.98 Y46.69 E122.7246
G1 X41.85 Y57.52 E123.2349
G1 X42.41 Y57.52 E123.2537
G1 X30.98 Y46.13 E123.7906
G1 X30.98 Y45.57 E123.8093
G1 X42.98 Y57.52 E124.3728
G1 X43.55 Y57.52 E124.3916
G1 X31.46 Y45.48 E124.9592
G1 X32.02 Y45.48 E124.9781
G1 X44.11 Y57.52 E125.5457
G1 X44.68 Y57.52 E125.5645
G1 X32.59 Y45.48 E126.1321
G1 X33.16 Y45.48 E126.1509
G1 X45.25 Y57.52 E126.7185
G1 X45.81 Y57.52 E126.7374
G1 X33.72 Y45.48 E127.3049
G1 X34.29 Y45.48 E127.3238
G1 X46.38 Y57.52 E127.8914
G1 X46.95 Y57.52 E127.9102
G1 X34.86 Y45.48 E128.4778
G1 X35.42 Y45.48 E128.4966
G1 X47.51 Y57.52 E129.0642
G1 X48.08 Y57.52 E129.0831
G1 X35.99 Y45.48 E129.6506
G1 X36.56 Y45.48 E129.6695
G1 X48.65 Y57.52 E130.237
G1 X49.21 Y57.52 E130.2559
G1 X37.12 Y45.48 E130.8234
G1 X37.69 Y45.48 E130.8423
G1 X49.78 Y57.52 E131.4098
G1 X50.35 Y57.52 E131.4287
G1 X38.26 Y45.48 E131.9962
G1 X38.83 Y45.48 E132.0151
G1 X50.91 Y57.52 E132.5826
G1 X51.48 Y57.52 E132.6014
G1 X39.39 Y45.48 E133.169
G1 X39.96 Y45.48 E133.1878
G1 X52.05 Y57.52 E133.7554
G1 X52.61 Y57.52 E133.7742
G1 X40.53 Y45.48 E134.3417
G1 X41.09 Y45.48 E134.3606
G1 X53.18 Y57.52 E134.9281
G1 X53.75 Y57.52 E134.947
G1 X41.66 Y45.48 E135.5145
G1 X42.23 Y45.48 E135.5333
G1 X54.31 Y57.52 E136.1008
G1 X54.88 Y57.52 E136.1197
G1 X42.79 Y45.48 E136.6872
G1 X43.36 Y45.48 E136.7061
G1 X55.45 Y57.52 E137.2736
G1 X56.01 Y57.52 E137.2924
G1 X43.93 Y45.48 E137.8599
G1 X44.49 Y45.48 E137.8788
G1 X56.58 Y57.52 E138.4463
G1 X57.15 Y57.52 E138.4651
G1 X45.06 Y45.48 E139.0326
G1 X45.63 Y45.48 E139.0515
G1 X57.71 Y57.52 E139.619
G1 X58.28 Y57.52 E139.6378
G1 X46.13 Y45.42 E140.2081
;
; 'Solid', 63.9 [RPM], 40.0 [mm/s]
G1 F9000
G1 X77.88 Y51.08 E140.2081
G1 F2400
G1 X80.43 Y53.62 E140.3278
;
; 'Wipe', 0.0 [RPM], 40.0 [mm/s]
G1 F210
G1 X80.43 Y53.62 Z1.25 E140.3278
; END_LAYER_OBJECT z=0.80
; Reset extruder pos
G92 E0
; BEGIN_LAYER_OBJECT z=1.00
; fan on
M106
;
; 'Loop', 53.3 [RPM], 33.4 [mm/s]
G1 F9000
G1 X79.49 Y70.93 E0
G1 F210
G1 X79.49 Y70.93 Z1 E0
G1 F2004.6
G1 X78.6 Y71.75 E0.0399
G1 X77.65 Y72.49 E0.0802
G1 X76.6 Y73.14 E0.1212
G1 X75.6 Y73.65 E0.1585
G1 X74.53 Y74.09 E0.197
G1 X73.46 Y74.42 E0.2343
G1 X72.26 Y74.69 E0.2752
G1 X71.12 Y74.83 E0.3133
G1 X69.85 Y74.88 E0.3556
G1 X30.09 Y74.88 E1.6781
G1 X28.83 Y74.83 E1.7201
G1 X27.71 Y74.68 E1.7576
G1 X26.58 Y74.44 E1.7959
G1 X25.44 Y74.08 E1.8359
G1 X24.37 Y73.64 E1.8743
G1 X23.37 Y73.12 E1.9115
G1 X22.33 Y72.47 E1.9524
G1 X21.38 Y71.73 E1.9927
G1 X20.49 Y70.91 E2.0326
G1 X19.77 Y70.13 E2.0681
G1 X19.11 Y69.28 E2.1039
G1 X18.38 Y68.13 E2.1493
G1 X17.86 Y67.13 E2.1866
G1 X17.42 Y66.06 E2.225
G1 X17.06 Y64.91 E2.2652
G1 X16.82 Y63.83 E2.302
G1 X16.67 Y62.66 E2.3412
G1 X16.62 Y61.57 E2.3776
G1 X16.67 Y60.3 E2.4198
G1 X16.83 Y59.14 E2.4588
G1 X17.07 Y58.06 E2.4956
G1 X17.43 Y56.91 E2.5355
G1 X17.87 Y55.85 E2.5739
G1 X18.39 Y54.85 E2.6111
G1 X19.04 Y53.81 E2.652
G1 X19.79 Y52.86 E2.6922
G1 X20.51 Y52.07 E2.7277
G1 X21.39 Y51.26 E2.7677
G1 X22.35 Y50.52 E2.8079
G1 X23.39 Y49.87 E2.8489
G1 X24.39 Y49.35 E2.8862
G1 X25.46 Y48.92 E2.9247
G1 X26.57 Y48.57 E2.9633
G1 X27.7 Y48.32 E3.0017
G1 X28.87 Y48.17 E3.041
G1 X29.95 Y48.12 E3.0771
G1 X30.11 Y48.09 E3.0824
G1 X30.34 Y47.94 E3.0915
G1 X30.52 Y47.75 E3.1004
G1 X30.62 Y47.46 E3.1103
G1 X30.62 Y47.34 E3.1144
G1 X30.62 Y45.21 E3.1854
G1 X30.72 Y45.12 E3.1898
G1 X69.35 Y45.12 E4.4746
G1 X69.38 Y45.27 E4.4799
G1 X69.38 Y47.5 E4.5542
G1 X69.42 Y47.69 E4.5604
G1 X69.56 Y47.92 E4.5695
G1 X69.8 Y48.06 E4.5786
G1 X70.11 Y48.12 E4.5893
G1 X71.19 Y48.18 E4.6252
G1 X72.35 Y48.33 E4.6643
G1 X73.43 Y48.57 E4.701
G1 X74.58 Y48.93 E4.741
G1 X75.65 Y49.37 E4.7794
G1 X76.64 Y49.89 E4.8166
G1 X77.68 Y50.54 E4.8575
G1 X78.64 Y51.28 E4.8977
G1 X79.42 Y52 E4.9332
G1 X80.32 Y52.99 E4.9776
G1 X81.06 Y53.95 E5.0179
G1 X81.65 Y54.87 E5.0543
G1 X81.7 Y55.01 E5.0592
G1 X82.15 Y55.88 E5.0917
G1 X82.59 Y56.95 E5.1301
G1 X82.82 Y57.66 E5.1551
G1 X82.91 Y57.95 E5.1651
G1 X83.15 Y59.03 E5.202
G1 X83.31 Y60.19 E5.2409
G1 X83.34 Y60.54 E5.2526
G1 X83.38 Y61.45 E5.2828
G1 X83.32 Y62.71 E5.3248
G1 X83.17 Y63.87 E5.3638
G1 X82.93 Y64.95 E5.4005
G1 X82.57 Y66.1 E5.4405
G1 X82.12 Y67.16 E5.4788
G1 X81.61 Y68.15 E5.516
G1 X80.95 Y69.19 E5.5569
G1 X80.3 Y70.04 E5.5927
G1 X79.49 Y70.93 E5.6326
;
; 'Perimeter', 27.9 [RPM], 17.5 [mm/s]
G1 F9000
G1 X79.69 Y71 E5.6326
G1 F1050
G1 X79.77 Y71.22 E5.6402
G1 X78.89 Y72.03 E5.6801
G1 X77.82 Y72.85 E5.7249
G1 X76.89 Y73.44 E5.7617
G1 X75.73 Y74.04 E5.805
G1 X74.71 Y74.46 E5.8416
G1 X73.56 Y74.82 E5.8816
G1 X72.32 Y75.08 E5.9239
G1 X71.15 Y75.23 E5.963
G1 X69.88 Y75.29 E6.0055
G1 X30.07 Y75.28 E7.3295
G1 X28.8 Y75.23 E7.3716
G1 X27.64 Y75.08 E7.4107
G1 X26.4 Y74.81 E7.4528
G1 X25.26 Y74.45 E7.4927
G1 X24.2 Y74.01 E7.5309
G1 X23.08 Y73.42 E7.5729
G1 X22.16 Y72.83 E7.6092
G1 X21.2 Y72.1 E7.6495
G1 X20.21 Y71.2 E7.6938
G1 X19.4 Y70.31 E7.7338
G1 X18.67 Y69.34 E7.7741
G1 X18.08 Y68.42 E7.8104
G1 X17.5 Y67.31 E7.8523
G1 X17.06 Y66.24 E7.8907
G1 X16.69 Y65.09 E7.9307
G1 X16.42 Y63.86 E7.9729
G1 X16.27 Y62.68 E8.0122
G1 X16.22 Y61.54 E8.0503
G1 X16.27 Y60.28 E8.0924
G1 X16.43 Y59.11 E8.1314
G1 X16.69 Y57.91 E8.1722
G1 X17.04 Y56.81 E8.2107
G1 X17.51 Y55.67 E8.2516
G1 X18.02 Y54.68 E8.2889
G1 X18.68 Y53.64 E8.3297
G1 X19.41 Y52.68 E8.37
G1 X20.22 Y51.79 E8.41
G1 X21.21 Y50.89 E8.4543
G1 X22.17 Y50.16 E8.4946
G1 X23.17 Y49.53 E8.5337
G1 X24.21 Y48.99 E8.5729
G1 X25.28 Y48.55 E8.6113
G1 X26.43 Y48.19 E8.6514
G1 X27.67 Y47.92 E8.6936
G1 X28.84 Y47.77 E8.7329
G1 X29.93 Y47.72 E8.769
G1 X30.06 Y47.66 E8.7738
G1 X30.16 Y47.57 E8.7782
G1 X30.21 Y47.44 E8.7829
G1 X30.21 Y44.8 E8.8706
G1 X30.31 Y44.71 E8.875
G1 X69.74 Y44.72 E10.1865
G1 X69.78 Y44.87 E10.1917
G1 X69.79 Y47.51 E10.2795
G1 X69.85 Y47.64 E10.2843
G1 X70.14 Y47.72 E10.2943
G1 X71.04 Y47.76 E10.3244
G1 X71.22 Y47.77 E10.3303
G1 X72.38 Y47.92 E10.3694
G1 X73.62 Y48.2 E10.4114
G1 X74.76 Y48.56 E10.4513
G1 X75.78 Y48.99 E10.4881
G1 X76.93 Y49.59 E10.5314
G1 X77.86 Y50.18 E10.5677
G1 X78.82 Y50.91 E10.608
G1 X79.71 Y51.72 E10.648
G1 X80.61 Y52.71 E10.6924
G1 X81.34 Y53.67 E10.7326
G1 X81.93 Y54.59 E10.769
G1 X82.49 Y55.67 E10.8096
G1 X82.95 Y56.77 E10.8493
G1 X83.31 Y57.92 E10.8893
G1 X83.58 Y59.16 E10.9316
G1 X83.73 Y60.34 E10.9709
G1 X83.78 Y61.47 E11.0087
G1 X83.73 Y62.73 E11.0507
G1 X83.57 Y63.9 E11.0897
G1 X83.33 Y64.98 E11.1266
G1 X82.95 Y66.22 E11.1699
G1 X82.49 Y67.33 E11.2099
G1 X81.98 Y68.33 E11.2472
G1 X81.32 Y69.37 E11.288
G1 X80.58 Y70.33 E11.3283
G1 X79.77 Y71.22 E11.3682
G1 X79.55 Y71.15 E11.3758
;
; 'Loop', 53.3 [RPM], 33.4 [mm/s]
G1 F9000
G1 X58.94 Y68.91 E11.3758
G1 F2004.6
G1 X58.71 Y69.05 E11.3849
G1 X58.4 Y69.12 E11.3955
G1 X41.48 Y69.12 E11.958
G1 X41.33 Y69.08 E11.9633
G1 X41.09 Y68.94 E11.9724
G1 X40.95 Y68.71 E11.9815
G1 X40.88 Y68.4 E11.9922
G1 X40.88 Y58.63 E12.3168
G1 X40.92 Y58.3 E12.3281
G1 X41.07 Y58.06 E12.3372
G1 X41.3 Y57.92 E12.3463
G1 X41.57 Y57.88 E12.3554
G1 X58.45 Y57.88 E12.9169
G1 X58.66 Y57.92 E12.9241
G1 X58.9 Y58.06 E12.9332
G1 X59.04 Y58.29 E12.9423
G1 X59.12 Y58.6 E12.9526
G1 X59.12 Y68.52 E13.2827
G1 X59.08 Y68.67 E13.288
G1 X58.94 Y68.91 E13.2971
;
; 'Perimeter', 27.9 [RPM], 17.5 [mm/s]
G1 F9000
G1 X58.84 Y68.67 E13.2971
G1 F1050
G1 X58.66 Y68.62 E13.3034
G1 X58.37 Y68.71 E13.3134
G1 X50.35 Y68.71 E13.5801
G1 X41.5 Y68.72 E13.8743
G1 X41.38 Y68.66 E13.8791
G1 X41.29 Y68.37 E13.8891
G1 X41.29 Y58.66 E14.2121
G1 X41.29 Y58.54 E14.2159
G1 X41.29 Y58.48 E14.2181
G1 X41.35 Y58.35 E14.2228
G1 X41.55 Y58.28 E14.2296
G1 X58.48 Y58.28 E14.7928
G1 X58.61 Y58.34 E14.7978
G1 X58.71 Y58.62 E14.8076
G1 X58.72 Y68.5 E15.136
G1 X58.66 Y68.62 E15.1407
G1 X58.71 Y68.81 E15.1471
; fan off
M107
;
; 'Sparse Infill', 75.0 [RPM], 47.0 [mm/s]
G1 F9000
G1 X58.79 Y69.31 E15.1471
G1 F2818.7
G1 X54.27 Y73.85 E15.3602
G1 X54.64 Y73.73 E15.3734
G1 X55.02 Y73.73 E15.3859
G1 X55.4 Y73.85 E15.3991
G1 X77.42 Y51.74 E16.4371
G1 X77.99 Y52.31 E16.4637
G1 X56.53 Y73.85 E17.4751
G1 X56.91 Y73.73 E17.4882
G1 X57.28 Y73.73 E17.5008
G1 X57.66 Y73.85 E17.514
G1 X78.56 Y52.87 E18.4987
G1 X79.12 Y53.44 E18.5253
G1 X58.79 Y73.85 E19.4835
G1 X59.17 Y73.72 E19.4967
G1 X59.54 Y73.72 E19.5092
G1 X59.92 Y73.84 E19.5224
G1 X79.69 Y54 E20.4539
G1 X79.79 Y54.29 E20.4639
G1 X79.81 Y54.57 E20.4733
G1 X79.97 Y54.85 E20.4841
G1 X61.05 Y73.84 E21.3758
G1 X61.43 Y73.72 E21.389
G1 X61.81 Y73.72 E21.4015
G1 X62.19 Y73.84 E21.4147
G1 X80.54 Y55.42 E22.2797
G1 X80.64 Y55.7 E22.2896
G1 X80.66 Y55.98 E22.2991
G1 X80.83 Y56.26 E22.3099
G1 X63.32 Y73.84 E23.135
G1 X63.69 Y73.71 E23.1482
G1 X64.07 Y73.72 E23.1607
G1 X64.45 Y73.84 E23.1739
G1 X81.39 Y56.83 E23.9724
G1 X81.26 Y57.11 E23.9828
G1 X81.49 Y57.49 E23.9974
G1 X81.68 Y57.68 E24.0063
G1 X65.58 Y73.83 E24.7649
G1 X65.96 Y73.71 E24.7781
G1 X66.33 Y73.71 E24.7906
G1 X66.71 Y73.83 E24.8038
G1 X81.96 Y58.52 E25.5225
G1 X81.84 Y58.9 E25.5357
G1 X81.84 Y59.28 E25.5482
G1 X81.96 Y59.66 E25.5614
G1 X67.84 Y73.83 E26.2268
G1 X68.22 Y73.71 E26.24
G1 X68.6 Y73.71 E26.2526
G1 X68.97 Y73.83 E26.2657
G1 X82.25 Y60.5 E26.8913
G1 X82.13 Y60.88 E26.9045
G1 X82.13 Y61.26 E26.917
G1 X82.25 Y61.63 E26.9302
G1 X70.1 Y73.82 E27.5026
G1 X70.48 Y73.7 E27.5157
G1 X70.86 Y73.7 E27.5283
G1 X71.24 Y73.82 E27.5415
G1 X82.25 Y62.77 E28.0606
G1 X82.04 Y62.98 E28.0706
G1 X81.87 Y63.47 E28.0879
G1 X81.85 Y63.83 E28.0997
G1 X81.97 Y64.18 E28.1121
G1 X72.65 Y73.54 E28.5514
G1 X72.88 Y73.31 E28.562
G1 X73.33 Y73.14 E28.578
G1 X73.61 Y73.14 E28.5875
G1 X74.01 Y72.84 E28.6039
G1 X74.35 Y72.97 E28.6159
G1 X81.41 Y65.88 E28.9488
G1 X81.18 Y66.12 E28.9599
G1 X81 Y66.54 E28.9751
G1 X80.99 Y66.87 E28.9861
G1 X80.75 Y67.11 E28.9972
G1 X80.44 Y67.53 E29.0148
G1 X80.56 Y67.86 E29.0266
G1 X76.32 Y72.12 E29.2264
;
; 'Sparse Infill', 75.0 [RPM], 47.0 [mm/s]
G1 F9000
G1 X59.35 Y68.75 E29.2264
G1 F2818.7
G1 X76.57 Y51.46 E30.0382
G1 X76.01 Y50.9 E30.0648
G1 X59.35 Y67.62 E30.85
G1 X59.47 Y67.24 E30.8632
G1 X59.46 Y66.87 E30.8757
G1 X59.34 Y66.49 E30.8889
G1 X75.16 Y50.62 E31.6342
G1 X74.59 Y50.05 E31.6608
G1 X59.34 Y65.36 E32.3795
G1 X59.46 Y64.98 E32.3927
G1 X59.46 Y64.61 E32.4052
G1 X59.34 Y64.23 E32.4184
G1 X73.74 Y49.77 E33.0972
G1 X73.46 Y49.9 E33.1075
G1 X73.08 Y49.68 E33.1222
G1 X72.89 Y49.49 E33.131
G1 X59.34 Y63.1 E33.7699
G1 X59.46 Y62.72 E33.7831
G1 X59.46 Y62.34 E33.7956
G1 X59.33 Y61.97 E33.8088
G1 X71.76 Y49.49 E34.3944
G1 X71.48 Y49.4 E34.4044
G1 X71.2 Y49.37 E34.4138
G1 X70.91 Y49.21 E34.4246
G1 X59.33 Y60.83 E34.9703
G1 X59.45 Y60.46 E34.9835
G1 X59.45 Y60.08 E34.9961
G1 X59.33 Y59.7 E35.0093
G1 X69.78 Y49.21 E35.5018
G1 X69.4 Y49.34 E35.515
G1 X69.03 Y49.33 E35.5275
G1 X68.65 Y49.21 E35.5407
G1 X59.33 Y58.57 E35.98
G1 X59.46 Y58.29 E35.9904
G1 X59.23 Y57.91 E36.005
G1 X59.04 Y57.72 E36.0138
G1 X68.37 Y48.37 E36.4531
G1 X68.2 Y48.08 E36.464
G1 X68.18 Y47.8 E36.4734
G1 X68.08 Y47.52 E36.4833
G1 X58.19 Y57.44 E36.9492
G1 X57.82 Y57.32 E36.9624
G1 X57.44 Y57.32 E36.9749
G1 X57.06 Y57.44 E36.9881
G1 X67.23 Y47.24 E37.4673
G1 X66.86 Y47.36 E37.4805
G1 X66.48 Y47.36 E37.4931
G1 X66.1 Y47.24 E37.5063
G1 X55.93 Y57.45 E37.9855
G1 X55.55 Y57.33 E37.9986
G1 X55.18 Y57.32 E38.0112
G1 X54.8 Y57.45 E38.0244
G1 X64.97 Y47.24 E38.5036
G1 X64.59 Y47.37 E38.5168
G1 X64.22 Y47.36 E38.5293
G1 X63.84 Y47.24 E38.5425
G1 X53.67 Y57.45 E39.0217
G1 X53.29 Y57.33 E39.0349
G1 X52.91 Y57.33 E39.0474
G1 X52.54 Y57.45 E39.0606
G1 X62.71 Y47.25 E39.5398
G1 X62.33 Y47.37 E39.553
G1 X61.95 Y47.37 E39.5656
G1 X61.58 Y47.25 E39.5787
G1 X51.41 Y57.45 E40.0579
G1 X51.03 Y57.33 E40.0711
G1 X50.65 Y57.33 E40.0837
G1 X50.28 Y57.46 E40.0968
G1 X60.44 Y47.25 E40.5761
G1 X60.07 Y47.37 E40.5892
G1 X59.69 Y47.37 E40.6018
G1 X59.31 Y47.25 E40.615
G1 X49.14 Y57.46 E41.0942
G1 X48.77 Y57.34 E41.1073
G1 X48.39 Y57.34 E41.1199
G1 X48.01 Y57.46 E41.1331
G1 X56.21 Y49.24 E41.5192
G1 X56.08 Y48.86 E41.5323
G1 X56.08 Y48.48 E41.5449
G1 X56.2 Y48.11 E41.5581
G1 X46.88 Y57.46 E41.9974
G1 X46.5 Y57.34 E42.0105
G1 X46.13 Y57.34 E42.0231
G1 X45.75 Y57.47 E42.0363
G1 X55.92 Y47.26 E42.5155
G1 X55.54 Y47.38 E42.5287
G1 X55.16 Y47.38 E42.5412
G1 X54.79 Y47.26 E42.5544
G1 X44.62 Y57.47 E43.0336
G1 X44.24 Y57.35 E43.0468
G1 X43.86 Y57.35 E43.0593
G1 X43.49 Y57.47 E43.0725
G1 X53.66 Y47.26 E43.5517
G1 X53.28 Y47.39 E43.5649
G1 X52.9 Y47.38 E43.5775
G1 X52.52 Y47.26 E43.5906
G1 X42.36 Y57.47 E44.0698
;
; 'Wipe', 0.0 [RPM], 40.0 [mm/s]
;
; 'Sparse Infill', 75.0 [RPM], 47.0 [mm/s]
G1 F9000
G1 X40.67 Y59.17 E44.0698
G1 F2818.7
G1 X26.55 Y73.34 E44.7353
G1 X26.36 Y73.15 E44.7442
G1 X25.98 Y72.93 E44.7588
G1 X25.7 Y73.06 E44.7692
G1 X51.39 Y47.27 E45.9801
G1 X51.02 Y47.39 E45.9933
G1 X50.64 Y47.39 E46.0058
G1 X50.26 Y47.27 E46.019
G1 X25.13 Y72.49 E47.2033
G1 X24.85 Y72.33 E47.2142
G1 X24.56 Y72.31 E47.2236
G1 X24.28 Y72.21 E47.2335
G1 X49.13 Y47.27 E48.4045
G1 X48.75 Y47.39 E48.4177
G1 X48.38 Y47.39 E48.4303
G1 X48 Y47.27 E48.4435
G1 X23.43 Y71.93 E49.6012
G1 X22.87 Y71.37 E49.6278
G1 X46.87 Y47.28 E50.7589
G1 X46.49 Y47.4 E50.7721
G1 X46.11 Y47.4 E50.7846
G1 X45.74 Y47.28 E50.7978
G1 X22.3 Y70.8 E51.9023
G1 X21.73 Y70.24 E51.9289
G1 X42.63 Y49.26 E52.9137
G1 X42.44 Y49.07 E52.9225
G1 X42.21 Y48.7 E52.9372
G1 X42.34 Y48.41 E52.9475
G1 X21.17 Y69.67 E53.9456
G1 X20.6 Y69.11 E53.9722
G1 X42.06 Y47.57 E54.9836
G1 X41.78 Y47.47 E54.9935
G1 X41.49 Y47.45 E55.0029
G1 X41.21 Y47.29 E55.0138
G1 X20.03 Y68.54 E56.0118
G1 X19.46 Y67.98 E56.0384
G1 X40.08 Y47.29 E57.0099
G1 X39.7 Y47.41 E57.0231
G1 X39.33 Y47.41 E57.0356
G1 X38.95 Y47.29 E57.0488
G1 X19.18 Y67.13 E57.9804
G1 X19.09 Y66.85 E57.9903
G1 X19.06 Y66.57 E57.9997
G1 X18.9 Y66.28 E58.0105
G1 X37.82 Y47.29 E58.9022
G1 X37.44 Y47.42 E58.9154
G1 X37.06 Y47.41 E58.9279
G1 X36.69 Y47.29 E58.9411
G1 X18.61 Y65.43 E59.7928
G1 X18.52 Y65.15 E59.8027
G1 X18.49 Y64.87 E59.8122
G1 X18.33 Y64.59 E59.823
G1 X35.55 Y47.3 E60.6348
G1 X35.18 Y47.42 E60.648
G1 X34.8 Y47.42 E60.6605
G1 X34.42 Y47.3 E60.6737
G1 X18.04 Y63.74 E61.4456
G1 X18.17 Y63.46 E61.456
G1 X17.95 Y63.08 E61.4706
G1 X17.76 Y62.89 E61.4795
G1 X31.32 Y49.28 E62.1183
G1 X32.03 Y49 E62.1437
G1 X31.87 Y48.72 E62.1543
G1 X33.29 Y47.3 E62.2211
G1 X32.91 Y47.42 E62.2343
G1 X32.54 Y47.42 E62.2468
G1 X32.16 Y47.3 E62.26
G1 X31.87 Y47.59 E62.2736
;
; 'Sparse Infill', 75.0 [RPM], 47.0 [mm/s]
G1 F9000
G1 X30.18 Y49.29 E62.2736
G1 F2818.7
G1 X17.76 Y61.76 E62.8592
G1 X17.88 Y61.38 E62.8724
G1 X17.88 Y61.01 E62.8849
G1 X17.75 Y60.63 E62.8981
G1 X29.05 Y49.29 E63.4305
G1 X28.7 Y49.43 E63.4432
G1 X28.35 Y49.43 E63.455
G1 X27.99 Y49.69 E63.4697
G1 X27.64 Y49.57 E63.4821
G1 X18.03 Y59.21 E63.9347
G1 X18.18 Y58.86 E63.9474
G1 X18.17 Y58.51 E63.9592
G1 X18.44 Y58.15 E63.9738
G1 X18.31 Y57.8 E63.9863
G1 X26.23 Y49.86 E64.3591
G1 X26 Y50.08 E64.3697
G1 X25.55 Y50.25 E64.3857
G1 X25.26 Y50.25 E64.3952
G1 X24.87 Y50.55 E64.4116
G1 X24.53 Y50.43 E64.4236
G1 X18.88 Y56.1 E64.6899
;
; 'Sparse Infill', 75.0 [RPM], 47.0 [mm/s]
G1 F9000
G1 X27.68 Y73.34 E64.6899
G1 F2818.7
G1 X40.67 Y60.3 E65.3022
G1 X40.55 Y60.67 E65.3154
G1 X40.55 Y61.05 E65.3279
G1 X40.67 Y61.43 E65.3411
G1 X28.53 Y73.62 E65.9134
G1 X28.9 Y73.5 E65.9266
G1 X29.28 Y73.5 E65.9392
G1 X29.66 Y73.62 E65.9524
G1 X40.67 Y62.56 E66.4715
G1 X40.55 Y62.94 E66.4847
G1 X40.55 Y63.31 E66.4972
G1 X40.68 Y63.69 E66.5104
G1 X30.79 Y73.61 E66.9763
G1 X31.17 Y73.49 E66.9895
G1 X31.54 Y73.49 E67.002
G1 X31.92 Y73.61 E67.0152
G1 X40.68 Y64.82 E67.4279
G1 X40.56 Y65.2 E67.4411
G1 X40.56 Y65.58 E67.4536
G1 X40.68 Y65.95 E67.4668
G1 X33.05 Y73.61 E67.8263
G1 X33.43 Y73.49 E67.8395
G1 X33.81 Y73.49 E67.852
G1 X34.18 Y73.61 E67.8652
G1 X40.68 Y67.09 E68.1714
G1 X40.56 Y67.46 E68.1846
G1 X40.56 Y67.84 E68.1972
G1 X40.68 Y68.22 E68.2104
G1 X35.03 Y73.89 E68.4766
G1 X35.41 Y73.77 E68.4898
G1 X35.79 Y73.77 E68.5024
G1 X36.16 Y73.89 E68.5155
G1 X40.69 Y69.35 E68.7287
G1 X41.06 Y69.47 E68.7418
G1 X41.44 Y69.47 E68.7544
G1 X41.82 Y69.35 E68.7676
G1 X37.29 Y73.89 E68.9807
G1 X37.67 Y73.76 E68.9939
G1 X38.05 Y73.76 E69.0064
G1 X38.43 Y73.88 E69.0196
G1 X42.95 Y69.34 E69.2327
G1 X43.33 Y69.46 E69.2459
G1 X43.7 Y69.47 E69.2585
G1 X44.08 Y69.34 E69.2716
G1 X39.56 Y73.88 E69.4848
G1 X39.93 Y73.76 E69.498
G1 X40.31 Y73.76 E69.5105
G1 X40.69 Y73.88 E69.5237
G1 X45.21 Y69.34 E69.7368
G1 X45.59 Y69.46 E69.75
G1 X45.97 Y69.46 E69.7625
G1 X46.34 Y69.34 E69.7757
G1 X41.82 Y73.88 E69.9889
G1 X42.2 Y73.75 E70.002
G1 X42.57 Y73.75 E70.0146
G1 X42.95 Y73.88 E70.0278
G1 X47.47 Y69.34 E70.2409
G1 X47.85 Y69.46 E70.2541
G1 X48.23 Y69.46 E70.2666
G1 X48.61 Y69.33 E70.2798
G1 X44.08 Y73.87 E70.4929
G1 X44.46 Y73.75 E70.5061
G1 X44.84 Y73.75 E70.5187
G1 X45.21 Y73.87 E70.5318
G1 X49.74 Y69.33 E70.745
G1 X50.11 Y69.45 E70.7581
G1 X50.49 Y69.45 E70.7707
G1 X50.87 Y69.33 E70.7839
G1 X46.35 Y73.87 E70.997
G1 X46.72 Y73.75 E71.0102
G1 X47.1 Y73.75 E71.0227
G1 X47.48 Y73.87 E71.0359
G1 X52 Y69.33 E71.249
G1 X52.38 Y69.45 E71.2622
G1 X52.75 Y69.45 E71.2748
G1 X53.13 Y69.33 E71.2879
G1 X48.61 Y73.86 E71.5011
G1 X48.99 Y73.74 E71.5143
G1 X49.36 Y73.74 E71.5268
G1 X49.74 Y73.86 E71.54
G1 X54.26 Y69.32 E71.7531
G1 X54.64 Y69.44 E71.7663
G1 X55.02 Y69.44 E71.7788
G1 X55.39 Y69.32 E71.792
G1 X50.87 Y73.86 E72.0051
G1 X51.25 Y73.74 E72.0183
G1 X51.63 Y73.74 E72.0309
G1 X52 Y73.86 E72.0441
G1 X56.53 Y69.32 E72.2572
G1 X56.9 Y69.44 E72.2703
G1 X57.28 Y69.44 E72.2829
G1 X57.66 Y69.32 E72.2961
G1 X53.13 Y73.86 E72.5091
;
; 'Wipe', 0.0 [RPM], 40.0 [mm/s]
;
; 'Sparse Infill', 75.0 [RPM], 47.0 [mm/s]
G1 F9000
G1 X57.61 Y47.83 E72.5091
G1 F2818.7
G1 X58.18 Y47.25 E72.536
;
; 'Sparse Infill', 75.0 [RPM], 47.0 [mm/s]
G1 F9000
G1 X44.61 Y47.28 E72.536
G1 F2818.7
G1 X43.75 Y48.13 E72.5762
;
; 'Sparse Infill', 75.0 [RPM], 47.0 [mm/s]
G1 F9000
G1 X42.62 Y48.14 E72.5762
G1 F2818.7
G1 X42.63 Y48.13 E72.5764
G1 X42.56 Y47.51 E72.5973
G1 X42.34 Y47.29 E72.6077
G1 X42.34 Y47.28 E72.608
G1 X42.15 Y47.1 E72.6168
G1 X42.03 Y46.84 E72.6264
G1 X41.49 Y47.01 E72.6454
;
; 'Sparse Infill', 75.0 [RPM], 47.0 [mm/s]
G1 F9000
G1 X22.27 Y51.56 E72.6454
G1 F2818.7
G1 X20 Y53.84 E72.7521
;
; 'Sparse Infill', 75.0 [RPM], 47.0 [mm/s]
G1 F9000
G1 X18.33 Y65.72 E72.7521
G1 F2818.7
G1 X18.33 Y65.71 E72.7523
G1 X18.17 Y65.74 E72.7579
G1 X18.43 Y66.37 E72.7806
G1 X18.62 Y66.56 E72.7895
G1 X18.61 Y66.57 E72.7898
;
; 'Sparse Infill', 75.0 [RPM], 47.0 [mm/s]
G1 F9000
G1 X19.75 Y68.82 E72.7898
G1 F2818.7
G1 X19.75 Y68.83 E72.79
G1 X20.32 Y69.39 E72.8166
G1 X20.32 Y69.39 E72.8169
G1 X20.89 Y69.95 E72.8435
G1 X20.88 Y69.96 E72.8438
G1 X21.45 Y70.52 E72.8704
G1 X21.46 Y70.52 E72.8707
G1 X22.02 Y71.08 E72.8973
G1 X22.02 Y71.09 E72.8975
G1 X22.58 Y71.65 E72.9241
G1 X22.59 Y71.64 E72.9244
;
; 'Sparse Infill', 75.0 [RPM], 47.0 [mm/s]
G1 F9000
G1 X27.39 Y73.62 E72.9244
G1 F2818.7
G1 X27.4 Y73.62 E72.9247
G1 X27.59 Y73.8 E72.9335
G1 X28.12 Y73.94 E72.9517
G1 X28.25 Y73.9 E72.9564
;
; 'Wipe', 0.0 [RPM], 40.0 [mm/s]
;
; 'Sparse Infill', 75.0 [RPM], 47.0 [mm/s]
G1 F9000
G1 X80.82 Y55.14 E72.9564
G1 F2818.7
G1 X80.82 Y55.13 E72.9566
G1 X80.26 Y54.57 E72.9833
G1 X80.25 Y54.57 E72.9835
;
; 'Sparse Infill', 75.0 [RPM], 47.0 [mm/s]
G1 F9000
G1 X79.4 Y53.16 E72.9835
G1 F2818.7
G1 X79.41 Y53.15 E72.9838
G1 X78.84 Y52.59 E73.0104
G1 X78.83 Y52.6 E73.0107
G1 X78.27 Y52.03 E73.0373
G1 X78.27 Y52.03 E73.0375
;
; 'Sparse Infill', 75.0 [RPM], 47.0 [mm/s]
G1 F9000
G1 X76.86 Y51.18 E73.0375
G1 F2818.7
G1 X76.85 Y51.18 E73.0378
G1 X76.28 Y50.62 E73.0644
G1 X76.29 Y50.61 E73.0647
;
; 'Sparse Infill', 75.0 [RPM], 47.0 [mm/s]
G1 F9000
G1 X68.36 Y47.24 E73.0647
G1 F2818.7
G1 X68.36 Y47.24 E73.0649
G1 X68.17 Y47.05 E73.0738
G1 X68.06 Y46.79 E73.0833
G1 X67.51 Y46.96 E73.1024
;
; 'Sparse Infill', 75.0 [RPM], 47.0 [mm/s]
G1 F9000
G1 X56.49 Y47.82 E73.1024
G1 F2818.7
G1 X56.48 Y47.83 E73.1026
G1 X56.42 Y47.2 E73.1237
G1 X56.2 Y46.98 E73.134
G1 X56.2 Y46.97 E73.1343
;
; 'Stacked Sparse Infill', 75.0 [RPM], 47.0 [mm/s]
G1 F9000
G1 X56.76 Y48.68 E73.1343
G1 F2818.7
G1 X57.3 Y48.14 E73.1597
G1 X57.34 Y48.11 E73.1612
G1 X56.96 Y47.54 E73.1838
G1 X56.9 Y47.26 E73.1933
G1 X56.67 Y46.89 E73.208
G1 X56.2 Y46.42 E73.2301
G1 X56.2 Y45.84 E73.2493
G1 X51.67 Y45.85 E73.3998
G1 X51.67 Y46.43 E73.419
G1 X47.15 Y46.43 E73.5695
G1 X47.15 Y45.86 E73.5887
G1 X42.62 Y45.74 E73.7393
G1 X42.62 Y46.95 E73.7796
G1 X42.62 Y47.01 E73.7816
G1 X42.85 Y47.23 E73.7922
G1 X43.01 Y47.68 E73.8082
G1 X43.03 Y48.36 E73.8307
G1 X43.19 Y48.7 E73.8431
G1 X43.19 Y48.7 E73.8434
;
; 'Stacked Sparse Infill', 75.0 [RPM], 47.0 [mm/s]
G1 F9000
G1 X38.1 Y46.45 E73.8434
G1 F2818.7
G1 X38.09 Y45.59 E73.8721
G1 X36.21 Y45.48 E73.9349
G1 X35.83 Y45.45 E73.9475
G1 X35.08 Y45.46 E73.9726
G1 X34.7 Y45.37 E73.9855
G1 X34.32 Y45.44 E73.9982
G1 X33.95 Y45.44 E74.0108
G1 X33.57 Y45.32 E74.024
G1 X33.57 Y46.46 E74.062
;
; 'Stacked Sparse Infill', 75.0 [RPM], 47.0 [mm/s]
G1 F9000
G1 X31.32 Y48.16 E74.062
G1 F2818.7
G1 X30.74 Y48.16 E74.0812
G1 X30.55 Y48.34 E74.0899
G1 X30.18 Y48.57 E74.1044
G1 X29.9 Y48.44 E74.1147
G1 X29.61 Y48.73 E74.1283
G1 X29.25 Y48.61 E74.141
G1 X28.88 Y48.62 E74.1531
G1 X28.38 Y48.83 E74.1712
G1 X28.16 Y48.98 E74.1802
G1 X27.79 Y48.91 E74.1925
G1 X27.43 Y48.89 E74.2046
G1 X26.93 Y49.16 E74.2234
G1 X26.7 Y49.24 E74.2315
G1 X25.98 Y49.16 E74.2558
G1 X25.48 Y49.48 E74.2755
G1 X25.25 Y49.7 E74.2859
G1 X24.89 Y49.72 E74.298
G1 X24.53 Y49.86 E74.311
G1 X24.53 Y49.87 E74.3113
;
; 'Stacked Sparse Infill', 75.0 [RPM], 47.0 [mm/s]
G1 F9000
G1 X17.76 Y57.23 E74.3113
G1 F2818.7
G1 X17.75 Y57.23 E74.3117
G1 X17.7 Y57.61 E74.3243
G1 X17.61 Y57.99 E74.3372
G1 X17.64 Y58.36 E74.3498
G1 X17.41 Y58.74 E74.3646
G1 X17.41 Y59.12 E74.3772
G1 X17.34 Y59.49 E74.3899
G1 X17.41 Y59.85 E74.402
G1 X17.2 Y60.06 E74.412
G1 X17.16 Y60.63 E74.4307
G1 X17.08 Y61 E74.4435
G1 X17.08 Y61.38 E74.456
G1 X17.2 Y61.76 E74.4691
G1 X17.19 Y61.76 E74.4695
G1 X17.07 Y62.14 E74.4826
G1 X17.08 Y62.51 E74.4952
G1 X17.38 Y63.27 E74.5221
G1 X17.4 Y63.64 E74.5347
G1 X17.34 Y64.02 E74.5474
G1 X17.51 Y64.4 E74.5611
G1 X17.56 Y64.77 E74.5738
G1 X17.65 Y65.15 E74.5867
G1 X17.63 Y65.53 E74.5993
G1 X17.88 Y65.9 E74.6143
G1 X17.76 Y66.28 E74.6274
G1 X17.77 Y66.28 E74.6277
G1 X18.29 Y66.8 E74.6519
G1 X18.48 Y67.21 E74.6669
G1 X18.49 Y67.51 E74.6771
G1 X19.03 Y68.13 E74.7043
G1 X19.21 Y68.44 E74.7162
G1 X19.52 Y69.15 E74.7422
G1 X20.04 Y69.67 E74.7664
G1 X20.03 Y69.67 E74.7667
G1 X21.17 Y70.8 E74.8199
G1 X21.18 Y70.8 E74.8202
G1 X22.2 Y71.83 E74.8684
G1 X22.72 Y72.03 E74.8868
G1 X23 Y72.05 E74.8962
G1 X23.51 Y72.57 E74.9204
G1 X23.95 Y72.9 E74.9387
G1 X24.26 Y72.85 E74.949
G1 X24.57 Y73.05 E74.9614
G1 X24.57 Y73.06 E74.9617
;
; 'Stacked Sparse Infill', 75.0 [RPM], 47.0 [mm/s]
G1 F9000
G1 X29.1 Y74.18 E74.9617
G1 F2818.7
G1 X28.81 Y74.47 E74.9753
G1 X29.19 Y74.34 E74.9885
G1 X29.56 Y74.34 E75.001
G1 X29.94 Y74.46 E75.0142
G1 X30.32 Y74.34 E75.0274
G1 X30.7 Y74.34 E75.0399
G1 X31.07 Y74.46 E75.0531
G1 X31.45 Y74.34 E75.0663
G1 X31.83 Y74.34 E75.0788
G1 X32.2 Y74.46 E75.092
G1 X32.58 Y74.34 E75.1052
G1 X32.96 Y74.34 E75.1178
G1 X33.34 Y74.46 E75.1309
G1 X33.62 Y74.17 E75.1445
G1 X34.01 Y74.29 E75.1579
G1 X34.39 Y74.3 E75.1708
G1 X34.78 Y74.25 E75.1837
G1 X35.55 Y74.33 E75.2095
G1 X35.93 Y74.29 E75.2224
G1 X36.71 Y74.38 E75.2482
G1 X37.09 Y74.31 E75.2612
G1 X37.48 Y74.33 E75.274
G1 X37.86 Y74.45 E75.2875
G1 X38.15 Y74.16 E75.301
G1 X38.53 Y74.28 E75.3144
G1 X38.92 Y74.29 E75.3273
G1 X39.3 Y74.24 E75.3402
G1 X40.07 Y74.32 E75.366
G1 X40.46 Y74.28 E75.3789
G1 X41.23 Y74.37 E75.4047
G1 X41.62 Y74.31 E75.4177
G1 X42 Y74.32 E75.4305
G1 X42.39 Y74.44 E75.444
G1 X42.67 Y74.15 E75.4575
G1 X43.06 Y74.27 E75.471
G1 X43.44 Y74.28 E75.4838
G1 X43.83 Y74.23 E75.4967
G1 X44.6 Y74.31 E75.5225
G1 X44.99 Y74.27 E75.5354
G1 X45.76 Y74.36 E75.5612
G1 X46.14 Y74.3 E75.5742
G1 X46.53 Y74.31 E75.587
G1 X46.91 Y74.43 E75.6005
G1 X47.2 Y74.14 E75.6141
G1 X47.58 Y74.26 E75.6275
G1 X47.97 Y74.27 E75.6403
G1 X48.35 Y74.22 E75.6532
G1 X49.13 Y74.3 E75.679
G1 X49.51 Y74.26 E75.6919
G1 X50.28 Y74.35 E75.7178
G1 X50.67 Y74.29 E75.7307
G1 X51.05 Y74.3 E75.7436
G1 X51.44 Y74.43 E75.757
G1 X51.72 Y74.13 E75.7706
G1 X52.1 Y74.26 E75.7839
G1 X52.48 Y74.27 E75.7965
G1 X52.86 Y74.22 E75.8093
G1 X53.63 Y74.3 E75.8347
G1 X54.01 Y74.26 E75.8475
G1 X54.39 Y74.36 E75.8605
G1 X55.91 Y74.47 E75.9113
G1 X56.25 Y74.12 E75.9274
G1 X56.63 Y74.25 E75.9406
G1 X57.38 Y74.24 E75.9656
G1 X58.13 Y74.29 E75.9907
G1 X59.26 Y74.41 E76.0285
G1 X59.64 Y74.56 E76.0419
G1 X60.01 Y74.49 E76.0546
G1 X60.39 Y74.51 E76.0672
G1 X60.49 Y74.4 E76.0721
G1 X60.88 Y74.53 E76.0856
G1 X61.27 Y74.54 E76.0984
G1 X61.65 Y74.47 E76.1115
G1 X62.42 Y74.57 E76.1373
G1 X62.81 Y74.51 E76.1503
G1 X63.58 Y74.62 E76.1762
G1 X63.96 Y74.54 E76.1892
G1 X64.35 Y74.56 E76.202
G1 X64.73 Y74.68 E76.2155
G1 X65.02 Y74.39 E76.229
G1 X65.41 Y74.52 E76.2424
G1 X65.79 Y74.53 E76.2553
G1 X66.18 Y74.47 E76.2682
G1 X66.95 Y74.56 E76.2941
G1 X67.33 Y74.51 E76.307
G1 X68.1 Y74.6 E76.3328
G1 X68.49 Y74.54 E76.3458
G1 X68.87 Y74.55 E76.3586
G1 X69.26 Y74.68 E76.372
G1 X69.55 Y74.39 E76.3856
G1 X69.92 Y74.5 E76.3985
G1 X70.29 Y74.5 E76.4108
G1 X71.02 Y74.16 E76.4379
G1 X71.76 Y74.23 E76.4626
G1 X72.13 Y74.14 E76.4752
G1 X72.7 Y74.06 E76.4942
G1 X72.91 Y73.84 E76.5044
G1 X73.24 Y73.95 E76.5159
G1 X73.61 Y73.9 E76.5284
G1 X74.13 Y73.75 E76.5463
G1 X74.35 Y73.54 E76.5565
G1 X74.35 Y73.53 E76.5569
;
; 'Stacked Sparse Infill', 75.0 [RPM], 47.0 [mm/s]
G1 F9000
G1 X82.25 Y66.16 E76.5569
G1 F2818.7
G1 X82.26 Y66.16 E76.5572
G1 X82.15 Y65.77 E76.5707
G1 X82.4 Y65.38 E76.5863
G1 X82.36 Y64.99 E76.5993
G1 X82.63 Y64.59 E76.6152
G1 X82.55 Y64.2 E76.6285
G1 X82.65 Y63.81 E76.642
G1 X82.66 Y63.42 E76.655
G1 X82.6 Y63.03 E76.6682
G1 X82.79 Y62.79 E76.6785
G1 X82.85 Y62.25 E76.6966
G1 X82.93 Y61.86 E76.7099
G1 X82.92 Y61.46 E76.7229
G1 X82.81 Y61.07 E76.7364
G1 X83.1 Y60.78 E76.75
G1 X82.95 Y60.42 E76.7631
G1 X82.92 Y60.05 E76.7754
G1 X82.68 Y59.68 E76.7901
G1 X82.75 Y59.32 E76.8026
G1 X82.58 Y58.58 E76.8277
G1 X82.38 Y58.21 E76.8416
G1 X82.41 Y57.85 E76.8539
G1 X82.23 Y57.11 E76.879
G1 X82.24 Y57.11 E76.8793
G1 X81.98 Y56.85 E76.8915
G1 X81.81 Y56.46 E76.9058
G1 X81.77 Y56.13 E76.9167
G1 X81.47 Y55.79 E76.9318
G1 X81.26 Y55.48 E76.9443
G1 X81.23 Y55.15 E76.9552
G1 X80.97 Y54.72 E76.972
G1 X80.71 Y54.46 E76.9842
G1 X80.47 Y54.18 E76.9966
G1 X80.28 Y53.85 E77.0092
G1 X79.94 Y53.14 E77.0354
G1 X79.69 Y52.87 E77.0477
G1 X79.68 Y52.88 E77.0479
G1 X78.55 Y51.75 E77.1012
G1 X78.55 Y51.74 E77.1014
G1 X78.29 Y51.49 E77.1137
G1 X77.57 Y51.16 E77.1398
G1 X77.25 Y50.95 E77.1526
G1 X76.96 Y50.73 E77.1648
G1 X76.7 Y50.47 E77.1771
G1 X76.27 Y50.2 E77.1939
G1 X75.94 Y50.17 E77.2048
G1 X75.63 Y49.97 E77.2171
G1 X75.29 Y49.67 E77.2323
G1 X74.96 Y49.63 E77.2432
G1 X74.57 Y49.46 E77.2574
G1 X74.31 Y49.2 E77.2697
G1 X74.3 Y49.21 E77.27
G1 X73.94 Y49.33 E77.2828
G1 X73.57 Y49.04 E77.2983
G1 X73.2 Y49.07 E77.3106
G1 X72.83 Y48.87 E77.3244
G1 X72.1 Y48.7 E77.3496
G1 X71.73 Y48.78 E77.3621
G1 X71.36 Y48.54 E77.3768
G1 X70.99 Y48.51 E77.389
G1 X70.63 Y48.36 E77.4021
G1 X70.34 Y48.65 E77.4157
G1 X70.06 Y48.46 E77.4271
G1 X69.78 Y48.5 E77.4365
G1 X69.38 Y48.25 E77.4519
G1 X68.93 Y47.8 E77.4732
G1 X68.64 Y48.09 E77.4868
;
; 'Stacked Sparse Infill', 75.0 [RPM], 47.0 [mm/s]
G1 F9000
G1 X65.25 Y46.4 E77.4868
G1 F2818.7
G1 X65.25 Y45.82 E77.506
G1 X60.72 Y45.83 E77.6565
G1 X60.72 Y46.41 E77.6757
;
; 'Wipe', 0.0 [RPM], 40.0 [mm/s]
G1 F210
G1 X60.72 Y46.41 Z1.45 E77.6757
; END_LAYER_OBJECT z=1.00
; Reset extruder pos
G92 E0
; BEGIN_LAYER_OBJECT z=1.20
; fan on
M106
;
; 'Loop', 53.3 [RPM], 33.4 [mm/s]
G1 F9000
G1 X79.49 Y70.93 E0
G1 F210
G1 X79.49 Y70.93 Z1.2 E0
G1 F2004.6
G1 X78.6 Y71.75 E0.0399
G1 X77.65 Y72.49 E0.0802
G1 X76.6 Y73.14 E0.1212
G1 X75.6 Y73.65 E0.1585
G1 X74.53 Y74.09 E0.197
G1 X73.46 Y74.42 E0.2343
G1 X72.26 Y74.69 E0.2752
G1 X71.12 Y74.83 E0.3133
G1 X69.85 Y74.88 E0.3556
G1 X30.09 Y74.88 E1.6781
G1 X28.83 Y74.83 E1.7201
G1 X27.71 Y74.68 E1.7576
G1 X26.58 Y74.44 E1.7959
G1 X25.44 Y74.08 E1.8359
G1 X24.37 Y73.64 E1.8743
G1 X23.37 Y73.12 E1.9115
G1 X22.33 Y72.47 E1.9524
G1 X21.38 Y71.73 E1.9927
G1 X20.49 Y70.91 E2.0326
G1 X19.77 Y70.13 E2.0681
G1 X19.11 Y69.28 E2.1039
G1 X18.38 Y68.13 E2.1493
G1 X17.86 Y67.13 E2.1866
G1 X17.42 Y66.06 E2.225
G1 X17.06 Y64.91 E2.2652
G1 X16.82 Y63.83 E2.302
G1 X16.67 Y62.66 E2.3412
G1 X16.62 Y61.57 E2.3776
G1 X16.67 Y60.3 E2.4198
G1 X16.83 Y59.14 E2.4588
G1 X17.07 Y58.06 E2.4956
G1 X17.43 Y56.91 E2.5355
G1 X17.87 Y55.85 E2.5739
G1 X18.39 Y54.85 E2.6111
G1 X19.04 Y53.81 E2.652
G1 X19.79 Y52.86 E2.6922
G1 X20.51 Y52.07 E2.7277
G1 X21.39 Y51.26 E2.7677
G1 X22.35 Y50.52 E2.8079
G1 X23.39 Y49.87 E2.8489
G1 X24.39 Y49.35 E2.8862
G1 X25.46 Y48.92 E2.9247
G1 X26.57 Y48.57 E2.9633
G1 X27.7 Y48.32 E3.0017
G1 X28.87 Y48.17 E3.041
G1 X29.95 Y48.12 E3.0771
G1 X30.11 Y48.09 E3.0824
G1 X30.34 Y47.94 E3.0915
G1 X30.52 Y47.75 E3.1004
G1 X30.62 Y47.46 E3.1103
G1 X30.62 Y47.34 E3.1144
G1 X30.62 Y45.21 E3.1854
G1 X30.72 Y45.12 E3.1898
G1 X69.35 Y45.12 E4.4746
G1 X69.38 Y45.27 E4.4799
G1 X69.38 Y47.5 E4.5542
G1 X69.42 Y47.69 E4.5604
G1 X69.56 Y47.92 E4.5695
G1 X69.8 Y48.06 E4.5786
G1 X70.11 Y48.12 E4.5893
G1 X71.19 Y48.18 E4.6252
G1 X72.35 Y48.33 E4.6643
G1 X73.43 Y48.57 E4.701
G1 X74.58 Y48.93 E4.741
G1 X75.65 Y49.37 E4.7794
G1 X76.64 Y49.89 E4.8166
G1 X77.68 Y50.54 E4.8575
G1 X78.64 Y51.28 E4.8977
G1 X79.42 Y52 E4.9332
G1 X80.32 Y52.99 E4.9776
G1 X81.06 Y53.95 E5.0179
G1 X81.65 Y54.87 E5.0543
G1 X81.7 Y55.01 E5.0592
G1 X82.15 Y55.88 E5.0917
G1 X82.59 Y56.95 E5.1301
G1 X82.82 Y57.66 E5.1551
G1 X82.91 Y57.95 E5.1651
G1 X83.15 Y59.03 E5.202
G1 X83.31 Y60.19 E5.2409
G1 X83.34 Y60.54 E5.2526
G1 X83.38 Y61.45 E5.2828
G1 X83.32 Y62.71 E5.3248
G1 X83.17 Y63.87 E5.3638
G1 X82.93 Y64.95 E5.4005
G1 X82.57 Y66.1 E5.4405
G1 X82.12 Y67.16 E5.4788
G1 X81.61 Y68.15 E5.516
G1 X80.95 Y69.19 E5.5569
G1 X80.3 Y70.04 E5.5927
G1 X79.49 Y70.93 E5.6326
;
; 'Perimeter', 27.9 [RPM], 17.5 [mm/s]
G1 F9000
G1 X79.69 Y71 E5.6326
G1 F1050
G1 X79.77 Y71.22 E5.6402
G1 X78.89 Y72.03 E5.6801
G1 X77.82 Y72.85 E5.7249
G1 X76.89 Y73.44 E5.7617
G1 X75.73 Y74.04 E5.805
G1 X74.71 Y74.46 E5.8416
G1 X73.56 Y74.82 E5.8816
G1 X72.32 Y75.08 E5.9239
G1 X71.15 Y75.23 E5.963
G1 X69.88 Y75.29 E6.0055
G1 X30.07 Y75.28 E7.3295
G1 X28.8 Y75.23 E7.3716
G1 X27.64 Y75.08 E7.4107
G1 X26.4 Y74.81 E7.4528
G1 X25.26 Y74.45 E7.4927
G1 X24.2 Y74.01 E7.5309
G1 X23.08 Y73.42 E7.5729
G1 X22.16 Y72.83 E7.6092
G1 X21.2 Y72.1 E7.6495
G1 X20.21 Y71.2 E7.6938
G1 X19.4 Y70.31 E7.7338
G1 X18.67 Y69.34 E7.7741
G1 X18.08 Y68.42 E7.8104
G1 X17.5 Y67.31 E7.8523
G1 X17.06 Y66.24 E7.8907
G1 X16.69 Y65.09 E7.9307
G1 X16.42 Y63.86 E7.9729
G1 X16.27 Y62.68 E8.0122
G1 X16.22 Y61.54 E8.0503
G1 X16.27 Y60.28 E8.0924
G1 X16.43 Y59.11 E8.1314
G1 X16.69 Y57.91 E8.1722
G1 X17.04 Y56.81 E8.2107
G1 X17.51 Y55.67 E8.2516
G1 X18.02 Y54.68 E8.2889
G1 X18.68 Y53.64 E8.3297
G1 X19.41 Y52.68 E8.37
G1 X20.22 Y51.79 E8.41
G1 X21.21 Y50.89 E8.4543
G1 X22.17 Y50.16 E8.4946
G1 X23.17 Y49.53 E8.5337
G1 X24.21 Y48.99 E8.5729
G1 X25.28 Y48.55 E8.6113
G1 X26.43 Y48.19 E8.6514
G1 X27.67 Y47.92 E8.6936
G1 X28.84 Y47.77 E8.7329
G1 X29.93 Y47.72 E8.769
G1 X30.06 Y47.66 E8.7738
G1 X30.16 Y47.57 E8.7782
G1 X30.21 Y47.44 E8.7829
G1 X30.21 Y44.8 E8.8706
G1 X30.31 Y44.71 E8.875
G1 X69.74 Y44.72 E10.1865
G1 X69.78 Y44.87 E10.1917
G1 X69.79 Y47.51 E10.2795
G1 X69.85 Y47.64 E10.2843
G1 X70.14 Y47.72 E10.2943
G1 X71.04 Y47.76 E10.3244
G1 X71.22 Y47.77 E10.3303
G1 X72.38 Y47.92 E10.3694
G1 X73.62 Y48.2 E10.4114
G1 X74.76 Y48.56 E10.4513
G1 X75.78 Y48.99 E10.4881
G1 X76.93 Y49.59 E10.5314
G1 X77.86 Y50.18 E10.5677
G1 X78.82 Y50.91 E10.608
G1 X79.71 Y51.72 E10.648
G1 X80.61 Y52.71 E10.6924
G1 X81.34 Y53.67 E10.7326
G1 X81.93 Y54.59 E10.769
G1 X82.49 Y55.67 E10.8096
G1 X82.95 Y56.77 E10.8493
G1 X83.31 Y57.92 E10.8893
G1 X83.58 Y59.16 E10.9316
G1 X83.73 Y60.34 E10.9709
G1 X83.78 Y61.47 E11.0087
G1 X83.73 Y62.73 E11.0507
G1 X83.57 Y63.9 E11.0897
G1 X83.33 Y64.98 E11.1266
G1 X82.95 Y66.22 E11.1699
G1 X82.49 Y67.33 E11.2099
G1 X81.98 Y68.33 E11.2472
G1 X81.32 Y69.37 E11.288
G1 X80.58 Y70.33 E11.3283
G1 X79.77 Y71.22 E11.3682
G1 X79.55 Y71.15 E11.3758
;
; 'Loop', 53.3 [RPM], 33.4 [mm/s]
G1 F9000
G1 X58.94 Y68.91 E11.3758
G1 F2004.6
G1 X58.71 Y69.05 E11.3849
G1 X58.4 Y69.12 E11.3955
G1 X41.48 Y69.12 E11.958
G1 X41.33 Y69.08 E11.9633
G1 X41.09 Y68.94 E11.9724
G1 X40.95 Y68.71 E11.9815
G1 X40.88 Y68.4 E11.9922
G1 X40.88 Y58.63 E12.3168
G1 X40.92 Y58.3 E12.3281
G1 X41.07 Y58.06 E12.3372
G1 X41.3 Y57.92 E12.3463
G1 X41.57 Y57.88 E12.3554
G1 X58.45 Y57.88 E12.9169
G1 X58.66 Y57.92 E12.9241
G1 X58.9 Y58.06 E12.9332
G1 X59.04 Y58.29 E12.9423
G1 X59.12 Y58.6 E12.9526
G1 X59.12 Y68.52 E13.2827
G1 X59.08 Y68.67 E13.288
G1 X58.94 Y68.91 E13.2971
;
; 'Perimeter', 27.9 [RPM], 17.5 [mm/s]
G1 F9000
G1 X58.84 Y68.67 E13.2971
G1 F1050
G1 X58.66 Y68.62 E13.3034
G1 X58.37 Y68.71 E13.3134
G1 X50.35 Y68.71 E13.5801
G1 X41.5 Y68.72 E13.8743
G1 X41.38 Y68.66 E13.8791
G1 X41.29 Y68.37 E13.8891
G1 X41.29 Y58.66 E14.2121
G1 X41.29 Y58.54 E14.2159
G1 X41.29 Y58.48 E14.2181
G1 X41.35 Y58.35 E14.2228
G1 X41.55 Y58.28 E14.2296
G1 X58.48 Y58.28 E14.7928
G1 X58.61 Y58.34 E14.7978
G1 X58.71 Y58.62 E14.8076
G1 X58.72 Y68.5 E15.136
G1 X58.66 Y68.62 E15.1407
G1 X58.71 Y68.81 E15.1471
; fan off
M107
;
; 'Sparse Infill', 75.0 [RPM], 47.0 [mm/s]
G1 F9000
G1 X59.35 Y69.31 E15.1471
G1 F2818.7
G1 X63.89 Y73.84 E15.3602
G1 X64.26 Y73.71 E15.3734
G1 X64.64 Y73.71 E15.3859
G1 X65.02 Y73.83 E15.3991
G1 X59.35 Y68.18 E15.6654
G1 X59.47 Y67.81 E15.6786
G1 X59.47 Y67.43 E15.6912
G1 X59.34 Y67.05 E15.7043
G1 X66.15 Y73.83 E16.0239
G1 X66.53 Y73.71 E16.0371
G1 X66.9 Y73.71 E16.0496
G1 X67.28 Y73.83 E16.0628
G1 X59.34 Y65.92 E16.4356
G1 X59.46 Y65.54 E16.4488
G1 X59.46 Y65.17 E16.4613
G1 X59.34 Y64.79 E16.4745
G1 X68.41 Y73.83 E16.9005
G1 X68.79 Y73.71 E16.9137
G1 X69.17 Y73.7 E16.9262
G1 X69.54 Y73.83 E16.9394
G1 X59.34 Y63.66 E17.4186
G1 X59.46 Y63.28 E17.4318
G1 X59.46 Y62.9 E17.4443
G1 X59.34 Y62.53 E17.4575
G1 X70.68 Y73.82 E17.99
G1 X70.96 Y73.66 E18.0008
G1 X71.24 Y73.63 E18.0102
G1 X71.52 Y73.54 E18.0201
G1 X59.33 Y61.39 E18.5925
G1 X59.45 Y61.02 E18.6056
G1 X59.46 Y60.64 E18.6182
G1 X59.33 Y60.26 E18.6314
G1 X72.66 Y73.54 E19.2569
G1 X72.84 Y73.35 E19.2658
G1 X73.22 Y73.12 E19.2804
G1 X73.5 Y73.25 E19.2908
G1 X59.33 Y59.13 E19.9563
;
; 'Sparse Infill', 75.0 [RPM], 47.0 [mm/s]
G1 F9000
G1 X57.63 Y57.44 E19.9563
G1 F2818.7
