; KISSlicer - PRO
; Linux
; version 1.0.9.7
; Built: Jun 12 2012, 22:57:28
;
; Saved: Sun May  5 13:03:20 2013
; 'HeadFrame.gcode'
;
; *** Printer Settings ***
;
; printer_name = Blade-1
; extension = gcode
; cost_per_hour = 2.5
; g_code_prefix = 473238
; g_code_postfix = 0A4D313430205330203B207475726E206F6666206265640A4730205938302046353030303B2050726573656E7420506172740A4D383420202020203B2064697361626C65206D6F746F72730A
; g_code_ext_change = NULL
; post_process = NULL
; num_extruders = 1
; firmware_type = 2
; M104_M109 = 1
; add_comments = 1
; z_speed_mm_per_s = 3.5
; z_settle_mm = 0.25
; bed_size_x_mm = 100
; bed_size_y_mm = 100
; bed_size_z_mm = 150
; bed_offset_x_mm = 50
; bed_offset_y_mm = 60
; bed_offset_z_mm = 0
; bed_roughness_mm = 0.4
; travel_speed_mm_per_s = 150
; first_layer_speed_mm_per_s = 10
; lo_speed_perim_mm_per_s = 10
; lo_speed_solid_mm_per_s = 20
; lo_speed_sparse_mm_per_s = 30
; hi_speed_perim_mm_per_s = 25
; hi_speed_solid_mm_per_s = 60
; hi_speed_sparse_mm_per_s = 75
; ext_mm_per_rev_1 = 1.25
; ext_material_1 = 0
; ext_axis_1 = 0
; ext_mm_per_rev_2 = 1.25
; ext_material_2 = 0
; ext_axis_2 = 0
; ext_mm_per_rev_3 = 1.25
; ext_material_3 = 0
; ext_axis_3 = 0
; model_ext = 0
; support_ext = 0
; support_body_ext = 0
; raft_ext = 0
; solid_loop_overlap_fraction = 0.5
;
; *** Material Settings for Extruder 1 ***
;
; material_name = ABS
; fan_off_ISOs_all = 1
; temperature_C = 250
; keep_warm_C = 150
; first_layer_C = 250
; bed_C = 110
; sec_per_C_per_C = 0
; RPM_min = 3
; RPM_max = 75
; destring_suck = 0.4
; destring_prime = 0.2
; destring_min_mm = 0
; destring_speed_mm_per_s = 15
; min_layer_time_s = 15
; wipe_mm = 0
; cost_per_cm3 = 0.062
; flowrate_tweak = 1
; fiber_dia_mm = 1.75
; color = 0
;
; *** Style Settings ***
;
; style_name = High
; layer_thickness_mm = 0.2
; extrusion_width_mm = 0.4
; num_loops = 2
; skin_thickness_mm = 0.8
; infill_extrusion_width = 0.4
; infill_density_denominator = 4
; stacked_layers = 1
; use_destring = 0
; loops_insideout = 1
; round_infill = 1
;
; *** Actual Slicing Settings As Used ***
;
; layer_thickness_mm = 0.2
; extrusion_width = 0.4
; num_ISOs = 2
; wall_thickness = 0.8
; infill_style = 5
; support_style = 0
; support_angle = 90
; destring_min_mm = 0
; stacked_infill_layers = 1
; ISO_wipe_mm = 0
; raft_style = 0
; extra_raft_depth = 0.4
; oversample_res_mm = 0.125
; crowning_threshold_mm = 1
; loops_insideout = 1
; sheathed_support = 0
; solid_loop_overlap_fraction = 0.5
; inflate_raft_mm = 0
; inflate_support_mm = 1
; model_support_gap_mm = 0.5
; round_infill = 1
; Speed vs Quality = 0.50
;
; *** Header ***
;
; fan off
M107
; [mm] mode
G21
; absolute mode
G90
; *** User-Supplied G-code Prefix ***
;
G28
;
; *** Main G-code ***
;
; Reset extruder pos
G92 E0
; BEGIN_LAYER_OBJECT z=0.20
;
; *** Warming Extruder 1 to 250 C ***
M109 S250
G92 E0
;
;
; 'Loop', 16.0 [RPM], 10.0 [mm/s]
G1 F9000
G1 X77 Y87.95 Z0.45 E0
G1 F210
G1 X77 Y87.95 Z0.2 E0
G1 F600
G1 X75.12 Y89.83 E0.0887
G1 X74.98 Y89.88 E0.0936
G1 X57.27 Y89.88 E0.6827
G1 X57.12 Y89.84 E0.6878
G1 X57.12 Y89.18 E0.7099
G1 X57.24 Y89.11 E0.7146
G1 X74.4 Y89.11 E1.2853
G1 X74.73 Y89.06 E1.2963
G1 X74.96 Y88.92 E1.3054
G1 X90.89 Y72.98 E2.0548
G1 X91.04 Y72.75 E2.0639
G1 X91.12 Y72.43 E2.0749
G1 X91.12 Y70 E2.1557
G1 X91.08 Y69.83 E2.1617
G1 X90.94 Y69.6 E2.1708
G1 X90.71 Y69.45 E2.1799
G1 X90.31 Y69.38 E2.1934
G1 X9.7 Y69.38 E4.8745
G1 X9.29 Y69.45 E4.8881
G1 X9.06 Y69.6 E4.8972
G1 X8.92 Y69.83 E4.9063
G1 X8.88 Y70.01 E4.9123
G1 X8.88 Y72.62 E4.9993
G1 X8.92 Y72.8 E5.0054
G1 X9.06 Y73.03 E5.0145
G1 X9.12 Y73.16 E5.0192
G1 X24.86 Y88.91 E5.7598
G1 X25.09 Y89.05 E5.7689
G1 X25.41 Y89.11 E5.7797
G1 X32.77 Y89.11 E6.0242
G1 X32.88 Y89.19 E6.0288
G1 X32.88 Y89.84 E6.0504
G1 X32.74 Y89.88 E6.0555
G1 X24.84 Y89.88 E6.3183
G1 X24.7 Y89.82 E6.3231
G1 X8.2 Y73.32 E7.0992
G1 X8.12 Y73.18 E7.1049
G1 X8.12 Y37.4 E8.295
G1 X8.12 Y32.87 E8.4455
G1 X8.12 Y30.19 E8.5348
G1 X8.24 Y30.12 E8.5393
G1 X8.8 Y30.12 E8.558
G1 X8.88 Y30.22 E8.5625
G1 X8.88 Y67.91 E9.816
G1 X8.96 Y68.17 E9.8251
G1 X9.13 Y68.44 E9.8357
G1 X9.36 Y68.58 E9.8448
G1 X9.59 Y68.62 E9.8524
G1 X90.41 Y68.62 E12.5405
G1 X90.64 Y68.58 E12.5482
G1 X90.87 Y68.44 E12.5573
G1 X91.04 Y68.17 E12.5678
G1 X91.12 Y67.91 E12.5769
G1 X91.12 Y65.83 E12.6459
G1 X91.12 Y30.22 E13.8304
G1 X91.2 Y30.12 E13.8349
G1 X91.76 Y30.12 E13.8535
G1 X91.88 Y30.18 E13.8581
G1 X91.88 Y73.03 E15.2832
G1 X91.81 Y73.14 E15.2877
G1 X77 Y87.95 E15.984
;
; 'Perimeter', 16.0 [RPM], 10.0 [mm/s]
G1 F9000
G1 X75.25 Y90 E15.984
G1 F600
G1 X75.34 Y90.24 E15.9926
G1 X75.19 Y90.28 E15.9977
G1 X56.86 Y90.28 E16.6073
G1 X56.72 Y90.24 E16.6124
G1 X56.72 Y88.78 E16.6611
G1 X56.84 Y88.71 E16.6657
G1 X74.38 Y88.71 E17.249
G1 X74.55 Y88.69 E17.2547
G1 X74.68 Y88.64 E17.2594
G1 X90.61 Y72.7 E18.0089
G1 X90.72 Y72.43 E18.0186
G1 X90.72 Y70.01 E18.0991
G1 X90.66 Y69.88 E18.1039
G1 X90.33 Y69.78 E18.1152
G1 X9.67 Y69.78 E20.7979
G1 X9.47 Y69.82 E20.8046
G1 X9.34 Y69.88 E20.8093
G1 X9.28 Y70.01 E20.814
G1 X9.28 Y72.62 E20.9009
G1 X9.4 Y72.88 E20.9104
G1 X25.15 Y88.63 E21.651
G1 X25.44 Y88.71 E21.6611
G1 X27.05 Y88.71 E21.7146
G1 X33.17 Y88.71 E21.9183
G1 X33.28 Y88.78 E21.9228
G1 X33.28 Y90.24 E21.9711
G1 X33.14 Y90.28 E21.9761
G1 X24.66 Y90.28 E22.2583
G1 X24.51 Y90.2 E22.2638
G1 X8.2 Y73.89 E23.031
G1 X7.73 Y73.42 E23.0531
G1 X7.71 Y73.25 E23.0588
G1 X7.71 Y41.19 E24.125
G1 X7.71 Y29.78 E24.5045
G1 X7.83 Y29.71 E24.509
G1 X9.2 Y29.71 E24.5545
G1 X9.28 Y29.82 E24.559
G1 X9.28 Y67.91 E25.8259
G1 X9.41 Y68.15 E25.8352
G1 X9.57 Y68.22 E25.8406
G1 X90.43 Y68.22 E28.5302
G1 X90.59 Y68.15 E28.5358
G1 X90.72 Y67.9 E28.5451
G1 X90.72 Y29.82 E29.8119
G1 X90.8 Y29.71 E29.8164
G1 X92.17 Y29.71 E29.8618
G1 X92.29 Y29.78 E29.8664
G1 X92.29 Y56.75 E30.7632
G1 X92.29 Y73.25 E31.312
G1 X92.09 Y73.43 E31.3209
G1 X75.4 Y90.11 E32.1059
G1 X75.34 Y90.24 E32.1106
G1 X75.12 Y90.12 E32.1192
;
; 'Solid', 16.0 [RPM], 10.0 [mm/s]
G1 F9000
G1 X74.77 Y89.53 E32.1192
G1 F600
G1 X91.54 Y72.77 E32.9078
;
; 'Solid', 16.0 [RPM], 10.0 [mm/s]
G1 F9000
G1 X91.55 Y69.36 E32.9078
G1 F600
G1 X91.52 Y68.83 E32.9256
G1 X91.1 Y69.24 E32.9453
G1 X90.7 Y69.08 E32.9597
G1 X91.54 Y68.24 E32.9991
;
; 'Wipe', 0.0 [RPM], 10.0 [mm/s]
;
; 'Solid', 16.0 [RPM], 10.0 [mm/s]
G1 F9000
G1 X9.09 Y69.23 E32.9991
G1 F600
G1 X9.33 Y68.99 E33.0105
G1 X8.98 Y68.78 E33.0242
G1 X8.48 Y69.28 E33.0476
G1 X8.48 Y68.71 E33.0665
G1 X8.72 Y68.48 E33.0776
G1 X8.43 Y68.2 E33.0909
;
; 'Wipe', 0.0 [RPM], 10.0 [mm/s]
G1 F210
G1 X8.43 Y68.2 Z0.65 E33.0909
; END_LAYER_OBJECT z=0.20
; Reset extruder pos
G92 E0
; BEGIN_LAYER_OBJECT z=0.40
; fan on
M106
;
; 'Loop', 53.3 [RPM], 33.4 [mm/s]
G1 F9000
G1 X77 Y87.95 E0
G1 F210
G1 X77 Y87.95 Z0.4 E0
G1 F2004.6
G1 X75.12 Y89.83 E0.0887
G1 X74.98 Y89.88 E0.0936
G1 X57.27 Y89.88 E0.6827
G1 X57.12 Y89.84 E0.6878
G1 X57.12 Y89.18 E0.7099
G1 X57.24 Y89.11 E0.7146
G1 X74.4 Y89.11 E1.2853
G1 X74.73 Y89.06 E1.2962
G1 X74.96 Y88.92 E1.3053
G1 X90.89 Y72.98 E2.0548
G1 X91.04 Y72.75 E2.0639
G1 X91.12 Y72.43 E2.0748
G1 X91.12 Y70 E2.1556
G1 X91.08 Y69.83 E2.1616
G1 X90.94 Y69.6 E2.1707
G1 X90.71 Y69.45 E2.1798
G1 X90.31 Y69.38 E2.1933
G1 X9.79 Y69.38 E4.8713
G1 X9.6 Y69.38 E4.8776
G1 X9.29 Y69.45 E4.8881
G1 X9.06 Y69.6 E4.8972
G1 X8.92 Y69.83 E4.9063
G1 X8.88 Y70.01 E4.9123
G1 X8.88 Y72.62 E4.9993
G1 X8.92 Y72.8 E5.0053
G1 X9.06 Y73.03 E5.0144
G1 X9.12 Y73.16 E5.0192
G1 X24.86 Y88.91 E5.7598
G1 X25.09 Y89.05 E5.7689
G1 X25.41 Y89.11 E5.7796
G1 X32.77 Y89.11 E6.0242
G1 X32.88 Y89.19 E6.0288
G1 X32.88 Y89.84 E6.0504
G1 X32.74 Y89.88 E6.0554
G1 X24.84 Y89.88 E6.3183
G1 X24.7 Y89.82 E6.3231
G1 X8.2 Y73.32 E7.0992
G1 X8.12 Y73.18 E7.1049
G1 X8.12 Y41.17 E8.1695
G1 X8.12 Y30.19 E8.5348
G1 X8.24 Y30.12 E8.5394
G1 X8.8 Y30.12 E8.558
G1 X8.88 Y30.22 E8.5625
G1 X8.88 Y67.91 E9.816
G1 X8.96 Y68.17 E9.8251
G1 X9.13 Y68.44 E9.8357
G1 X9.36 Y68.58 E9.8448
G1 X9.59 Y68.62 E9.8524
G1 X90.41 Y68.62 E12.5405
G1 X90.64 Y68.58 E12.5482
G1 X90.87 Y68.44 E12.5573
G1 X91.04 Y68.17 E12.5678
G1 X91.12 Y67.91 E12.5769
G1 X91.12 Y65.83 E12.6459
G1 X91.12 Y30.22 E13.8304
G1 X91.2 Y30.12 E13.8349
G1 X91.76 Y30.12 E13.8535
G1 X91.88 Y30.18 E13.8581
G1 X91.88 Y73.03 E15.2832
G1 X91.81 Y73.14 E15.2877
G1 X77 Y87.95 E15.984
;
; 'Perimeter', 27.9 [RPM], 17.5 [mm/s]
G1 F9000
G1 X75.25 Y90 E15.984
G1 F1050
G1 X75.34 Y90.24 E15.9926
G1 X75.19 Y90.28 E15.9977
G1 X56.86 Y90.28 E16.6073
G1 X56.72 Y90.24 E16.6124
G1 X56.72 Y88.78 E16.6611
G1 X56.84 Y88.71 E16.6657
G1 X74.38 Y88.71 E17.249
G1 X74.55 Y88.69 E17.2547
G1 X74.68 Y88.63 E17.2594
G1 X90.61 Y72.7 E18.0088
G1 X90.72 Y72.43 E18.0185
G1 X90.72 Y70.01 E18.0991
G1 X90.66 Y69.88 E18.1038
G1 X90.33 Y69.78 E18.1151
G1 X9.67 Y69.78 E20.7978
G1 X9.47 Y69.82 E20.8046
G1 X9.34 Y69.88 E20.8093
G1 X9.28 Y70.01 E20.814
G1 X9.28 Y72.62 E20.9009
G1 X9.4 Y72.88 E20.9104
G1 X25.15 Y88.63 E21.651
G1 X25.44 Y88.71 E21.6611
G1 X26.38 Y88.71 E21.6924
G1 X33.17 Y88.71 E21.9182
G1 X33.28 Y88.78 E21.9228
G1 X33.28 Y90.24 E21.971
G1 X33.14 Y90.28 E21.976
G1 X24.66 Y90.28 E22.2582
G1 X24.51 Y90.2 E22.2637
G1 X7.83 Y73.51 E23.0487
G1 X7.72 Y73.35 E23.0553
G1 X7.71 Y73.25 E23.0585
G1 X7.71 Y41.19 E24.1247
G1 X7.71 Y29.78 E24.5042
G1 X7.83 Y29.71 E24.5087
G1 X9.2 Y29.71 E24.5542
G1 X9.28 Y29.82 E24.5587
G1 X9.28 Y67.91 E25.8256
G1 X9.41 Y68.15 E25.8349
G1 X9.57 Y68.22 E25.8403
G1 X90.43 Y68.22 E28.5299
G1 X90.59 Y68.15 E28.5355
G1 X90.72 Y67.9 E28.5448
G1 X90.72 Y29.82 E29.8116
G1 X90.8 Y29.71 E29.8161
G1 X92.17 Y29.71 E29.8615
G1 X92.29 Y29.78 E29.8661
G1 X92.29 Y65.8 E31.064
G1 X92.29 Y73.25 E31.3117
G1 X92.09 Y73.43 E31.3206
G1 X75.4 Y90.11 E32.1056
G1 X75.34 Y90.24 E32.1103
G1 X75.12 Y90.12 E32.1189
; fan off
M107
;
; 'Solid', 63.9 [RPM], 40.0 [mm/s]
G1 F9000
G1 X74.92 Y89.45 E32.1189
G1 F2400
G1 X74.86 Y89.39 E32.1217
G1 X91.58 Y72.73 E32.9066
;
; 'Solid', 63.9 [RPM], 40.0 [mm/s]
G1 F9000
G1 X90.87 Y69.19 E32.9066
G1 F2400
G1 X90.67 Y68.99 E32.916
G1 X91.02 Y68.78 E32.9298
G1 X91.52 Y69.28 E32.9531
G1 X91.52 Y68.71 E32.9719
G1 X91.29 Y68.48 E32.9829
G1 X91.58 Y68.2 E32.9963
;
; 'Solid', 63.9 [RPM], 40.0 [mm/s]
G1 F9000
G1 X90.19 Y69.08 E32.9963
G1 F2400
G1 X90.16 Y69.05 E32.9977
G1 X89.58 Y69.04 E33.0169
G1 X89.55 Y69.01 E33.0183
G1 X89.06 Y69.08 E33.0349
G1 X89.03 Y69.05 E33.0363
G1 X88.45 Y69.04 E33.0555
G1 X88.42 Y69.01 E33.0569
G1 X87.93 Y69.08 E33.0735
G1 X87.9 Y69.05 E33.0749
G1 X87.32 Y69.04 E33.0942
G1 X87.29 Y69.01 E33.0956
G1 X86.8 Y69.08 E33.1122
G1 X86.77 Y69.05 E33.1135
G1 X86.19 Y69.04 E33.1328
G1 X86.16 Y69.01 E33.1342
G1 X85.67 Y69.08 E33.1508
G1 X85.64 Y69.05 E33.1522
G1 X85.06 Y69.04 E33.1714
G1 X85.03 Y69.01 E33.1728
G1 X84.54 Y69.08 E33.1894
G1 X84.51 Y69.05 E33.1908
G1 X83.93 Y69.04 E33.21
G1 X83.9 Y69.01 E33.2114
G1 X83.4 Y69.08 E33.228
G1 X83.37 Y69.05 E33.2294
G1 X82.8 Y69.04 E33.2487
G1 X82.77 Y69.01 E33.25
G1 X82.27 Y69.08 E33.2666
G1 X82.24 Y69.05 E33.268
G1 X81.66 Y69.04 E33.2873
G1 X81.63 Y69.01 E33.2887
G1 X81.14 Y69.08 E33.3053
G1 X81.11 Y69.05 E33.3067
G1 X80.53 Y69.04 E33.3259
G1 X80.5 Y69.01 E33.3273
G1 X80.01 Y69.08 E33.3439
G1 X79.98 Y69.05 E33.3453
G1 X79.4 Y69.04 E33.3645
G1 X79.37 Y69.01 E33.3659
G1 X78.88 Y69.08 E33.3825
G1 X78.85 Y69.05 E33.3839
G1 X78.27 Y69.04 E33.4031
G1 X78.24 Y69.01 E33.4045
G1 X77.75 Y69.08 E33.4211
G1 X77.72 Y69.05 E33.4225
G1 X77.14 Y69.04 E33.4418
G1 X77.11 Y69.01 E33.4431
G1 X76.62 Y69.08 E33.4597
G1 X76.59 Y69.05 E33.4611
G1 X76.01 Y69.04 E33.4804
G1 X75.98 Y69.01 E33.4817
G1 X75.48 Y69.08 E33.4984
G1 X75.45 Y69.05 E33.4997
G1 X74.88 Y69.04 E33.519
G1 X74.85 Y69.01 E33.5204
G1 X74.35 Y69.08 E33.537
G1 X74.32 Y69.05 E33.5383
G1 X73.74 Y69.04 E33.5576
G1 X73.72 Y69.01 E33.559
G1 X73.22 Y69.08 E33.5756
G1 X73.19 Y69.05 E33.5769
G1 X72.61 Y69.04 E33.5962
G1 X72.58 Y69.01 E33.5976
G1 X72.09 Y69.08 E33.6142
G1 X72.06 Y69.05 E33.6156
G1 X71.48 Y69.04 E33.6348
G1 X71.45 Y69.01 E33.6362
G1 X70.96 Y69.08 E33.6528
G1 X70.93 Y69.05 E33.6542
G1 X70.35 Y69.04 E33.6734
G1 X70.32 Y69.01 E33.6748
G1 X69.83 Y69.08 E33.6914
G1 X69.8 Y69.05 E33.6928
G1 X69.22 Y69.04 E33.712
G1 X69.19 Y69.01 E33.7134
G1 X68.7 Y69.08 E33.73
G1 X68.67 Y69.05 E33.7314
G1 X68.09 Y69.04 E33.7506
G1 X68.06 Y69.01 E33.752
G1 X67.56 Y69.08 E33.7686
G1 X67.54 Y69.05 E33.77
G1 X66.96 Y69.04 E33.7892
G1 X66.93 Y69.01 E33.7906
G1 X66.43 Y69.08 E33.8072
G1 X66.4 Y69.05 E33.8086
G1 X65.82 Y69.04 E33.8278
G1 X65.8 Y69.01 E33.8292
G1 X65.3 Y69.08 E33.8458
G1 X65.27 Y69.05 E33.8472
G1 X64.69 Y69.04 E33.8664
G1 X64.66 Y69.01 E33.8678
G1 X64.17 Y69.08 E33.8844
G1 X64.14 Y69.05 E33.8858
G1 X63.56 Y69.04 E33.905
G1 X63.53 Y69.01 E33.9064
G1 X63.04 Y69.08 E33.923
G1 X63.01 Y69.05 E33.9244
G1 X62.43 Y69.04 E33.9436
G1 X62.4 Y69.01 E33.945
G1 X61.91 Y69.08 E33.9616
G1 X61.88 Y69.05 E33.963
G1 X61.3 Y69.04 E33.9822
G1 X61.27 Y69.01 E33.9836
G1 X60.78 Y69.08 E34.0002
G1 X60.75 Y69.05 E34.0016
G1 X60.17 Y69.04 E34.0208
G1 X60.14 Y69.01 E34.0222
G1 X59.64 Y69.08 E34.0388
G1 X59.62 Y69.05 E34.0402
G1 X59.04 Y69.04 E34.0594
G1 X59.01 Y69.01 E34.0608
G1 X58.51 Y69.08 E34.0774
G1 X58.48 Y69.05 E34.0787
G1 X57.91 Y69.04 E34.098
G1 X57.88 Y69.01 E34.0994
G1 X57.38 Y69.08 E34.116
G1 X57.35 Y69.05 E34.1173
G1 X56.77 Y69.04 E34.1366
G1 X56.75 Y69.01 E34.138
G1 X56.25 Y69.08 E34.1546
G1 X56.22 Y69.05 E34.1559
G1 X55.64 Y69.04 E34.1752
G1 X55.61 Y69.01 E34.1765
G1 X55.12 Y69.08 E34.1932
G1 X55.09 Y69.05 E34.1945
G1 X54.51 Y69.04 E34.2138
G1 X54.48 Y69.01 E34.2151
G1 X53.99 Y69.08 E34.2318
G1 X53.96 Y69.05 E34.2331
G1 X53.38 Y69.04 E34.2524
G1 X53.35 Y69.01 E34.2537
G1 X52.86 Y69.08 E34.2703
G1 X52.83 Y69.05 E34.2717
G1 X52.25 Y69.04 E34.291
G1 X52.22 Y69.01 E34.2923
G1 X51.72 Y69.08 E34.3089
G1 X51.7 Y69.05 E34.3103
G1 X51.12 Y69.04 E34.3296
G1 X51.09 Y69.01 E34.3309
G1 X50.59 Y69.08 E34.3475
G1 X50.57 Y69.05 E34.3488
G1 X49.99 Y69.04 E34.3681
G1 X49.96 Y69.01 E34.3695
G1 X49.46 Y69.08 E34.3861
G1 X49.43 Y69.05 E34.3874
G1 X48.85 Y69.04 E34.4067
G1 X48.83 Y69.01 E34.408
G1 X48.33 Y69.08 E34.4247
G1 X48.3 Y69.05 E34.426
G1 X47.72 Y69.04 E34.4453
G1 X47.69 Y69.01 E34.4466
G1 X47.2 Y69.08 E34.4633
G1 X47.17 Y69.05 E34.4646
G1 X46.59 Y69.04 E34.4839
G1 X46.56 Y69.01 E34.4852
G1 X46.07 Y69.08 E34.5018
G1 X46.04 Y69.05 E34.5032
G1 X45.46 Y69.04 E34.5225
G1 X45.43 Y69.01 E34.5238
G1 X44.94 Y69.08 E34.5404
G1 X44.91 Y69.05 E34.5417
G1 X44.33 Y69.04 E34.561
G1 X44.3 Y69.01 E34.5624
G1 X43.81 Y69.08 E34.579
G1 X43.78 Y69.05 E34.5803
G1 X43.2 Y69.04 E34.5996
G1 X43.17 Y69.01 E34.6009
G1 X42.67 Y69.08 E34.6176
G1 X42.65 Y69.05 E34.6189
G1 X42.07 Y69.04 E34.6382
G1 X42.04 Y69.01 E34.6395
G1 X41.54 Y69.08 E34.6561
G1 X41.51 Y69.05 E34.6575
G1 X40.93 Y69.04 E34.6768
G1 X40.91 Y69.01 E34.6781
G1 X40.41 Y69.08 E34.6947
G1 X40.38 Y69.05 E34.696
G1 X39.8 Y69.04 E34.7153
G1 X39.77 Y69.01 E34.7166
G1 X39.28 Y69.08 E34.7333
G1 X39.25 Y69.05 E34.7346
G1 X38.67 Y69.04 E34.7539
G1 X38.64 Y69.01 E34.7552
G1 X38.15 Y69.08 E34.7719
G1 X38.12 Y69.05 E34.7732
G1 X37.54 Y69.04 E34.7925
G1 X37.51 Y69.01 E34.7938
G1 X37.02 Y69.08 E34.8104
G1 X36.99 Y69.05 E34.8117
G1 X36.41 Y69.04 E34.831
G1 X36.38 Y69.01 E34.8323
G1 X35.89 Y69.08 E34.849
G1 X35.86 Y69.05 E34.8503
G1 X35.28 Y69.04 E34.8696
G1 X35.25 Y69.01 E34.8709
G1 X34.75 Y69.08 E34.8876
G1 X34.73 Y69.05 E34.8889
G1 X34.15 Y69.04 E34.9082
G1 X34.12 Y69.01 E34.9095
G1 X33.62 Y69.08 E34.9261
G1 X33.59 Y69.05 E34.9274
G1 X33.01 Y69.04 E34.9467
G1 X32.99 Y69.01 E34.948
G1 X32.49 Y69.08 E34.9647
G1 X32.46 Y69.05 E34.966
G1 X31.88 Y69.04 E34.9853
G1 X31.86 Y69.01 E34.9866
G1 X31.36 Y69.08 E35.0032
G1 X31.33 Y69.05 E35.0045
G1 X30.75 Y69.04 E35.0239
G1 X30.72 Y69.01 E35.0252
G1 X30.23 Y69.08 E35.0418
G1 X30.2 Y69.05 E35.0431
G1 X29.62 Y69.04 E35.0624
G1 X29.59 Y69.01 E35.0637
G1 X29.1 Y69.08 E35.0804
G1 X29.07 Y69.05 E35.0817
G1 X28.49 Y69.04 E35.101
G1 X28.46 Y69.01 E35.1023
G1 X27.97 Y69.08 E35.1189
G1 X27.94 Y69.05 E35.1202
G1 X27.36 Y69.04 E35.1395
G1 X27.33 Y69.01 E35.1408
G1 X26.83 Y69.08 E35.1575
G1 X26.81 Y69.05 E35.1588
G1 X26.23 Y69.04 E35.1781
G1 X26.2 Y69.01 E35.1794
G1 X25.7 Y69.08 E35.196
G1 X25.68 Y69.05 E35.1973
G1 X25.09 Y69.04 E35.2166
G1 X25.07 Y69.01 E35.2179
G1 X24.57 Y69.08 E35.2346
G1 X24.54 Y69.05 E35.2359
G1 X23.96 Y69.04 E35.2552
G1 X23.94 Y69.01 E35.2565
G1 X23.44 Y69.08 E35.2731
G1 X23.41 Y69.05 E35.2744
G1 X22.83 Y69.04 E35.2937
G1 X22.8 Y69.01 E35.295
G1 X22.31 Y69.08 E35.3117
G1 X22.28 Y69.05 E35.313
G1 X21.7 Y69.04 E35.3323
G1 X21.67 Y69.01 E35.3336
G1 X21.18 Y69.08 E35.3502
G1 X21.15 Y69.05 E35.3515
G1 X20.57 Y69.04 E35.3708
G1 X20.54 Y69.01 E35.3721
G1 X20.05 Y69.08 E35.3888
G1 X20.02 Y69.05 E35.3901
G1 X19.44 Y69.04 E35.4094
G1 X19.41 Y69.01 E35.4107
G1 X18.91 Y69.08 E35.4273
G1 X18.89 Y69.05 E35.4286
G1 X18.31 Y69.04 E35.4479
G1 X18.28 Y69.01 E35.4492
G1 X17.78 Y69.08 E35.4659
G1 X17.76 Y69.05 E35.4671
G1 X17.17 Y69.04 E35.4865
G1 X17.15 Y69.01 E35.4877
G1 X16.65 Y69.08 E35.5044
G1 X16.62 Y69.05 E35.5057
G1 X16.04 Y69.04 E35.525
G1 X16.02 Y69.01 E35.5263
G1 X15.52 Y69.08 E35.543
G1 X15.49 Y69.05 E35.5442
G1 X14.91 Y69.04 E35.5636
G1 X14.89 Y69.01 E35.5648
G1 X14.39 Y69.08 E35.5815
G1 X14.36 Y69.05 E35.5828
G1 X13.78 Y69.04 E35.6021
G1 X13.75 Y69.01 E35.6034
G1 X13.26 Y69.08 E35.62
G1 X13.23 Y69.05 E35.6213
G1 X12.65 Y69.04 E35.6406
G1 X12.62 Y69.01 E35.6419
G1 X12.13 Y69.08 E35.6586
G1 X12.1 Y69.05 E35.6598
G1 X11.52 Y69.04 E35.6792
G1 X11.49 Y69.01 E35.6804
G1 X10.99 Y69.08 E35.6971
G1 X10.97 Y69.05 E35.6984
G1 X10.39 Y69.04 E35.7177
G1 X10.36 Y69.01 E35.719
G1 X9.86 Y69.08 E35.7356
G1 X9.84 Y69.05 E35.7369
;
; 'Solid', 63.9 [RPM], 40.0 [mm/s]
G1 F9000
G1 X8.42 Y69.33 E35.7369
G1 F2400
G1 X8.48 Y68.83 E35.7538
G1 X8.9 Y69.25 E35.7735
G1 X9.3 Y69.08 E35.788
G1 X8.42 Y68.2 E35.8294
;
; 'Wipe', 0.0 [RPM], 40.0 [mm/s]
G1 F210
G1 X8.42 Y68.2 Z0.85 E35.8294
; END_LAYER_OBJECT z=0.40
; Reset extruder pos
G92 E0
; BEGIN_LAYER_OBJECT z=0.60
; fan on
M106
;
; 'Loop', 53.3 [RPM], 33.4 [mm/s]
G1 F9000
G1 X77 Y87.95 E0
G1 F210
G1 X77 Y87.95 Z0.6 E0
G1 F2004.6
G1 X75.12 Y89.83 E0.0887
G1 X74.98 Y89.88 E0.0936
G1 X57.27 Y89.88 E0.6827
G1 X57.12 Y89.84 E0.6878
G1 X57.12 Y89.18 E0.7099
G1 X57.24 Y89.11 E0.7146
G1 X74.4 Y89.11 E1.2853
G1 X74.73 Y89.06 E1.2962
G1 X74.96 Y88.92 E1.3053
G1 X90.89 Y72.98 E2.0548
G1 X91.04 Y72.75 E2.0639
G1 X91.12 Y72.43 E2.0748
G1 X91.12 Y70 E2.1556
G1 X91.08 Y69.83 E2.1616
G1 X90.94 Y69.6 E2.1707
G1 X90.71 Y69.45 E2.1798
G1 X90.31 Y69.38 E2.1933
G1 X9.7 Y69.38 E4.8744
G1 X9.29 Y69.45 E4.888
G1 X9.06 Y69.6 E4.8971
G1 X8.92 Y69.83 E4.9062
G1 X8.88 Y70.01 E4.9122
G1 X8.88 Y72.62 E4.9992
G1 X8.92 Y72.8 E5.0053
G1 X9.06 Y73.03 E5.0144
G1 X9.12 Y73.16 E5.0192
G1 X24.86 Y88.91 E5.7598
G1 X25.09 Y89.05 E5.7689
G1 X25.41 Y89.11 E5.7796
G1 X32.77 Y89.11 E6.0242
G1 X32.88 Y89.19 E6.0287
G1 X32.88 Y89.27 E6.0314
G1 X32.79 Y89.56 E6.0415
G1 X32.79 Y89.74 E6.0478
G1 X32.74 Y89.88 E6.0526
G1 X24.84 Y89.88 E6.3155
G1 X24.7 Y89.82 E6.3203
G1 X8.2 Y73.32 E7.0963
G1 X8.12 Y73.18 E7.102
G1 X8.12 Y45.32 E8.0287
G1 X8.12 Y30.19 E8.5319
G1 X8.24 Y30.12 E8.5365
G1 X8.8 Y30.12 E8.5552
G1 X8.88 Y30.22 E8.5596
G1 X8.88 Y67.91 E9.8132
G1 X8.92 Y68.09 E9.8192
G1 X9.05 Y68.33 E9.8285
G1 X9.24 Y68.52 E9.8373
G1 X9.37 Y68.58 E9.8422
G1 X9.59 Y68.62 E9.8496
G1 X62.58 Y68.62 E11.612
G1 X90.41 Y68.62 E12.5377
G1 X90.64 Y68.58 E12.5454
G1 X90.87 Y68.44 E12.5545
G1 X91.04 Y68.17 E12.5651
G1 X91.12 Y67.91 E12.5742
G1 X91.12 Y65.83 E12.6432
G1 X91.12 Y30.22 E13.8277
G1 X91.2 Y30.12 E13.8321
G1 X91.76 Y30.12 E13.8507
G1 X91.88 Y30.18 E13.8553
G1 X91.88 Y73.03 E15.2805
G1 X91.81 Y73.14 E15.285
G1 X77 Y87.95 E15.9812
;
; 'Perimeter', 27.9 [RPM], 17.5 [mm/s]
G1 F9000
G1 X75.25 Y90 E15.9812
G1 F1050
G1 X75.34 Y90.24 E15.9898
G1 X75.19 Y90.28 E15.9949
G1 X56.86 Y90.28 E16.6045
G1 X56.72 Y90.24 E16.6096
G1 X56.72 Y88.78 E16.6583
G1 X56.84 Y88.71 E16.6629
G1 X74.38 Y88.71 E17.2462
G1 X74.55 Y88.69 E17.2519
G1 X74.68 Y88.63 E17.2566
G1 X90.61 Y72.7 E18.0061
G1 X90.72 Y72.43 E18.0158
G1 X90.72 Y70.01 E18.0963
G1 X90.66 Y69.88 E18.1011
G1 X90.33 Y69.78 E18.1124
G1 X9.67 Y69.78 E20.795
G1 X9.47 Y69.82 E20.8018
G1 X9.34 Y69.88 E20.8065
G1 X9.28 Y70.01 E20.8112
G1 X9.28 Y72.62 E20.8981
G1 X9.4 Y72.88 E20.9076
G1 X25.15 Y88.63 E21.6482
G1 X25.44 Y88.71 E21.6583
G1 X26.38 Y88.71 E21.6897
G1 X33.17 Y88.71 E21.9154
G1 X33.28 Y88.78 E21.92
G1 X33.28 Y89.29 E21.9369
G1 X33.19 Y89.58 E21.9469
G1 X33.19 Y90.14 E21.9657
G1 X33.1 Y90.24 E21.9701
G1 X32.92 Y90.28 E21.9763
G1 X24.66 Y90.28 E22.251
G1 X24.51 Y90.2 E22.2565
G1 X7.83 Y73.51 E23.0415
G1 X7.72 Y73.35 E23.0481
G1 X7.71 Y73.25 E23.0513
G1 X7.71 Y41.19 E24.1175
G1 X7.71 Y29.78 E24.497
G1 X7.83 Y29.71 E24.5015
G1 X9.2 Y29.71 E24.5471
G1 X9.28 Y29.82 E24.5515
G1 X9.28 Y67.91 E25.8184
G1 X9.41 Y68.15 E25.8277
G1 X9.57 Y68.22 E25.8331
G1 X90.43 Y68.22 E28.5228
G1 X90.59 Y68.15 E28.5283
G1 X90.72 Y67.9 E28.5376
G1 X90.72 Y29.82 E29.8044
G1 X90.8 Y29.71 E29.8089
G1 X92.17 Y29.71 E29.8543
G1 X92.29 Y29.78 E29.8589
G1 X92.29 Y73.25 E31.3046
G1 X92.09 Y73.43 E31.3134
G1 X75.4 Y90.11 E32.0984
G1 X75.34 Y90.24 E32.1031
G1 X75.12 Y90.12 E32.1117
; fan off
M107
;
; 'Solid', 63.9 [RPM], 40.0 [mm/s]
G1 F9000
G1 X74.77 Y89.54 E32.1117
G1 F2400
G1 X91.54 Y72.77 E32.9004
;
; 'Solid', 63.9 [RPM], 40.0 [mm/s]
G1 F9000
G1 X91.55 Y69.36 E32.9004
G1 F2400
G1 X91.52 Y68.83 E32.9182
G1 X91.1 Y69.24 E32.9379
G1 X90.7 Y69.08 E32.9523
G1 X91.54 Y68.24 E32.9917
;
; 'Wipe', 0.0 [RPM], 40.0 [mm/s]
;
; 'Solid', 63.9 [RPM], 40.0 [mm/s]
G1 F9000
G1 X9.09 Y69.23 E32.9917
G1 F2400
G1 X9.33 Y68.99 E33.0031
G1 X8.98 Y68.78 E33.0168
G1 X8.48 Y69.28 E33.0402
G1 X8.48 Y68.71 E33.059
G1 X8.72 Y68.48 E33.0701
G1 X8.43 Y68.2 E33.0834
;
; 'Wipe', 0.0 [RPM], 40.0 [mm/s]
G1 F210
G1 X8.43 Y68.2 Z1.05 E33.0834
; END_LAYER_OBJECT z=0.60
; Reset extruder pos
G92 E0
; BEGIN_LAYER_OBJECT z=0.80
; fan on
M106
;
; 'Loop', 53.3 [RPM], 33.4 [mm/s]
G1 F9000
G1 X77 Y87.95 E0
G1 F210
G1 X77 Y87.95 Z0.8 E0
G1 F2004.6
G1 X75.12 Y89.83 E0.0887
G1 X74.98 Y89.88 E0.0936
G1 X57.27 Y89.88 E0.6827
G1 X57.12 Y89.84 E0.6878
G1 X57.12 Y89.18 E0.7099
G1 X57.24 Y89.11 E0.7146
G1 X74.4 Y89.11 E1.2853
G1 X74.73 Y89.06 E1.2962
G1 X74.96 Y88.92 E1.3053
G1 X90.89 Y72.98 E2.0548
G1 X91.04 Y72.75 E2.0639
G1 X91.12 Y72.43 E2.0748
G1 X91.12 Y70 E2.1556
G1 X91.08 Y69.83 E2.1616
G1 X90.94 Y69.6 E2.1707
G1 X90.71 Y69.45 E2.1798
G1 X90.31 Y69.38 E2.1933
G1 X9.7 Y69.38 E4.8744
G1 X9.29 Y69.45 E4.888
G1 X9.06 Y69.6 E4.8971
G1 X8.92 Y69.83 E4.9062
G1 X8.88 Y70.01 E4.9122
G1 X8.88 Y72.62 E4.9992
G1 X8.92 Y72.8 E5.0053
G1 X9.06 Y73.03 E5.0144
G1 X9.12 Y73.16 E5.0192
G1 X24.86 Y88.91 E5.7598
G1 X25.09 Y89.05 E5.7689
G1 X25.41 Y89.11 E5.7796
G1 X32.01 Y89.11 E5.9991
G1 X32.24 Y89.27 E6.0081
G1 X32.38 Y89.5 E6.0172
G1 X32.38 Y89.71 E6.0242
G1 X32.36 Y89.88 E6.0298
G1 X24.84 Y89.88 E6.2802
G1 X24.7 Y89.82 E6.285
G1 X8.2 Y73.32 E7.061
G1 X8.12 Y73.18 E7.0667
G1 X8.12 Y45.32 E7.9934
G1 X8.12 Y30.19 E8.4966
G1 X8.24 Y30.12 E8.5012
G1 X8.8 Y30.12 E8.5199
G1 X8.88 Y30.22 E8.5243
G1 X8.88 Y67.91 E9.7778
G1 X8.92 Y68.09 E9.7839
G1 X9.05 Y68.33 E9.7931
G1 X9.24 Y68.52 E9.802
G1 X9.37 Y68.58 E9.8069
G1 X9.59 Y68.62 E9.8143
G1 X90.22 Y68.62 E12.4961
G1 X90.48 Y68.61 E12.5048
G1 X90.64 Y68.58 E12.5101
G1 X90.87 Y68.44 E12.5192
G1 X91.04 Y68.17 E12.5298
G1 X91.12 Y67.91 E12.5389
G1 X91.12 Y34.91 E13.6364
G1 X91.12 Y30.22 E13.7924
G1 X91.2 Y30.12 E13.7969
G1 X91.76 Y30.12 E13.8154
G1 X91.88 Y30.18 E13.82
G1 X91.88 Y73.03 E15.2452
G1 X91.81 Y73.14 E15.2497
G1 X77 Y87.95 E15.9459
;
; 'Perimeter', 27.9 [RPM], 17.5 [mm/s]
G1 F9000
G1 X75.25 Y90 E15.9459
G1 F1050
G1 X75.34 Y90.24 E15.9545
G1 X75.19 Y90.28 E15.9596
G1 X56.86 Y90.28 E16.5692
G1 X56.72 Y90.24 E16.5743
G1 X56.72 Y88.78 E16.623
G1 X56.84 Y88.71 E16.6277
G1 X74.38 Y88.71 E17.2109
G1 X74.55 Y88.69 E17.2166
G1 X74.68 Y88.63 E17.2213
G1 X90.61 Y72.7 E17.9708
G1 X90.72 Y72.43 E17.9805
G1 X90.72 Y70.01 E18.061
G1 X90.66 Y69.88 E18.0658
G1 X90.33 Y69.78 E18.0771
G1 X9.67 Y69.78 E20.7598
G1 X9.47 Y69.82 E20.7665
G1 X9.34 Y69.88 E20.7712
G1 X9.28 Y70.01 E20.7759
G1 X9.28 Y72.62 E20.8628
G1 X9.4 Y72.88 E20.8723
G1 X25.15 Y88.63 E21.6129
G1 X25.44 Y88.71 E21.623
G1 X26.38 Y88.71 E21.6544
G1 X33.17 Y88.71 E21.8802
G1 X33.28 Y88.78 E21.8847
G1 X33.27 Y89.28 E21.9013
G1 X33.09 Y89.28 E21.9076
G1 X32.84 Y89.42 E21.9168
G1 X32.79 Y89.55 E21.9215
G1 X32.79 Y90.11 E21.9403
G1 X32.77 Y90.28 E21.946
G1 X24.66 Y90.28 E22.2157
G1 X24.51 Y90.2 E22.2212
G1 X7.83 Y73.51 E23.0061
G1 X7.72 Y73.35 E23.0127
G1 X7.71 Y73.25 E23.016
G1 X7.71 Y29.78 E24.4616
G1 X7.83 Y29.71 E24.4662
G1 X9.2 Y29.71 E24.5117
G1 X9.28 Y29.82 E24.5161
G1 X9.28 Y67.91 E25.783
G1 X9.41 Y68.15 E25.7923
G1 X9.57 Y68.22 E25.7978
G1 X90.43 Y68.22 E28.4874
G1 X90.59 Y68.15 E28.4929
G1 X90.72 Y67.9 E28.5022
G1 X90.72 Y29.82 E29.7691
G1 X90.8 Y29.71 E29.7735
G1 X92.17 Y29.71 E29.8189
G1 X92.29 Y29.78 E29.8235
G1 X92.29 Y73.25 E31.2692
G1 X92.09 Y73.43 E31.278
G1 X75.4 Y90.11 E32.063
G1 X75.34 Y90.24 E32.0677
G1 X75.12 Y90.12 E32.0763
; fan off
M107
;
; 'Solid', 63.9 [RPM], 40.0 [mm/s]
G1 F9000
G1 X74.92 Y89.45 E32.0763
G1 F2400
G1 X74.86 Y89.39 E32.0791
G1 X91.58 Y72.73 E32.864
;
; 'Solid', 63.9 [RPM], 40.0 [mm/s]
G1 F9000
G1 X90.87 Y69.19 E32.864
G1 F2400
G1 X90.67 Y68.99 E32.8735
G1 X91.02 Y68.78 E32.8872
G1 X91.52 Y69.28 E32.9105
G1 X91.52 Y68.71 E32.9293
G1 X91.29 Y68.48 E32.9404
G1 X91.58 Y68.2 E32.9537
;
; 'Solid', 63.9 [RPM], 40.0 [mm/s]
G1 F9000
G1 X90.19 Y69.08 E32.9537
G1 F2400
G1 X90.16 Y69.05 E32.9551
G1 X89.58 Y69.04 E32.9743
G1 X89.55 Y69.01 E32.9757
G1 X89.06 Y69.08 E32.9923
G1 X89.03 Y69.05 E32.9937
G1 X88.45 Y69.04 E33.013
G1 X88.42 Y69.01 E33.0144
G1 X87.93 Y69.08 E33.031
G1 X87.9 Y69.05 E33.0324
G1 X87.32 Y69.04 E33.0516
G1 X87.29 Y69.01 E33.053
G1 X86.8 Y69.08 E33.0696
G1 X86.77 Y69.05 E33.071
G1 X86.19 Y69.04 E33.0902
G1 X86.16 Y69.01 E33.0916
G1 X85.67 Y69.08 E33.1082
G1 X85.64 Y69.05 E33.1096
G1 X85.06 Y69.04 E33.1288
G1 X85.03 Y69.01 E33.1302
G1 X84.54 Y69.08 E33.1468
G1 X84.51 Y69.05 E33.1482
G1 X83.93 Y69.04 E33.1675
G1 X83.9 Y69.01 E33.1689
G1 X83.4 Y69.08 E33.1855
G1 X83.37 Y69.05 E33.1868
G1 X82.8 Y69.04 E33.2061
G1 X82.77 Y69.01 E33.2075
G1 X82.27 Y69.08 E33.2241
G1 X82.24 Y69.05 E33.2255
G1 X81.66 Y69.04 E33.2447
G1 X81.63 Y69.01 E33.2461
G1 X81.14 Y69.08 E33.2627
G1 X81.11 Y69.05 E33.2641
G1 X80.53 Y69.04 E33.2833
G1 X80.5 Y69.01 E33.2847
G1 X80.01 Y69.08 E33.3013
G1 X79.98 Y69.05 E33.3027
G1 X79.4 Y69.04 E33.322
G1 X79.37 Y69.01 E33.3233
G1 X78.88 Y69.08 E33.3399
G1 X78.85 Y69.05 E33.3413
G1 X78.27 Y69.04 E33.3606
G1 X78.24 Y69.01 E33.362
G1 X77.75 Y69.08 E33.3786
G1 X77.72 Y69.05 E33.3799
G1 X77.14 Y69.04 E33.3992
G1 X77.11 Y69.01 E33.4006
G1 X76.62 Y69.08 E33.4172
G1 X76.59 Y69.05 E33.4185
G1 X76.01 Y69.04 E33.4378
G1 X75.98 Y69.01 E33.4392
G1 X75.48 Y69.08 E33.4558
G1 X75.45 Y69.05 E33.4572
G1 X74.88 Y69.04 E33.4764
G1 X74.85 Y69.01 E33.4778
G1 X74.35 Y69.08 E33.4944
G1 X74.32 Y69.05 E33.4958
G1 X73.74 Y69.04 E33.515
G1 X73.72 Y69.01 E33.5164
G1 X73.22 Y69.08 E33.533
G1 X73.19 Y69.05 E33.5344
G1 X72.61 Y69.04 E33.5536
G1 X72.58 Y69.01 E33.555
G1 X72.09 Y69.08 E33.5716
G1 X72.06 Y69.05 E33.573
G1 X71.48 Y69.04 E33.5922
G1 X71.45 Y69.01 E33.5936
G1 X70.96 Y69.08 E33.6102
G1 X70.93 Y69.05 E33.6116
G1 X70.35 Y69.04 E33.6309
G1 X70.32 Y69.01 E33.6322
G1 X69.83 Y69.08 E33.6488
G1 X69.8 Y69.05 E33.6502
G1 X69.22 Y69.04 E33.6695
G1 X69.19 Y69.01 E33.6708
G1 X68.7 Y69.08 E33.6874
G1 X68.67 Y69.05 E33.6888
G1 X68.09 Y69.04 E33.7081
G1 X68.06 Y69.01 E33.7094
G1 X67.56 Y69.08 E33.726
G1 X67.54 Y69.05 E33.7274
G1 X66.96 Y69.04 E33.7467
G1 X66.93 Y69.01 E33.748
G1 X66.43 Y69.08 E33.7646
G1 X66.4 Y69.05 E33.766
G1 X65.82 Y69.04 E33.7853
G1 X65.8 Y69.01 E33.7866
G1 X65.3 Y69.08 E33.8032
G1 X65.27 Y69.05 E33.8046
G1 X64.69 Y69.04 E33.8239
G1 X64.66 Y69.01 E33.8252
G1 X64.17 Y69.08 E33.8418
G1 X64.14 Y69.05 E33.8432
G1 X63.56 Y69.04 E33.8625
G1 X63.53 Y69.01 E33.8638
G1 X63.04 Y69.08 E33.8804
G1 X63.01 Y69.05 E33.8818
G1 X62.43 Y69.04 E33.9011
G1 X62.4 Y69.01 E33.9024
G1 X61.91 Y69.08 E33.919
G1 X61.88 Y69.05 E33.9204
G1 X61.3 Y69.04 E33.9397
G1 X61.27 Y69.01 E33.941
G1 X60.78 Y69.08 E33.9576
G1 X60.75 Y69.05 E33.959
G1 X60.17 Y69.04 E33.9783
G1 X60.14 Y69.01 E33.9796
G1 X59.64 Y69.08 E33.9962
G1 X59.62 Y69.05 E33.9976
G1 X59.04 Y69.04 E34.0169
G1 X59.01 Y69.01 E34.0182
G1 X58.51 Y69.08 E34.0348
G1 X58.48 Y69.05 E34.0362
G1 X57.91 Y69.04 E34.0555
G1 X57.88 Y69.01 E34.0568
G1 X57.38 Y69.08 E34.0734
G1 X57.35 Y69.05 E34.0748
G1 X56.77 Y69.04 E34.094
G1 X56.75 Y69.01 E34.0954
G1 X56.25 Y69.08 E34.112
G1 X56.22 Y69.05 E34.1134
G1 X55.64 Y69.04 E34.1326
G1 X55.61 Y69.01 E34.134
G1 X55.12 Y69.08 E34.1506
G1 X55.09 Y69.05 E34.1519
G1 X54.51 Y69.04 E34.1712
G1 X54.48 Y69.01 E34.1726
G1 X53.99 Y69.08 E34.1892
G1 X53.96 Y69.05 E34.1905
G1 X53.38 Y69.04 E34.2098
G1 X53.35 Y69.01 E34.2112
G1 X52.86 Y69.08 E34.2278
G1 X52.83 Y69.05 E34.2291
G1 X52.25 Y69.04 E34.2484
G1 X52.22 Y69.01 E34.2497
G1 X51.72 Y69.08 E34.2664
G1 X51.7 Y69.05 E34.2677
G1 X51.12 Y69.04 E34.287
G1 X51.09 Y69.01 E34.2883
G1 X50.59 Y69.08 E34.3049
G1 X50.57 Y69.05 E34.3063
G1 X49.99 Y69.04 E34.3256
G1 X49.96 Y69.01 E34.3269
G1 X49.46 Y69.08 E34.3435
G1 X49.43 Y69.05 E34.3449
G1 X48.85 Y69.04 E34.3642
G1 X48.83 Y69.01 E34.3655
G1 X48.33 Y69.08 E34.3821
G1 X48.3 Y69.05 E34.3834
G1 X47.72 Y69.04 E34.4027
G1 X47.69 Y69.01 E34.4041
G1 X47.2 Y69.08 E34.4207
G1 X47.17 Y69.05 E34.422
G1 X46.59 Y69.04 E34.4413
G1 X46.56 Y69.01 E34.4426
G1 X46.07 Y69.08 E34.4593
G1 X46.04 Y69.05 E34.4606
G1 X45.46 Y69.04 E34.4799
G1 X45.43 Y69.01 E34.4812
G1 X44.94 Y69.08 E34.4978
G1 X44.91 Y69.05 E34.4992
G1 X44.33 Y69.04 E34.5185
G1 X44.3 Y69.01 E34.5198
G1 X43.81 Y69.08 E34.5364
G1 X43.78 Y69.05 E34.5377
G1 X43.2 Y69.04 E34.557
G1 X43.17 Y69.01 E34.5584
G1 X42.67 Y69.08 E34.575
G1 X42.65 Y69.05 E34.5763
G1 X42.07 Y69.04 E34.5956
G1 X42.04 Y69.01 E34.5969
G1 X41.54 Y69.08 E34.6136
G1 X41.51 Y69.05 E34.6149
G1 X40.93 Y69.04 E34.6342
G1 X40.91 Y69.01 E34.6355
G1 X40.41 Y69.08 E34.6521
G1 X40.38 Y69.05 E34.6535
G1 X39.8 Y69.04 E34.6728
G1 X39.77 Y69.01 E34.6741
G1 X39.28 Y69.08 E34.6907
G1 X39.25 Y69.05 E34.692
G1 X38.67 Y69.04 E34.7113
G1 X38.64 Y69.01 E34.7126
G1 X38.15 Y69.08 E34.7293
G1 X38.12 Y69.05 E34.7306
G1 X37.54 Y69.04 E34.7499
G1 X37.51 Y69.01 E34.7512
G1 X37.02 Y69.08 E34.7678
G1 X36.99 Y69.05 E34.7692
G1 X36.41 Y69.04 E34.7885
G1 X36.38 Y69.01 E34.7898
G1 X35.89 Y69.08 E34.8064
G1 X35.86 Y69.05 E34.8077
G1 X35.28 Y69.04 E34.827
G1 X35.25 Y69.01 E34.8283
G1 X34.75 Y69.08 E34.845
G1 X34.73 Y69.05 E34.8463
G1 X34.15 Y69.04 E34.8656
G1 X34.12 Y69.01 E34.8669
G1 X33.62 Y69.08 E34.8835
G1 X33.59 Y69.05 E34.8848
G1 X33.01 Y69.04 E34.9042
G1 X32.99 Y69.01 E34.9055
G1 X32.49 Y69.08 E34.9221
G1 X32.46 Y69.05 E34.9234
G1 X31.88 Y69.04 E34.9427
G1 X31.86 Y69.01 E34.944
G1 X31.36 Y69.08 E34.9607
G1 X31.33 Y69.05 E34.962
G1 X30.75 Y69.04 E34.9813
G1 X30.72 Y69.01 E34.9826
G1 X30.23 Y69.08 E34.9992
G1 X30.2 Y69.05 E35.0005
G1 X29.62 Y69.04 E35.0198
G1 X29.59 Y69.01 E35.0211
G1 X29.1 Y69.08 E35.0378
G1 X29.07 Y69.05 E35.0391
G1 X28.49 Y69.04 E35.0584
G1 X28.46 Y69.01 E35.0597
G1 X27.97 Y69.08 E35.0763
G1 X27.94 Y69.05 E35.0776
G1 X27.36 Y69.04 E35.097
G1 X27.33 Y69.01 E35.0982
G1 X26.83 Y69.08 E35.1149
G1 X26.81 Y69.05 E35.1162
G1 X26.23 Y69.04 E35.1355
G1 X26.2 Y69.01 E35.1368
G1 X25.7 Y69.08 E35.1535
G1 X25.68 Y69.05 E35.1547
G1 X25.09 Y69.04 E35.1741
G1 X25.07 Y69.01 E35.1754
G1 X24.57 Y69.08 E35.192
G1 X24.54 Y69.05 E35.1933
G1 X23.96 Y69.04 E35.2126
G1 X23.94 Y69.01 E35.2139
G1 X23.44 Y69.08 E35.2306
G1 X23.41 Y69.05 E35.2318
G1 X22.83 Y69.04 E35.2512
G1 X22.8 Y69.01 E35.2525
G1 X22.31 Y69.08 E35.2691
G1 X22.28 Y69.05 E35.2704
G1 X21.7 Y69.04 E35.2897
G1 X21.67 Y69.01 E35.291
G1 X21.18 Y69.08 E35.3077
G1 X21.15 Y69.05 E35.3089
G1 X20.57 Y69.04 E35.3283
G1 X20.54 Y69.01 E35.3295
G1 X20.05 Y69.08 E35.3462
G1 X20.02 Y69.05 E35.3475
G1 X19.44 Y69.04 E35.3668
G1 X19.41 Y69.01 E35.3681
G1 X18.91 Y69.08 E35.3848
G1 X18.89 Y69.05 E35.386
G1 X18.31 Y69.04 E35.4054
G1 X18.28 Y69.01 E35.4066
G1 X17.78 Y69.08 E35.4233
G1 X17.76 Y69.05 E35.4246
G1 X17.17 Y69.04 E35.4439
G1 X17.15 Y69.01 E35.4452
G1 X16.65 Y69.08 E35.4618
G1 X16.62 Y69.05 E35.4631
G1 X16.04 Y69.04 E35.4824
G1 X16.02 Y69.01 E35.4837
G1 X15.52 Y69.08 E35.5004
G1 X15.49 Y69.05 E35.5017
G1 X14.91 Y69.04 E35.521
G1 X14.89 Y69.01 E35.5223
G1 X14.39 Y69.08 E35.5389
G1 X14.36 Y69.05 E35.5402
G1 X13.78 Y69.04 E35.5595
G1 X13.75 Y69.01 E35.5608
G1 X13.26 Y69.08 E35.5775
G1 X13.23 Y69.05 E35.5787
G1 X12.65 Y69.04 E35.5981
G1 X12.62 Y69.01 E35.5993
G1 X12.13 Y69.08 E35.616
G1 X12.1 Y69.05 E35.6173
G1 X11.52 Y69.04 E35.6366
G1 X11.49 Y69.01 E35.6379
G1 X10.99 Y69.08 E35.6545
G1 X10.97 Y69.05 E35.6558
G1 X10.39 Y69.04 E35.6751
G1 X10.36 Y69.01 E35.6764
G1 X9.86 Y69.08 E35.6931
G1 X9.84 Y69.05 E35.6943
;
; 'Solid', 63.9 [RPM], 40.0 [mm/s]
G1 F9000
G1 X8.42 Y69.33 E35.6943
G1 F2400
G1 X8.48 Y68.83 E35.7113
G1 X8.9 Y69.25 E35.731
G1 X9.3 Y69.08 E35.7454
G1 X8.42 Y68.2 E35.7868
;
; 'Wipe', 0.0 [RPM], 40.0 [mm/s]
G1 F210
G1 X8.42 Y68.2 Z1.25 E35.7868
; END_LAYER_OBJECT z=0.80
; Reset extruder pos
G92 E0
; BEGIN_LAYER_OBJECT z=1.00
; fan on
M106
;
; 'Loop', 53.3 [RPM], 33.4 [mm/s]
G1 F9000
G1 X77 Y87.95 E0
G1 F210
G1 X77 Y87.95 Z1 E0
G1 F2004.6
G1 X75.12 Y89.83 E0.0887
G1 X74.98 Y89.88 E0.0936
G1 X57.27 Y89.88 E0.6827
G1 X57.12 Y89.84 E0.6878
G1 X57.12 Y89.18 E0.7099
G1 X57.24 Y89.11 E0.7146
G1 X74.4 Y89.11 E1.2853
G1 X74.73 Y89.06 E1.2962
G1 X74.96 Y88.92 E1.3053
G1 X90.89 Y72.98 E2.0548
G1 X91.04 Y72.75 E2.0639
G1 X91.12 Y72.43 E2.0748
G1 X91.12 Y70 E2.1556
G1 X91.08 Y69.83 E2.1616
G1 X90.94 Y69.6 E2.1707
G1 X90.71 Y69.45 E2.1798
G1 X90.31 Y69.38 E2.1933
G1 X9.7 Y69.38 E4.8744
G1 X9.29 Y69.45 E4.888
G1 X9.06 Y69.6 E4.8971
G1 X8.92 Y69.83 E4.9062
G1 X8.88 Y70.01 E4.9122
G1 X8.88 Y72.62 E4.9992
G1 X8.92 Y72.8 E5.0053
G1 X9.06 Y73.03 E5.0144
G1 X9.12 Y73.16 E5.0192
G1 X24.86 Y88.91 E5.7598
G1 X25.09 Y89.05 E5.7689
G1 X25.41 Y89.11 E5.7796
G1 X32.01 Y89.11 E5.9991
G1 X32.24 Y89.27 E6.0081
G1 X32.38 Y89.5 E6.0172
G1 X32.38 Y89.71 E6.0242
G1 X32.36 Y89.88 E6.0298
G1 X24.84 Y89.88 E6.2802
G1 X24.7 Y89.82 E6.285
G1 X8.2 Y73.32 E7.061
G1 X8.12 Y73.18 E7.0667
G1 X8.12 Y58.47 E7.5559
G1 X8.12 Y30.19 E8.4966
G1 X8.24 Y30.12 E8.5012
G1 X8.8 Y30.12 E8.5199
G1 X8.88 Y30.22 E8.5243
G1 X8.88 Y67.91 E9.7778
G1 X8.92 Y68.09 E9.7839
G1 X9.05 Y68.33 E9.7931
G1 X9.24 Y68.52 E9.802
G1 X9.37 Y68.58 E9.8069
G1 X9.59 Y68.62 E9.8143
G1 X62.58 Y68.62 E11.5767
G1 X90.41 Y68.62 E12.5024
G1 X90.64 Y68.58 E12.5101
G1 X90.87 Y68.44 E12.5192
G1 X91.04 Y68.17 E12.5297
G1 X91.12 Y67.91 E12.5389
G1 X91.12 Y34.91 E13.6364
G1 X91.12 Y30.22 E13.7924
G1 X91.2 Y30.12 E13.7968
G1 X91.76 Y30.12 E13.8154
G1 X91.88 Y30.18 E13.82
G1 X91.88 Y73.03 E15.2452
G1 X91.81 Y73.14 E15.2497
G1 X77 Y87.95 E15.9459
;
; 'Perimeter', 27.9 [RPM], 17.5 [mm/s]
G1 F9000
G1 X75.25 Y90 E15.9459
G1 F1050
G1 X75.34 Y90.24 E15.9545
G1 X75.19 Y90.28 E15.9596
G1 X56.86 Y90.28 E16.5692
G1 X56.72 Y90.24 E16.5743
G1 X56.72 Y88.78 E16.623
G1 X56.84 Y88.71 E16.6276
G1 X74.38 Y88.71 E17.2109
G1 X74.55 Y88.69 E17.2166
G1 X74.68 Y88.63 E17.2213
G1 X90.61 Y72.7 E17.9708
G1 X90.72 Y72.43 E17.9804
G1 X90.72 Y70.01 E18.061
G1 X90.66 Y69.88 E18.0657
G1 X90.33 Y69.78 E18.0771
G1 X9.67 Y69.78 E20.7597
G1 X9.47 Y69.82 E20.7665
G1 X9.34 Y69.88 E20.7712
G1 X9.28 Y70.01 E20.7759
G1 X9.28 Y72.62 E20.8628
G1 X9.4 Y72.88 E20.8723
G1 X25.15 Y88.63 E21.6129
G1 X25.44 Y88.71 E21.623
G1 X26.38 Y88.71 E21.6544
G1 X33.17 Y88.71 E21.8801
G1 X33.28 Y88.78 E21.8847
G1 X33.27 Y89.28 E21.9013
G1 X33.09 Y89.28 E21.9075
G1 X32.84 Y89.42 E21.9168
G1 X32.79 Y89.55 E21.9215
G1 X32.79 Y90.11 E21.9403
G1 X32.77 Y90.28 E21.946
G1 X24.66 Y90.28 E22.2156
G1 X24.51 Y90.2 E22.2211
G1 X7.83 Y73.51 E23.0061
G1 X7.72 Y73.35 E23.0127
G1 X7.71 Y73.25 E23.0159
G1 X7.71 Y29.78 E24.4616
G1 X7.83 Y29.71 E24.4661
G1 X9.2 Y29.71 E24.5116
G1 X9.28 Y29.82 E24.5161
G1 X9.28 Y67.91 E25.783
G1 X9.41 Y68.15 E25.7923
G1 X9.57 Y68.22 E25.7977
G1 X90.43 Y68.22 E28.4873
G1 X90.59 Y68.15 E28.4929
G1 X90.72 Y67.9 E28.5022
G1 X90.72 Y29.82 E29.769
G1 X90.8 Y29.71 E29.7735
G1 X92.17 Y29.71 E29.8189
G1 X92.29 Y29.78 E29.8235
G1 X92.29 Y73.25 E31.2691
G1 X92.09 Y73.43 E31.278
G1 X75.4 Y90.11 E32.063
G1 X75.34 Y90.24 E32.0677
G1 X75.12 Y90.12 E32.0763
; fan off
M107
;
; 'Wipe', 0.0 [RPM], 40.0 [mm/s]
G1 F210
G1 X75.12 Y90.12 Z1.45 E32.0763
; END_LAYER_OBJECT z=1.00
; Reset extruder pos
G92 E0
; BEGIN_LAYER_OBJECT z=1.20
; fan on
M106
;
; 'Loop', 53.3 [RPM], 33.4 [mm/s]
G1 F9000
G1 X77 Y87.95 E0
G1 F210
G1 X77 Y87.95 Z1.2 E0
G1 F2004.6
G1 X75.12 Y89.83 E0.0887
G1 X74.98 Y89.88 E0.0936
G1 X57.27 Y89.88 E0.6827
G1 X57.12 Y89.84 E0.6878
G1 X57.12 Y89.18 E0.7099
G1 X57.24 Y89.11 E0.7146
G1 X74.4 Y89.11 E1.2853
G1 X74.73 Y89.06 E1.2962
G1 X74.96 Y88.92 E1.3053
G1 X90.89 Y72.98 E2.0548
G1 X91.04 Y72.75 E2.0639
G1 X91.12 Y72.43 E2.0748
G1 X91.12 Y70 E2.1556
G1 X91.08 Y69.83 E2.1616
G1 X90.94 Y69.6 E2.1707
G1 X90.71 Y69.45 E2.1798
G1 X90.31 Y69.38 E2.1933
G1 X9.7 Y69.38 E4.8744
G1 X9.29 Y69.45 E4.888
G1 X9.06 Y69.6 E4.8971
G1 X8.92 Y69.83 E4.9062
G1 X8.88 Y70.01 E4.9122
G1 X8.88 Y72.62 E4.9992
G1 X8.92 Y72.8 E5.0053
G1 X9.06 Y73.03 E5.0144
G1 X9.12 Y73.16 E5.0192
G1 X24.86 Y88.91 E5.7598
G1 X25.09 Y89.05 E5.7689
G1 X25.41 Y89.11 E5.7796
G1 X32.01 Y89.11 E5.9991
G1 X32.24 Y89.27 E6.0081
G1 X32.38 Y89.5 E6.0172
G1 X32.38 Y89.71 E6.0242
G1 X32.36 Y89.88 E6.0298
G1 X24.84 Y89.88 E6.2802
G1 X24.7 Y89.82 E6.285
G1 X8.2 Y73.32 E7.061
G1 X8.12 Y73.18 E7.0667
G1 X8.12 Y61.68 E7.4493
G1 X8.12 Y30.19 E8.4966
G1 X8.24 Y30.12 E8.5012
G1 X8.8 Y30.12 E8.5199
G1 X8.88 Y30.22 E8.5243
G1 X8.88 Y67.91 E9.7778
G1 X8.92 Y68.09 E9.7839
G1 X9.05 Y68.33 E9.7931
G1 X9.24 Y68.52 E9.802
G1 X9.37 Y68.58 E9.8069
G1 X9.59 Y68.62 E9.8143
G1 X62.58 Y68.62 E11.5767
G1 X90.41 Y68.62 E12.5024
G1 X90.64 Y68.58 E12.5101
G1 X90.87 Y68.44 E12.5192
G1 X91.04 Y68.17 E12.5297
G1 X91.12 Y67.91 E12.5389
G1 X91.12 Y65.83 E12.6079
G1 X91.12 Y30.22 E13.7924
G1 X91.2 Y30.12 E13.7968
G1 X91.76 Y30.12 E13.8154
G1 X91.88 Y30.18 E13.82
G1 X91.88 Y73.03 E15.2452
G1 X91.81 Y73.14 E15.2497
G1 X77 Y87.95 E15.9459
;
; 'Perimeter', 27.9 [RPM], 17.5 [mm/s]
G1 F9000
G1 X75.25 Y90 E15.9459
G1 F1050
G1 X75.34 Y90.24 E15.9545
G1 X75.19 Y90.28 E15.9596
G1 X56.86 Y90.28 E16.5692
G1 X56.72 Y90.24 E16.5743
G1 X56.72 Y88.78 E16.623
G1 X56.84 Y88.71 E16.6276
G1 X74.38 Y88.71 E17.2109
G1 X74.55 Y88.69 E17.2166
G1 X74.68 Y88.63 E17.2213
G1 X90.61 Y72.7 E17.9708
G1 X90.72 Y72.43 E17.9804
G1 X90.72 Y70.01 E18.061
G1 X90.66 Y69.88 E18.0657
G1 X90.33 Y69.78 E18.0771
G1 X76.38 Y69.78 E18.5412
G1 X9.81 Y69.78 E20.7551
G1 X9.62 Y69.78 E20.7613
G1 X9.34 Y69.88 E20.7712
G1 X9.28 Y70.01 E20.7759
G1 X9.28 Y72.62 E20.8628
G1 X9.4 Y72.88 E20.8723
G1 X25.15 Y88.63 E21.6129
G1 X25.44 Y88.71 E21.623
G1 X26.38 Y88.71 E21.6543
G1 X33.17 Y88.71 E21.8801
G1 X33.28 Y88.78 E21.8847
G1 X33.27 Y89.28 E21.9013
G1 X33.09 Y89.28 E21.9075
G1 X32.84 Y89.42 E21.9167
G1 X32.79 Y89.55 E21.9215
G1 X32.79 Y90.11 E21.9403
G1 X32.77 Y90.28 E21.9459
G1 X24.66 Y90.28 E22.2156
G1 X24.51 Y90.2 E22.2211
G1 X7.83 Y73.51 E23.006
G1 X7.72 Y73.35 E23.0126
G1 X7.71 Y73.25 E23.0159
G1 X7.71 Y29.78 E24.4615
G1 X7.83 Y29.71 E24.4661
G1 X9.2 Y29.71 E24.5116
G1 X9.28 Y29.82 E24.5161
G1 X9.28 Y67.91 E25.783
G1 X9.41 Y68.15 E25.7922
G1 X9.57 Y68.22 E25.7977
G1 X44.07 Y68.22 E26.9454
G1 X90.43 Y68.22 E28.4873
G1 X90.59 Y68.15 E28.4929
G1 X90.72 Y67.9 E28.5022
G1 X90.72 Y29.82 E29.769
G1 X90.8 Y29.71 E29.7735
G1 X92.17 Y29.71 E29.8189
G1 X92.29 Y29.78 E29.8235
G1 X92.29 Y73.25 E31.2691
G1 X92.09 Y73.43 E31.278
G1 X75.4 Y90.11 E32.0629
G1 X75.34 Y90.24 E32.0676
G1 X75.12 Y90.12 E32.0762
; fan off
M107
;
; 'Stacked Sparse Infill', 75.0 [RPM], 47.0 [mm/s]
G1 F9000
G1 X76.02 Y88.29 E32.0762
G1 F2818.7
G1 X76.02 Y88.28 E32.0765
G1 X77.15 Y87.15 E32.1297
G1 X77.16 Y87.16 E32.13
G1 X80.55 Y83.76 E32.2896
G1 X80.54 Y83.76 E32.2899
G1 X81.68 Y82.62 E32.3431
G1 X81.68 Y82.63 E32.3434
G1 X85.08 Y79.24 E32.503
G1 X85.07 Y79.23 E32.5033
G1 X86.2 Y78.1 E32.5565
G1 X86.21 Y78.1 E32.5568
G1 X89.6 Y74.71 E32.7164
G1 X89.6 Y74.7 E32.7167
G1 X90.73 Y73.57 E32.7699
G1 X90.73 Y73.58 E32.7702
;
; 'Wipe', 0.0 [RPM], 40.0 [mm/s]
;
; 'Stacked Sparse Infill', 75.0 [RPM], 47.0 [mm/s]
G1 F9000
G1 X91.3 Y69.62 E32.7702
G1 F2818.7
G1 X91.27 Y69.59 E32.7716
G1 X90.73 Y69.05 E32.797
;
; 'Stacked Sparse Infill', 75.0 [RPM], 47.0 [mm/s]
G1 F9000
G1 X9.27 Y69.05 E32.797
G1 F2818.7
G1 X8.73 Y68.51 E32.8225
G1 X8.71 Y68.48 E32.8239
G1 X8.51 Y69.8 E32.8683
G1 X8.46 Y69.99 E32.875
G1 X8.42 Y70.46 E32.8906
G1 X8.43 Y70.47 E32.8909
;
; 'Wipe', 0.0 [RPM], 40.0 [mm/s]
G1 F210
G1 X8.43 Y70.47 Z1.65 E32.8909
; END_LAYER_OBJECT z=1.20
; Reset extruder pos
G92 E0
; BEGIN_LAYER_OBJECT z=1.40
; fan on
M106
;
; 'Loop', 53.3 [RPM], 33.4 [mm/s]
G1 F9000
G1 X77 Y87.95 E0
G1 F210
G1 X77 Y87.95 Z1.4 E0
G1 F2004.6
G1 X75.12 Y89.83 E0.0887
G1 X74.98 Y89.88 E0.0936
G1 X57.27 Y89.88 E0.6827
G1 X57.12 Y89.84 E0.6878
G1 X57.12 Y89.18 E0.7099
G1 X57.24 Y89.11 E0.7146
G1 X74.4 Y89.11 E1.2853
G1 X74.73 Y89.06 E1.2962
G1 X74.96 Y88.92 E1.3053
G1 X90.89 Y72.98 E2.0548
G1 X91.04 Y72.75 E2.0639
G1 X91.12 Y72.43 E2.0748
G1 X91.12 Y70 E2.1556
G1 X91.08 Y69.83 E2.1616
G1 X90.94 Y69.6 E2.1707
G1 X90.71 Y69.45 E2.1798
G1 X90.31 Y69.38 E2.1933
G1 X9.98 Y69.38 E4.8651
G1 X9.6 Y69.38 E4.8776
G1 X9.29 Y69.45 E4.8881
G1 X9.06 Y69.6 E4.8972
G1 X8.92 Y69.83 E4.9063
G1 X8.88 Y70.01 E4.9123
G1 X8.88 Y72.62 E4.9993
G1 X8.92 Y72.8 E5.0053
G1 X9.06 Y73.03 E5.0144
G1 X9.12 Y73.16 E5.0192
G1 X24.86 Y88.91 E5.7598
G1 X25.09 Y89.05 E5.7689
G1 X25.41 Y89.11 E5.7796
G1 X32.01 Y89.11 E5.9991
G1 X32.24 Y89.27 E6.0082
G1 X32.38 Y89.5 E6.0173
G1 X32.38 Y89.71 E6.0243
G1 X32.36 Y89.88 E6.0299
G1 X24.84 Y89.88 E6.2802
G1 X24.7 Y89.82 E6.285
G1 X8.2 Y73.32 E7.0611
G1 X8.12 Y73.18 E7.0668
G1 X8.12 Y39.05 E8.2019
G1 X8.12 Y30.19 E8.4967
G1 X8.24 Y30.12 E8.5012
G1 X8.8 Y30.12 E8.5199
G1 X8.88 Y30.22 E8.5244
G1 X8.88 Y67.91 E9.7779
G1 X8.92 Y68.09 E9.7839
G1 X9.05 Y68.33 E9.7932
G1 X9.24 Y68.52 E9.8021
G1 X9.37 Y68.58 E9.8069
G1 X9.59 Y68.62 E9.8144
G1 X62.58 Y68.62 E11.5767
G1 X90.41 Y68.62 E12.5025
G1 X90.64 Y68.58 E12.5102
G1 X90.87 Y68.44 E12.5193
G1 X91.04 Y68.17 E12.5298
G1 X91.12 Y67.91 E12.5389
G1 X91.12 Y65.83 E12.6079
G1 X91.12 Y30.22 E13.7924
G1 X91.2 Y30.12 E13.7969
G1 X91.76 Y30.12 E13.8154
G1 X91.88 Y30.18 E13.8201
G1 X91.88 Y38.1 E14.0835
G1 X91.88 Y73.03 E15.2452
G1 X91.81 Y73.14 E15.2497
G1 X77 Y87.95 E15.946
;
; 'Perimeter', 27.9 [RPM], 17.5 [mm/s]
G1 F9000
G1 X75.25 Y90 E15.946
G1 F1050
G1 X75.34 Y90.24 E15.9546
G1 X75.19 Y90.28 E15.9597
G1 X56.86 Y90.28 E16.5693
G1 X56.72 Y90.24 E16.5744
G1 X56.72 Y88.78 E16.6231
G1 X56.84 Y88.71 E16.6277
G1 X74.38 Y88.71 E17.211
G1 X74.55 Y88.69 E17.2166
G1 X74.68 Y88.63 E17.2214
G1 X90.61 Y72.7 E17.9708
G1 X90.72 Y72.43 E17.9805
G1 X90.72 Y70.01 E18.0611
G1 X90.66 Y69.88 E18.0658
G1 X90.33 Y69.78 E18.0771
G1 X76.38 Y69.78 E18.5412
G1 X9.81 Y69.78 E20.7551
G1 X9.62 Y69.78 E20.7614
G1 X9.34 Y69.88 E20.7712
G1 X9.28 Y70.01 E20.776
G1 X9.28 Y72.62 E20.8628
G1 X9.4 Y72.88 E20.8723
G1 X25.15 Y88.63 E21.6129
G1 X25.44 Y88.71 E21.623
G1 X26.38 Y88.71 E21.6544
G1 X33.17 Y88.71 E21.8802
G1 X33.28 Y88.78 E21.8847
G1 X33.27 Y89.28 E21.9013
G1 X33.09 Y89.28 E21.9076
G1 X32.84 Y89.42 E21.9168
G1 X32.79 Y89.55 E21.9215
G1 X32.79 Y90.11 E21.9403
G1 X32.77 Y90.28 E21.946
G1 X24.66 Y90.28 E22.2157
G1 X24.51 Y90.2 E22.2212
G1 X7.83 Y73.51 E23.0061
G1 X7.72 Y73.35 E23.0127
G1 X7.71 Y73.25 E23.016
G1 X7.71 Y29.78 E24.4616
G1 X7.83 Y29.71 E24.4662
G1 X9.2 Y29.71 E24.5117
G1 X9.28 Y29.82 E24.5161
G1 X9.28 Y67.91 E25.783
G1 X9.41 Y68.15 E25.7923
G1 X9.57 Y68.22 E25.7978
G1 X65.57 Y68.22 E27.6605
G1 X90.43 Y68.22 E28.4874
G1 X90.59 Y68.15 E28.4929
G1 X90.72 Y67.9 E28.5022
G1 X90.72 Y29.82 E29.7691
G1 X90.8 Y29.71 E29.7735
G1 X92.17 Y29.71 E29.8189
G1 X92.29 Y29.78 E29.8235
G1 X92.29 Y73.25 E31.2692
G1 X92.09 Y73.43 E31.2781
G1 X75.4 Y90.11 E32.063
G1 X75.34 Y90.24 E32.0677
G1 X75.12 Y90.12 E32.0763
; fan off
M107
;
; 'Wipe', 0.0 [RPM], 40.0 [mm/s]
G1 F210
G1 X75.12 Y90.12 Z1.85 E32.0763
; END_LAYER_OBJECT z=1.40
; Reset extruder pos
G92 E0
; BEGIN_LAYER_OBJECT z=1.60
; fan on
M106
;
; 'Loop', 53.3 [RPM], 33.4 [mm/s]
G1 F9000
G1 X77 Y87.95 E0
G1 F210
G1 X77 Y87.95 Z1.6 E0
G1 F2004.6
G1 X75.12 Y89.83 E0.0887
G1 X74.98 Y89.88 E0.0936
G1 X57.27 Y89.88 E0.6827
G1 X57.12 Y89.84 E0.6878
G1 X57.12 Y89.18 E0.7099
G1 X57.24 Y89.11 E0.7146
G1 X74.4 Y89.11 E1.2853
G1 X74.73 Y89.06 E1.2962
G1 X74.96 Y88.92 E1.3053
G1 X90.89 Y72.98 E2.0548
G1 X91.04 Y72.75 E2.0639
G1 X91.12 Y72.43 E2.0748
G1 X91.12 Y70 E2.1556
G1 X91.08 Y69.83 E2.1616
G1 X90.94 Y69.6 E2.1707
G1 X90.71 Y69.45 E2.1798
G1 X90.31 Y69.38 E2.1933
G1 X9.98 Y69.38 E4.8651
G1 X9.6 Y69.38 E4.8776
G1 X9.29 Y69.45 E4.8881
G1 X9.06 Y69.6 E4.8972
G1 X8.92 Y69.83 E4.9063
G1 X8.88 Y70.01 E4.9123
G1 X8.88 Y72.62 E4.9993
G1 X8.92 Y72.8 E5.0053
G1 X9.06 Y73.03 E5.0144
G1 X9.12 Y73.16 E5.0192
G1 X24.86 Y88.91 E5.7598
G1 X25.09 Y89.05 E5.7689
G1 X25.41 Y89.11 E5.7796
G1 X32.01 Y89.11 E5.9991
G1 X32.24 Y89.27 E6.0082
G1 X32.38 Y89.5 E6.0173
G1 X32.38 Y89.71 E6.0243
G1 X32.36 Y89.88 E6.0299
G1 X24.84 Y89.88 E6.2802
G1 X24.7 Y89.82 E6.285
G1 X8.2 Y73.32 E7.0611
G1 X8.12 Y73.18 E7.0668
G1 X8.12 Y39.05 E8.2019
G1 X8.12 Y30.19 E8.4967
G1 X8.24 Y30.12 E8.5012
G1 X8.8 Y30.12 E8.5199
G1 X8.88 Y30.22 E8.5244
G1 X8.88 Y67.91 E9.7779
G1 X8.92 Y68.09 E9.7839
G1 X9.05 Y68.33 E9.7932
G1 X9.24 Y68.52 E9.8021
G1 X9.37 Y68.58 E9.8069
G1 X9.59 Y68.62 E9.8144
G1 X90.22 Y68.62 E12.4962
G1 X90.48 Y68.61 E12.5049
G1 X90.64 Y68.58 E12.5102
G1 X90.87 Y68.44 E12.5193
G1 X91.04 Y68.17 E12.5298
G1 X91.12 Y67.91 E12.539
G1 X91.12 Y65.83 E12.6079
G1 X91.12 Y30.22 E13.7925
G1 X91.2 Y30.12 E13.7969
G1 X91.76 Y30.12 E13.8155
G1 X91.88 Y30.18 E13.8201
G1 X91.88 Y73.03 E15.2452
G1 X91.81 Y73.14 E15.2498
G1 X77 Y87.95 E15.946
;
; 'Perimeter', 27.9 [RPM], 17.5 [mm/s]
G1 F9000
G1 X75.25 Y90 E15.946
G1 F1050
G1 X75.34 Y90.24 E15.9546
G1 X75.19 Y90.28 E15.9597
G1 X56.86 Y90.28 E16.5693
G1 X56.72 Y90.24 E16.5744
G1 X56.72 Y88.78 E16.6231
G1 X56.84 Y88.71 E16.6277
G1 X74.38 Y88.71 E17.211
G1 X74.55 Y88.69 E17.2167
G1 X74.68 Y88.63 E17.2214
G1 X90.61 Y72.7 E17.9709
G1 X90.72 Y72.43 E17.9805
G1 X90.72 Y70.01 E18.0611
G1 X90.66 Y69.88 E18.0658
G1 X90.33 Y69.78 E18.0771
G1 X76.38 Y69.78 E18.5413
G1 X9.81 Y69.78 E20.7552
G1 X9.62 Y69.78 E20.7614
G1 X9.34 Y69.88 E20.7713
G1 X9.28 Y70.01 E20.776
G1 X9.28 Y72.62 E20.8629
G1 X9.4 Y72.88 E20.8724
G1 X25.15 Y88.63 E21.613
G1 X25.44 Y88.71 E21.6231
G1 X28.74 Y88.71 E21.733
G1 X33.17 Y88.71 E21.8802
G1 X33.28 Y88.78 E21.8847
G1 X33.27 Y89.28 E21.9013
G1 X33.09 Y89.28 E21.9076
G1 X32.84 Y89.42 E21.9168
G1 X32.79 Y89.55 E21.9216
G1 X32.79 Y90.11 E21.9404
G1 X32.77 Y90.28 E21.946
G1 X24.66 Y90.28 E22.2157
G1 X24.51 Y90.2 E22.2212
G1 X7.83 Y73.51 E23.0061
G1 X7.72 Y73.35 E23.0127
G1 X7.71 Y73.25 E23.016
G1 X7.71 Y57.31 E23.546
G1 X7.71 Y29.78 E24.4616
G1 X7.83 Y29.71 E24.4662
G1 X9.2 Y29.71 E24.5117
G1 X9.28 Y29.82 E24.5162
G1 X9.28 Y67.91 E25.783
G1 X9.41 Y68.15 E25.7923
G1 X9.57 Y68.22 E25.7978
G1 X90.43 Y68.22 E28.4874
G1 X90.59 Y68.15 E28.4929
G1 X90.72 Y67.9 E28.5023
G1 X90.72 Y29.82 E29.7691
G1 X90.8 Y29.71 E29.7735
G1 X92.17 Y29.71 E29.819
G1 X92.29 Y29.78 E29.8236
G1 X92.29 Y73.25 E31.2692
G1 X92.09 Y73.43 E31.2781
G1 X75.4 Y90.11 E32.063
G1 X75.34 Y90.24 E32.0677
G1 X75.12 Y90.12 E32.0763
; fan off
M107
;
; 'Stacked Sparse Infill', 75.0 [RPM], 47.0 [mm/s]
G1 F9000
G1 X76.02 Y88.29 E32.0763
G1 F2818.7
G1 X76.02 Y88.28 E32.0766
G1 X77.15 Y87.15 E32.1298
G1 X77.16 Y87.16 E32.1301
G1 X80.55 Y83.76 E32.2897
G1 X80.54 Y83.76 E32.29
G1 X81.68 Y82.62 E32.3432
G1 X81.68 Y82.63 E32.3435
G1 X85.08 Y79.24 E32.5031
G1 X85.07 Y79.23 E32.5034
G1 X86.2 Y78.1 E32.5566
G1 X86.21 Y78.1 E32.5569
G1 X89.6 Y74.71 E32.7165
G1 X89.6 Y74.7 E32.7168
G1 X90.73 Y73.57 E32.77
G1 X90.73 Y73.58 E32.7702
;
; 'Wipe', 0.0 [RPM], 40.0 [mm/s]
;
; 'Stacked Sparse Infill', 75.0 [RPM], 47.0 [mm/s]
G1 F9000
G1 X91.3 Y69.62 E32.7702
G1 F2818.7
G1 X91.27 Y69.59 E32.7717
G1 X90.73 Y69.05 E32.7971
;
; 'Stacked Sparse Infill', 75.0 [RPM], 47.0 [mm/s]
G1 F9000
G1 X9.27 Y69.05 E32.7971
G1 F2818.7
G1 X8.73 Y68.51 E32.8225
G1 X8.71 Y68.48 E32.824
G1 X8.51 Y69.8 E32.8684
G1 X8.46 Y69.99 E32.875
G1 X8.42 Y70.46 E32.8907
G1 X8.43 Y70.47 E32.891
;
; 'Wipe', 0.0 [RPM], 40.0 [mm/s]
G1 F210
G1 X8.43 Y70.47 Z2.05 E32.891
; END_LAYER_OBJECT z=1.60
; Reset extruder pos
G92 E0
; BEGIN_LAYER_OBJECT z=1.80
; fan on
M106
;
; 'Loop', 53.3 [RPM], 33.4 [mm/s]
G1 F9000
G1 X77 Y87.95 E0
G1 F210
G1 X77 Y87.95 Z1.8 E0
G1 F2004.6
G1 X75.12 Y89.83 E0.0887
G1 X74.98 Y89.88 E0.0936
G1 X57.27 Y89.88 E0.6827
G1 X57.12 Y89.84 E0.6878
G1 X57.12 Y89.18 E0.7099
G1 X57.24 Y89.11 E0.7146
G1 X74.4 Y89.11 E1.2853
G1 X74.73 Y89.06 E1.2962
G1 X74.96 Y88.92 E1.3053
G1 X90.89 Y72.98 E2.0548
G1 X91.04 Y72.75 E2.0639
G1 X91.12 Y72.43 E2.0748
G1 X91.12 Y70 E2.1556
G1 X91.08 Y69.83 E2.1616
G1 X90.94 Y69.6 E2.1707
G1 X90.71 Y69.45 E2.1798
G1 X90.31 Y69.38 E2.1933
G1 X9.7 Y69.38 E4.8744
G1 X9.29 Y69.45 E4.888
G1 X9.06 Y69.6 E4.8971
G1 X8.92 Y69.83 E4.9062
G1 X8.88 Y70.01 E4.9122
G1 X8.88 Y72.62 E4.9992
G1 X8.92 Y72.8 E5.0053
G1 X9.06 Y73.03 E5.0144
G1 X9.12 Y73.16 E5.0192
G1 X24.86 Y88.91 E5.7598
G1 X25.09 Y89.05 E5.7689
G1 X25.41 Y89.11 E5.7796
G1 X32.01 Y89.11 E5.9991
G1 X32.24 Y89.27 E6.0081
G1 X32.38 Y89.5 E6.0172
G1 X32.38 Y89.71 E6.0242
G1 X32.36 Y89.88 E6.0298
G1 X24.84 Y89.88 E6.2802
G1 X24.7 Y89.82 E6.285
G1 X8.2 Y73.32 E7.061
G1 X8.12 Y73.18 E7.0667
G1 X8.12 Y39.05 E8.2019
G1 X8.12 Y30.19 E8.4966
G1 X8.24 Y30.12 E8.5012
G1 X8.8 Y30.12 E8.5199
G1 X8.88 Y30.22 E8.5243
G1 X8.88 Y67.91 E9.7778
G1 X8.92 Y68.09 E9.7839
G1 X9.05 Y68.33 E9.7931
G1 X9.24 Y68.52 E9.802
G1 X9.37 Y68.58 E9.8069
G1 X9.59 Y68.62 E9.8143
G1 X90.22 Y68.62 E12.4961
G1 X90.48 Y68.61 E12.5048
G1 X90.64 Y68.58 E12.5101
G1 X90.87 Y68.44 E12.5192
G1 X91.04 Y68.17 E12.5298
G1 X91.12 Y67.91 E12.5389
G1 X91.12 Y35.85 E13.6051
G1 X91.12 Y30.22 E13.7924
G1 X91.2 Y30.12 E13.7969
G1 X91.76 Y30.12 E13.8154
G1 X91.88 Y30.18 E13.82
G1 X91.88 Y73.03 E15.2452
G1 X91.81 Y73.14 E15.2497
G1 X77 Y87.95 E15.9459
;
; 'Perimeter', 27.9 [RPM], 17.5 [mm/s]
G1 F9000
G1 X75.25 Y90 E15.9459
G1 F1050
G1 X75.34 Y90.24 E15.9545
G1 X75.19 Y90.28 E15.9596
G1 X56.86 Y90.28 E16.5692
G1 X56.72 Y90.24 E16.5743
G1 X56.72 Y88.78 E16.623
G1 X56.84 Y88.71 E16.6277
G1 X74.38 Y88.71 E17.2109
G1 X74.55 Y88.69 E17.2166
G1 X74.68 Y88.63 E17.2213
G1 X90.61 Y72.7 E17.9708
G1 X90.72 Y72.43 E17.9805
G1 X90.72 Y70.01 E18.061
G1 X90.66 Y69.88 E18.0658
G1 X90.33 Y69.78 E18.0771
G1 X76.38 Y69.78 E18.5412
G1 X9.81 Y69.78 E20.7551
G1 X9.62 Y69.78 E20.7614
G1 X9.34 Y69.88 E20.7712
G1 X9.28 Y70.01 E20.7759
G1 X9.28 Y72.62 E20.8628
G1 X9.4 Y72.88 E20.8723
G1 X25.15 Y88.63 E21.6129
G1 X25.44 Y88.71 E21.623
G1 X28.74 Y88.71 E21.733
G1 X33.17 Y88.71 E21.8801
G1 X33.28 Y88.78 E21.8847
G1 X33.27 Y89.28 E21.9013
G1 X33.09 Y89.28 E21.9076
G1 X32.84 Y89.42 E21.9168
G1 X32.79 Y89.55 E21.9215
G1 X32.79 Y90.11 E21.9403
G1 X32.77 Y90.28 E21.946
G1 X24.66 Y90.28 E22.2156
G1 X24.51 Y90.2 E22.2211
G1 X7.83 Y73.51 E23.0061
G1 X7.72 Y73.35 E23.0127
G1 X7.71 Y73.25 E23.0159
G1 X7.71 Y29.78 E24.4616
G1 X7.83 Y29.71 E24.4661
G1 X9.2 Y29.71 E24.5116
G1 X9.28 Y29.82 E24.5161
G1 X9.28 Y67.91 E25.783
G1 X9.41 Y68.15 E25.7923
G1 X9.57 Y68.22 E25.7977
G1 X65.57 Y68.22 E27.6604
G1 X90.43 Y68.22 E28.4873
G1 X90.59 Y68.15 E28.4929
G1 X90.72 Y67.9 E28.5022
G1 X90.72 Y39.84 E29.4357
G1 X90.72 Y29.82 E29.769
G1 X90.8 Y29.71 E29.7735
G1 X92.17 Y29.71 E29.8189
G1 X92.29 Y29.78 E29.8235
G1 X92.29 Y73.25 E31.2691
G1 X92.09 Y73.43 E31.278
G1 X75.4 Y90.11 E32.063
G1 X75.34 Y90.24 E32.0677
G1 X75.12 Y90.12 E32.0763
; fan off
M107
;
; 'Wipe', 0.0 [RPM], 40.0 [mm/s]
G1 F210
G1 X75.12 Y90.12 Z2.25 E32.0763
; END_LAYER_OBJECT z=1.80
; Reset extruder pos
G92 E0
; BEGIN_LAYER_OBJECT z=2.00
; fan on
M106
;
; 'Loop', 53.3 [RPM], 33.4 [mm/s]
G1 F9000
G1 X77 Y87.95 E0
G1 F210
G1 X77 Y87.95 Z2 E0
G1 F2004.6
G1 X75.12 Y89.83 E0.0887
G1 X74.98 Y89.88 E0.0936
G1 X57.27 Y89.88 E0.6827
G1 X57.12 Y89.84 E0.6878
G1 X57.12 Y89.18 E0.7099
G1 X57.24 Y89.11 E0.7146
G1 X74.4 Y89.11 E1.2853
G1 X74.73 Y89.06 E1.2962
G1 X74.96 Y88.92 E1.3053
G1 X90.89 Y72.98 E2.0548
G1 X91.04 Y72.75 E2.0639
G1 X91.12 Y72.43 E2.0748
G1 X91.12 Y70 E2.1556
G1 X91.08 Y69.83 E2.1616
G1 X90.94 Y69.6 E2.1707
G1 X90.71 Y69.45 E2.1798
G1 X90.31 Y69.38 E2.1933
G1 X9.98 Y69.38 E4.8651
G1 X9.6 Y69.38 E4.8776
G1 X9.29 Y69.45 E4.8881
G1 X9.06 Y69.6 E4.8972
G1 X8.92 Y69.83 E4.9063
G1 X8.88 Y70.01 E4.9123
G1 X8.88 Y72.62 E4.9993
G1 X8.92 Y72.8 E5.0053
G1 X9.06 Y73.03 E5.0144
G1 X9.12 Y73.16 E5.0192
G1 X24.86 Y88.91 E5.7598
G1 X25.09 Y89.05 E5.7689
G1 X25.41 Y89.11 E5.7796
G1 X32.01 Y89.11 E5.9991
G1 X32.24 Y89.27 E6.0082
G1 X32.38 Y89.5 E6.0173
G1 X32.38 Y89.71 E6.0243
G1 X32.36 Y89.88 E6.0299
G1 X24.84 Y89.88 E6.2802
G1 X24.7 Y89.82 E6.285
G1 X8.2 Y73.32 E7.0611
G1 X8.12 Y73.18 E7.0668
G1 X8.12 Y39.05 E8.2019
G1 X8.12 Y30.19 E8.4967
G1 X8.24 Y30.12 E8.5012
G1 X8.8 Y30.12 E8.5199
G1 X8.88 Y30.22 E8.5244
G1 X8.88 Y67.91 E9.7779
G1 X8.92 Y68.09 E9.7839
G1 X9.05 Y68.33 E9.7932
G1 X9.24 Y68.52 E9.8021
G1 X9.37 Y68.58 E9.8069
G1 X9.59 Y68.62 E9.8144
G1 X90.41 Y68.62 E12.5025
G1 X90.64 Y68.58 E12.5102
G1 X90.87 Y68.44 E12.5193
G1 X91.04 Y68.17 E12.5298
G1 X91.12 Y67.91 E12.5389
G1 X91.12 Y35.85 E13.6051
G1 X91.12 Y30.22 E13.7924
G1 X91.2 Y30.12 E13.7969
G1 X91.76 Y30.12 E13.8154
G1 X91.88 Y30.18 E13.8201
G1 X91.88 Y73.03 E15.2452
G1 X91.81 Y73.14 E15.2497
G1 X77 Y87.95 E15.946
;
; 'Perimeter', 27.9 [RPM], 17.5 [mm/s]
G1 F9000
G1 X75.25 Y90 E15.946
G1 F1050
G1 X75.34 Y90.24 E15.9546
G1 X75.19 Y90.28 E15.9597
G1 X56.86 Y90.28 E16.5693
G1 X56.72 Y90.24 E16.5744
G1 X56.72 Y88.78 E16.6231
G1 X56.84 Y88.71 E16.6277
G1 X74.38 Y88.71 E17.211
G1 X74.55 Y88.69 E17.2166
G1 X74.68 Y88.63 E17.2214
G1 X90.61 Y72.7 E17.9708
G1 X90.72 Y72.43 E17.9805
G1 X90.72 Y70.01 E18.0611
G1 X90.66 Y69.88 E18.0658
G1 X90.33 Y69.78 E18.0771
G1 X9.67 Y69.78 E20.7598
G1 X9.47 Y69.82 E20.7666
G1 X9.34 Y69.88 E20.7713
G1 X9.28 Y70.01 E20.776
G1 X9.28 Y72.62 E20.8629
G1 X9.4 Y72.88 E20.8724
G1 X25.15 Y88.63 E21.613
G1 X25.44 Y88.71 E21.6231
G1 X29.12 Y88.71 E21.7456
G1 X33.17 Y88.71 E21.8802
G1 X33.28 Y88.78 E21.8847
G1 X33.27 Y89.28 E21.9013
G1 X33.09 Y89.28 E21.9076
G1 X32.84 Y89.42 E21.9168
G1 X32.79 Y89.55 E21.9216
G1 X32.79 Y90.11 E21.9404
G1 X32.77 Y90.28 E21.946
G1 X24.66 Y90.28 E22.2157
G1 X24.51 Y90.2 E22.2212
G1 X7.83 Y73.51 E23.0061
G1 X7.72 Y73.35 E23.0127
G1 X7.71 Y73.25 E23.016
G1 X7.71 Y57.31 E23.546
G1 X7.71 Y29.78 E24.4616
G1 X7.83 Y29.71 E24.4662
G1 X9.2 Y29.71 E24.5117
G1 X9.28 Y29.82 E24.5162
G1 X9.28 Y67.91 E25.783
G1 X9.41 Y68.15 E25.7923
G1 X9.57 Y68.22 E25.7978
G1 X90.06 Y68.22 E28.4749
G1 X90.46 Y68.21 E28.4883
G1 X90.59 Y68.15 E28.493
G1 X90.72 Y67.9 E28.5023
G1 X90.72 Y29.82 E29.7691
G1 X90.8 Y29.71 E29.7736
G1 X92.17 Y29.71 E29.819
G1 X92.29 Y29.78 E29.8236
G1 X92.29 Y73.25 E31.2693
G1 X92.09 Y73.43 E31.2781
G1 X75.4 Y90.11 E32.0631
G1 X75.34 Y90.24 E32.0678
G1 X75.12 Y90.12 E32.0764
; fan off
M107
;
; 'Stacked Sparse Infill', 75.0 [RPM], 47.0 [mm/s]
G1 F9000
G1 X76.02 Y88.29 E32.0764
G1 F2818.7
G1 X76.02 Y88.28 E32.0766
G1 X77.15 Y87.15 E32.1299
G1 X77.16 Y87.16 E32.1301
G1 X80.55 Y83.76 E32.2898
G1 X80.54 Y83.76 E32.29
G1 X81.68 Y82.62 E32.3433
G1 X81.68 Y82.63 E32.3435
G1 X85.08 Y79.24 E32.5032
G1 X85.07 Y79.23 E32.5034
G1 X86.2 Y78.1 E32.5566
G1 X86.21 Y78.1 E32.5569
G1 X89.6 Y74.71 E32.7166
G1 X89.6 Y74.7 E32.7168
G1 X90.73 Y73.57 E32.77
G1 X90.73 Y73.58 E32.7703
;
; 'Wipe', 0.0 [RPM], 40.0 [mm/s]
;
; 'Stacked Sparse Infill', 75.0 [RPM], 47.0 [mm/s]
G1 F9000
G1 X91.3 Y69.62 E32.7703
G1 F2818.7
G1 X91.27 Y69.59 E32.7718
G1 X90.73 Y69.05 E32.7972
;
; 'Stacked Sparse Infill', 75.0 [RPM], 47.0 [mm/s]
G1 F9000
G1 X9.27 Y69.05 E32.7972
G1 F2818.7
G1 X8.73 Y68.51 E32.8226
G1 X8.71 Y68.48 E32.8241
G1 X8.51 Y69.8 E32.8685
G1 X8.46 Y69.99 E32.8751
G1 X8.42 Y70.46 E32.8908
G1 X8.43 Y70.47 E32.891
;
; 'Wipe', 0.0 [RPM], 40.0 [mm/s]
G1 F210
G1 X8.43 Y70.47 Z2.45 E32.891
; END_LAYER_OBJECT z=2.00
; Reset extruder pos
G92 E0
; BEGIN_LAYER_OBJECT z=2.20
; fan on
M106
;
; 'Loop', 53.3 [RPM], 33.4 [mm/s]
G1 F9000
G1 X77 Y87.95 E0
G1 F210
G1 X77 Y87.95 Z2.2 E0
G1 F2004.6
G1 X75.12 Y89.83 E0.0887
G1 X74.98 Y89.88 E0.0936
G1 X57.27 Y89.88 E0.6827
G1 X57.12 Y89.84 E0.6878
G1 X57.12 Y89.18 E0.7099
G1 X57.24 Y89.11 E0.7146
G1 X74.4 Y89.11 E1.2853
G1 X74.73 Y89.06 E1.2962
G1 X74.96 Y88.92 E1.3053
G1 X90.89 Y72.98 E2.0548
G1 X91.04 Y72.75 E2.0639
G1 X91.12 Y72.43 E2.0748
G1 X91.12 Y70 E2.1556
G1 X91.08 Y69.83 E2.1616
G1 X90.94 Y69.6 E2.1707
G1 X90.71 Y69.45 E2.1798
G1 X90.31 Y69.38 E2.1933
G1 X9.98 Y69.38 E4.8651
G1 X9.6 Y69.38 E4.8776
G1 X9.29 Y69.45 E4.8881
G1 X9.06 Y69.6 E4.8972
G1 X8.92 Y69.83 E4.9063
G1 X8.88 Y70.01 E4.9123
G1 X8.88 Y72.62 E4.9993
G1 X8.92 Y72.8 E5.0053
G1 X9.06 Y73.03 E5.0144
G1 X9.12 Y73.16 E5.0192
G1 X24.86 Y88.91 E5.7598
G1 X25.09 Y89.05 E5.7689
G1 X25.41 Y89.11 E5.7796
G1 X32.01 Y89.11 E5.9991
G1 X32.24 Y89.27 E6.0082
G1 X32.38 Y89.5 E6.0173
G1 X32.38 Y89.71 E6.0243
G1 X32.36 Y89.88 E6.0299
G1 X24.84 Y89.88 E6.2802
G1 X24.7 Y89.82 E6.285
G1 X8.2 Y73.32 E7.0611
G1 X8.12 Y73.18 E7.0668
G1 X8.12 Y44.75 E8.0123
G1 X8.12 Y30.19 E8.4967
G1 X8.24 Y30.12 E8.5012
G1 X8.8 Y30.12 E8.5199
G1 X8.88 Y30.22 E8.5244
G1 X8.88 Y67.91 E9.7779
G1 X8.92 Y68.09 E9.7839
G1 X9.05 Y68.33 E9.7932
G1 X9.24 Y68.52 E9.8021
G1 X9.37 Y68.58 E9.8069
G1 X9.59 Y68.62 E9.8144
G1 X90.41 Y68.62 E12.5025
G1 X90.64 Y68.58 E12.5102
G1 X90.87 Y68.44 E12.5193
G1 X91.04 Y68.17 E12.5298
G1 X91.12 Y67.91 E12.5389
G1 X91.12 Y65.1 E12.6322
G1 X91.12 Y30.22 E13.7924
G1 X91.2 Y30.12 E13.7969
G1 X91.76 Y30.12 E13.8154
G1 X91.88 Y30.18 E13.8201
G1 X91.88 Y73.03 E15.2452
G1 X91.81 Y73.14 E15.2497
G1 X77 Y87.95 E15.946
;
; 'Perimeter', 27.9 [RPM], 17.5 [mm/s]
G1 F9000
G1 X75.25 Y90 E15.946
G1 F1050
G1 X75.34 Y90.24 E15.9546
G1 X75.19 Y90.28 E15.9597
G1 X56.86 Y90.28 E16.5693
G1 X56.72 Y90.24 E16.5744
G1 X56.72 Y88.78 E16.6231
G1 X56.84 Y88.71 E16.6277
G1 X74.38 Y88.71 E17.211
G1 X74.55 Y88.69 E17.2166
G1 X74.68 Y88.63 E17.2214
G1 X90.61 Y72.7 E17.9708
G1 X90.72 Y72.43 E17.9805
G1 X90.72 Y70.01 E18.0611
G1 X90.66 Y69.88 E18.0658
G1 X90.33 Y69.78 E18.0771
G1 X9.67 Y69.78 E20.7598
G1 X9.47 Y69.82 E20.7666
G1 X9.34 Y69.88 E20.7713
G1 X9.28 Y70.01 E20.776
G1 X9.28 Y72.62 E20.8629
G1 X9.4 Y72.88 E20.8724
G1 X25.15 Y88.63 E21.613
G1 X25.44 Y88.71 E21.6231
G1 X29.31 Y88.71 E21.7518
G1 X33.17 Y88.71 E21.8802
G1 X33.28 Y88.78 E21.8847
G1 X33.27 Y89.28 E21.9013
G1 X33.09 Y89.28 E21.9076
G1 X32.84 Y89.42 E21.9168
G1 X32.79 Y89.55 E21.9216
G1 X32.79 Y90.11 E21.9404
G1 X32.77 Y90.28 E21.946
G1 X24.66 Y90.28 E22.2157
G1 X24.51 Y90.2 E22.2212
G1 X7.83 Y73.51 E23.0061
G1 X7.72 Y73.35 E23.0127
G1 X7.71 Y73.25 E23.016
G1 X7.71 Y29.78 E24.4616
G1 X7.83 Y29.71 E24.4662
G1 X9.2 Y29.71 E24.5117
G1 X9.28 Y29.82 E24.5162
G1 X9.28 Y67.91 E25.783
G1 X9.41 Y68.15 E25.7923
G1 X9.57 Y68.22 E25.7978
G1 X90.06 Y68.22 E28.4749
G1 X90.46 Y68.21 E28.4883
G1 X90.59 Y68.15 E28.493
G1 X90.72 Y67.9 E28.5023
G1 X90.72 Y29.82 E29.7691
G1 X90.8 Y29.71 E29.7736
G1 X92.17 Y29.71 E29.819
G1 X92.29 Y29.78 E29.8236
G1 X92.29 Y32.14 E29.9021
G1 X92.29 Y73.25 E31.2693
G1 X92.09 Y73.43 E31.2781
G1 X75.4 Y90.11 E32.0631
G1 X75.34 Y90.24 E32.0678
G1 X75.12 Y90.12 E32.0764
; fan off
M107
;
; 'Wipe', 0.0 [RPM], 40.0 [mm/s]
G1 F210
G1 X75.12 Y90.12 Z2.65 E32.0764
; END_LAYER_OBJECT z=2.20
; Reset extruder pos
G92 E0
; BEGIN_LAYER_OBJECT z=2.40
; fan on
M106
;
; 'Loop', 53.3 [RPM], 33.4 [mm/s]
G1 F9000
G1 X77 Y87.95 E0
G1 F210
G1 X77 Y87.95 Z2.4 E0
G1 F2004.6
G1 X75.12 Y89.83 E0.0887
G1 X74.98 Y89.88 E0.0936
G1 X57.27 Y89.88 E0.6827
G1 X57.12 Y89.84 E0.6878
G1 X57.12 Y89.18 E0.7099
G1 X57.24 Y89.11 E0.7146
G1 X74.4 Y89.11 E1.2853
G1 X74.73 Y89.06 E1.2962
G1 X74.96 Y88.92 E1.3053
G1 X90.89 Y72.98 E2.0548
G1 X91.04 Y72.75 E2.0639
G1 X91.12 Y72.43 E2.0748
G1 X91.12 Y70 E2.1556
G1 X91.08 Y69.83 E2.1616
G1 X90.94 Y69.6 E2.1707
G1 X90.71 Y69.45 E2.1798
G1 X90.31 Y69.38 E2.1933
G1 X9.7 Y69.38 E4.8744
G1 X9.29 Y69.45 E4.888
G1 X9.06 Y69.6 E4.8971
G1 X8.92 Y69.83 E4.9062
G1 X8.88 Y70.01 E4.9122
G1 X8.88 Y72.62 E4.9992
G1 X8.92 Y72.8 E5.0053
G1 X9.06 Y73.03 E5.0144
G1 X9.12 Y73.16 E5.0192
G1 X24.86 Y88.91 E5.7598
G1 X25.09 Y89.05 E5.7689
G1 X25.41 Y89.11 E5.7796
G1 X32.01 Y89.11 E5.9991
G1 X32.24 Y89.27 E6.0081
G1 X32.38 Y89.5 E6.0172
G1 X32.38 Y89.71 E6.0242
G1 X32.36 Y89.88 E6.0298
G1 X24.84 Y89.88 E6.2802
G1 X24.7 Y89.82 E6.285
G1 X8.2 Y73.32 E7.061
G1 X8.12 Y73.18 E7.0667
G1 X8.12 Y44.75 E8.0122
G1 X8.12 Y30.19 E8.4966
G1 X8.24 Y30.12 E8.5012
G1 X8.8 Y30.12 E8.5199
G1 X8.88 Y30.22 E8.5243
G1 X8.88 Y67.91 E9.7778
G1 X8.92 Y68.09 E9.7839
G1 X9.05 Y68.33 E9.7931
G1 X9.24 Y68.52 E9.802
G1 X9.37 Y68.58 E9.8069
G1 X9.59 Y68.62 E9.8143
G1 X90.41 Y68.62 E12.5024
G1 X90.64 Y68.58 E12.5101
G1 X90.87 Y68.44 E12.5192
G1 X91.04 Y68.17 E12.5297
G1 X91.12 Y67.91 E12.5389
G1 X91.12 Y37.93 E13.5361
G1 X91.12 Y30.22 E13.7924
G1 X91.2 Y30.12 E13.7968
G1 X91.76 Y30.12 E13.8154
G1 X91.88 Y30.18 E13.82
G1 X91.88 Y73.03 E15.2452
G1 X91.81 Y73.14 E15.2497
G1 X77 Y87.95 E15.9459
;
; 'Perimeter', 27.9 [RPM], 17.5 [mm/s]
G1 F9000
G1 X75.25 Y90 E15.9459
G1 F1050
G1 X75.34 Y90.24 E15.9545
G1 X75.19 Y90.28 E15.9596
G1 X56.86 Y90.28 E16.5692
G1 X56.72 Y90.24 E16.5743
G1 X56.72 Y88.78 E16.623
G1 X56.84 Y88.71 E16.6276
G1 X74.38 Y88.71 E17.2109
G1 X74.55 Y88.69 E17.2166
G1 X74.68 Y88.63 E17.2213
G1 X90.61 Y72.7 E17.9708
G1 X90.72 Y72.43 E17.9804
G1 X90.72 Y70.01 E18.061
G1 X90.66 Y69.88 E18.0657
G1 X90.33 Y69.78 E18.0771
G1 X56.76 Y69.78 E19.1934
G1 X9.67 Y69.78 E20.7597
G1 X9.47 Y69.82 E20.7665
G1 X9.34 Y69.88 E20.7712
G1 X9.28 Y70.01 E20.7759
G1 X9.28 Y72.62 E20.8628
G1 X9.4 Y72.88 E20.8723
G1 X25.15 Y88.63 E21.6129
G1 X25.44 Y88.71 E21.623
G1 X29.31 Y88.71 E21.7518
G1 X33.17 Y88.71 E21.8801
G1 X33.28 Y88.78 E21.8847
G1 X33.27 Y89.28 E21.9013
G1 X33.09 Y89.28 E21.9075
G1 X32.84 Y89.42 E21.9168
G1 X32.79 Y89.55 E21.9215
G1 X32.79 Y90.11 E21.9403
G1 X32.77 Y90.28 E21.946
G1 X24.66 Y90.28 E22.2156
G1 X24.51 Y90.2 E22.2211
G1 X7.83 Y73.51 E23.0061
G1 X7.72 Y73.35 E23.0127
G1 X7.71 Y73.25 E23.0159
G1 X7.71 Y29.78 E24.4616
G1 X7.83 Y29.71 E24.4661
G1 X9.2 Y29.71 E24.5116
G1 X9.28 Y29.82 E24.5161
G1 X9.28 Y33.96 E24.6541
G1 X9.28 Y67.91 E25.783
G1 X9.41 Y68.15 E25.7923
G1 X9.57 Y68.22 E25.7977
G1 X90.06 Y68.22 E28.4748
G1 X90.46 Y68.21 E28.4882
G1 X90.59 Y68.15 E28.4929
G1 X90.72 Y67.9 E28.5023
G1 X90.72 Y29.82 E29.7691
G1 X90.8 Y29.71 E29.7735
G1 X92.17 Y29.71 E29.819
G1 X92.29 Y29.78 E29.8235
G1 X92.29 Y34.12 E29.9678
G1 X92.29 Y73.25 E31.2692
G1 X92.09 Y73.43 E31.2781
G1 X75.4 Y90.11 E32.063
G1 X75.34 Y90.24 E32.0677
G1 X75.12 Y90.12 E32.0763
; fan off
M107
;
; 'Stacked Sparse Infill', 75.0 [RPM], 47.0 [mm/s]
G1 F9000
G1 X76.02 Y88.29 E32.0763
G1 F2818.7
G1 X76.02 Y88.28 E32.0766
G1 X77.15 Y87.15 E32.1298
G1 X77.16 Y87.16 E32.1301
G1 X80.55 Y83.76 E32.2897
G1 X80.54 Y83.76 E32.29
G1 X81.68 Y82.62 E32.3432
G1 X81.68 Y82.63 E32.3435
G1 X85.08 Y79.24 E32.5031
G1 X85.07 Y79.23 E32.5034
G1 X86.2 Y78.1 E32.5566
G1 X86.21 Y78.1 E32.5568
G1 X89.6 Y74.71 E32.7165
G1 X89.6 Y74.7 E32.7168
G1 X90.73 Y73.57 E32.77
G1 X90.73 Y73.58 E32.7702
;
; 'Wipe', 0.0 [RPM], 40.0 [mm/s]
;
; 'Stacked Sparse Infill', 75.0 [RPM], 47.0 [mm/s]
G1 F9000
G1 X91.3 Y69.62 E32.7702
G1 F2818.7
G1 X91.27 Y69.59 E32.7717
G1 X90.73 Y69.05 E32.7971
;
; 'Stacked Sparse Infill', 75.0 [RPM], 47.0 [mm/s]
G1 F9000
G1 X9.27 Y69.05 E32.7971
G1 F2818.7
G1 X8.73 Y68.51 E32.8225
G1 X8.71 Y68.48 E32.824
G1 X8.51 Y69.8 E32.8684
G1 X8.46 Y69.99 E32.875
G1 X8.42 Y70.46 E32.8907
G1 X8.43 Y70.47 E32.891
;
; 'Wipe', 0.0 [RPM], 40.0 [mm/s]
G1 F210
G1 X8.43 Y70.47 Z2.85 E32.891
; END_LAYER_OBJECT z=2.40
; Reset extruder pos
G92 E0
; BEGIN_LAYER_OBJECT z=2.60
; fan on
M106
;
; 'Loop', 53.3 [RPM], 33.4 [mm/s]
G1 F9000
G1 X77 Y87.95 E0
G1 F210
G1 X77 Y87.95 Z2.6 E0
G1 F2004.6
G1 X75.12 Y89.83 E0.0887
G1 X74.98 Y89.88 E0.0936
G1 X57.27 Y89.88 E0.6827
G1 X57.12 Y89.84 E0.6878
G1 X57.12 Y89.18 E0.7099
G1 X57.24 Y89.11 E0.7146
G1 X74.4 Y89.11 E1.2853
G1 X74.73 Y89.06 E1.2962
G1 X74.96 Y88.92 E1.3053
G1 X90.89 Y72.98 E2.0548
G1 X91.04 Y72.75 E2.0639
G1 X91.12 Y72.43 E2.0748
G1 X91.12 Y70 E2.1556
G1 X91.08 Y69.83 E2.1616
G1 X90.94 Y69.6 E2.1707
G1 X90.71 Y69.45 E2.1798
G1 X90.31 Y69.38 E2.1933
G1 X9.98 Y69.38 E4.8651
G1 X9.6 Y69.38 E4.8776
G1 X9.29 Y69.45 E4.8881
G1 X9.06 Y69.6 E4.8972
G1 X8.92 Y69.83 E4.9063
G1 X8.88 Y70.01 E4.9123
G1 X8.88 Y72.62 E4.9993
G1 X8.92 Y72.8 E5.0053
G1 X9.06 Y73.03 E5.0144
G1 X9.12 Y73.16 E5.0192
G1 X24.86 Y88.91 E5.7598
G1 X25.09 Y89.05 E5.7689
G1 X25.41 Y89.11 E5.7796
G1 X32.01 Y89.11 E5.9991
G1 X32.24 Y89.27 E6.0082
G1 X32.38 Y89.5 E6.0173
G1 X32.38 Y89.71 E6.0243
G1 X32.36 Y89.88 E6.0299
G1 X24.84 Y89.88 E6.2802
G1 X24.7 Y89.82 E6.285
G1 X8.2 Y73.32 E7.0611
G1 X8.12 Y73.18 E7.0668
G1 X8.12 Y47.53 E7.9197
G1 X8.12 Y30.19 E8.4967
G1 X8.24 Y30.12 E8.5012
G1 X8.8 Y30.12 E8.5199
G1 X8.88 Y30.22 E8.5244
G1 X8.88 Y67.91 E9.7779
G1 X8.92 Y68.09 E9.7839
G1 X9.05 Y68.33 E9.7932
G1 X9.24 Y68.52 E9.8021
G1 X9.37 Y68.58 E9.8069
G1 X9.59 Y68.62 E9.8144
G1 X90.41 Y68.62 E12.5025
G1 X90.64 Y68.58 E12.5102
G1 X90.87 Y68.44 E12.5193
G1 X91.04 Y68.17 E12.5298
G1 X91.12 Y67.91 E12.5389
G1 X91.12 Y32.27 E13.7243
G1 X91.12 Y30.22 E13.7924
G1 X91.2 Y30.12 E13.7969
G1 X91.76 Y30.12 E13.8154
G1 X91.88 Y30.18 E13.8201
G1 X91.88 Y73.03 E15.2452
G1 X91.81 Y73.14 E15.2497
G1 X77 Y87.95 E15.946
;
; 'Perimeter', 27.9 [RPM], 17.5 [mm/s]
G1 F9000
G1 X75.25 Y90 E15.946
G1 F1050
G1 X75.34 Y90.24 E15.9546
G1 X75.19 Y90.28 E15.9597
G1 X56.86 Y90.28 E16.5693
G1 X56.72 Y90.24 E16.5744
G1 X56.72 Y88.78 E16.6231
G1 X56.84 Y88.71 E16.6277
G1 X74.38 Y88.71 E17.211
G1 X74.55 Y88.69 E17.2166
G1 X74.68 Y88.63 E17.2214
G1 X90.61 Y72.7 E17.9708
G1 X90.72 Y72.43 E17.9805
G1 X90.72 Y70.01 E18.0611
G1 X90.66 Y69.88 E18.0658
G1 X90.33 Y69.78 E18.0771
G1 X9.67 Y69.78 E20.7598
G1 X9.47 Y69.82 E20.7666
G1 X9.34 Y69.88 E20.7713
G1 X9.28 Y70.01 E20.776
G1 X9.28 Y72.62 E20.8629
G1 X9.4 Y72.88 E20.8724
G1 X25.15 Y88.63 E21.613
G1 X25.44 Y88.71 E21.6231
G1 X29.87 Y88.71 E21.7706
G1 X33.17 Y88.71 E21.8802
G1 X33.28 Y88.78 E21.8847
G1 X33.27 Y89.28 E21.9013
G1 X33.09 Y89.28 E21.9076
G1 X32.84 Y89.42 E21.9168
G1 X32.79 Y89.55 E21.9216
G1 X32.79 Y90.11 E21.9404
G1 X32.77 Y90.28 E21.946
G1 X24.66 Y90.28 E22.2157
G1 X24.51 Y90.2 E22.2212
G1 X7.83 Y73.51 E23.0061
G1 X7.72 Y73.35 E23.0127
G1 X7.71 Y73.25 E23.016
G1 X7.71 Y29.78 E24.4616
G1 X7.83 Y29.71 E24.4662
G1 X9.2 Y29.71 E24.5117
G1 X9.28 Y29.82 E24.5162
G1 X9.28 Y33.96 E24.6541
G1 X9.28 Y67.91 E25.783
G1 X9.41 Y68.15 E25.7923
G1 X9.57 Y68.22 E25.7978
G1 X64.06 Y68.22 E27.6103
G1 X90.43 Y68.22 E28.4874
G1 X90.59 Y68.15 E28.4929
G1 X90.72 Y67.9 E28.5023
G1 X90.72 Y29.82 E29.7691
G1 X90.8 Y29.71 E29.7735
G1 X92.17 Y29.71 E29.8189
G1 X92.29 Y29.78 E29.8235
G1 X92.29 Y34.12 E29.9678
G1 X92.29 Y73.25 E31.2692
G1 X92.09 Y73.43 E31.2781
G1 X75.4 Y90.11 E32.063
G1 X75.34 Y90.24 E32.0677
G1 X75.12 Y90.12 E32.0763
; fan off
M107
;
; 'Wipe', 0.0 [RPM], 40.0 [mm/s]
G1 F210
G1 X75.12 Y90.12 Z3.05 E32.0763
; END_LAYER_OBJECT z=2.60
; Reset extruder pos
G92 E0
; BEGIN_LAYER_OBJECT z=2.80
; fan on
M106
;
; 'Loop', 53.3 [RPM], 33.4 [mm/s]
G1 F9000
G1 X77 Y87.95 E0
G1 F210
G1 X77 Y87.95 Z2.8 E0
G1 F2004.6
G1 X75.12 Y89.83 E0.0887
G1 X74.98 Y89.88 E0.0936
G1 X57.27 Y89.88 E0.6827
G1 X57.12 Y89.84 E0.6878
G1 X57.12 Y89.18 E0.7099
G1 X57.24 Y89.11 E0.7146
G1 X74.4 Y89.11 E1.2853
G1 X74.73 Y89.06 E1.2962
G1 X74.96 Y88.92 E1.3053
G1 X90.89 Y72.98 E2.0548
G1 X91.04 Y72.75 E2.0639
G1 X91.12 Y72.43 E2.0748
G1 X91.12 Y70 E2.1556
G1 X91.08 Y69.83 E2.1616
G1 X90.94 Y69.6 E2.1707
G1 X90.71 Y69.45 E2.1798
G1 X90.31 Y69.38 E2.1933
G1 X9.98 Y69.38 E4.8651
G1 X9.6 Y69.38 E4.8776
G1 X9.29 Y69.45 E4.8881
G1 X9.06 Y69.6 E4.8972
G1 X8.92 Y69.83 E4.9063
G1 X8.88 Y70.01 E4.9123
G1 X8.88 Y72.62 E4.9993
G1 X8.92 Y72.8 E5.0053
G1 X9.06 Y73.03 E5.0144
G1 X9.12 Y73.16 E5.0192
G1 X24.86 Y88.91 E5.7598
G1 X25.09 Y89.05 E5.7689
G1 X25.41 Y89.11 E5.7796
G1 X32.01 Y89.11 E5.9991
G1 X32.24 Y89.27 E6.0082
G1 X32.38 Y89.5 E6.0173
G1 X32.38 Y89.71 E6.0243
G1 X32.36 Y89.88 E6.0299
G1 X24.84 Y89.88 E6.2802
G1 X24.7 Y89.82 E6.285
G1 X8.2 Y73.32 E7.0611
G1 X8.12 Y73.18 E7.0668
G1 X8.12 Y47.53 E7.9197
G1 X8.12 Y30.19 E8.4967
G1 X8.24 Y30.12 E8.5012
G1 X8.8 Y30.12 E8.5199
G1 X8.88 Y30.22 E8.5244
G1 X8.88 Y67.91 E9.7779
G1 X8.92 Y68.09 E9.7839
G1 X9.05 Y68.33 E9.7932
G1 X9.24 Y68.52 E9.8021
G1 X9.37 Y68.58 E9.8069
G1 X9.59 Y68.62 E9.8144
G1 X90.22 Y68.62 E12.4962
G1 X90.48 Y68.61 E12.5049
G1 X90.64 Y68.58 E12.5102
G1 X90.87 Y68.44 E12.5193
G1 X91.04 Y68.17 E12.5298
G1 X91.12 Y67.91 E12.539
G1 X91.12 Y40.38 E13.4546
G1 X91.12 Y30.22 E13.7925
G1 X91.2 Y30.12 E13.7969
G1 X91.76 Y30.12 E13.8155
G1 X91.88 Y30.18 E13.8201
G1 X91.88 Y73.03 E15.2452
G1 X91.81 Y73.14 E15.2498
G1 X77 Y87.95 E15.946
;
; 'Perimeter', 27.9 [RPM], 17.5 [mm/s]
G1 F9000
G1 X75.25 Y90 E15.946
G1 F1050
G1 X75.34 Y90.24 E15.9546
G1 X75.19 Y90.28 E15.9597
G1 X56.86 Y90.28 E16.5693
G1 X56.72 Y90.24 E16.5744
G1 X56.72 Y88.78 E16.6231
G1 X56.84 Y88.71 E16.6277
G1 X74.38 Y88.71 E17.211
G1 X74.55 Y88.69 E17.2167
G1 X74.68 Y88.63 E17.2214
G1 X90.61 Y72.7 E17.9709
G1 X90.72 Y72.43 E17.9805
G1 X90.72 Y70.01 E18.0611
G1 X90.66 Y69.88 E18.0658
G1 X90.33 Y69.78 E18.0771
G1 X22.26 Y69.78 E20.3412
G1 X9.67 Y69.78 E20.7598
G1 X9.47 Y69.82 E20.7666
G1 X9.34 Y69.88 E20.7713
G1 X9.28 Y70.01 E20.776
G1 X9.28 Y72.62 E20.8629
G1 X9.4 Y72.88 E20.8724
G1 X25.15 Y88.63 E21.613
G1 X25.44 Y88.71 E21.6231
G1 X29.87 Y88.71 E21.7707
G1 X33.17 Y88.71 E21.8802
G1 X33.28 Y88.78 E21.8848
G1 X33.27 Y89.28 E21.9014
G1 X33.09 Y89.28 E21.9076
G1 X32.84 Y89.42 E21.9168
G1 X32.79 Y89.55 E21.9216
G1 X32.79 Y90.11 E21.9404
G1 X32.77 Y90.28 E21.946
G1 X24.66 Y90.28 E22.2157
G1 X24.51 Y90.2 E22.2212
G1 X7.83 Y73.51 E23.0062
G1 X7.72 Y73.35 E23.0128
G1 X7.71 Y73.25 E23.016
G1 X7.71 Y29.78 E24.4616
G1 X7.83 Y29.71 E24.4662
G1 X9.2 Y29.71 E24.5117
G1 X9.28 Y29.82 E24.5162
G1 X9.28 Y67.91 E25.7831
G1 X9.41 Y68.15 E25.7924
G1 X9.57 Y68.22 E25.7978
G1 X64.06 Y68.22 E27.6103
G1 X90.43 Y68.22 E28.4874
G1 X90.59 Y68.15 E28.493
G1 X90.72 Y67.9 E28.5023
G1 X90.72 Y29.82 E29.7691
G1 X90.8 Y29.71 E29.7736
G1 X92.17 Y29.71 E29.819
G1 X92.29 Y29.78 E29.8236
G1 X92.29 Y41.19 E30.2031
G1 X92.29 Y73.25 E31.2692
G1 X92.09 Y73.43 E31.2781
G1 X75.4 Y90.11 E32.063
G1 X75.34 Y90.24 E32.0678
G1 X75.12 Y90.12 E32.0763
; fan off
M107
;
; 'Stacked Sparse Infill', 75.0 [RPM], 47.0 [mm/s]
G1 F9000
G1 X76.02 Y88.29 E32.0763
G1 F2818.7
G1 X76.02 Y88.28 E32.0766
G1 X77.15 Y87.15 E32.1298
G1 X77.16 Y87.16 E32.1301
G1 X80.55 Y83.76 E32.2897
G1 X80.54 Y83.76 E32.29
G1 X81.68 Y82.62 E32.3432
G1 X81.68 Y82.63 E32.3435
G1 X85.08 Y79.24 E32.5031
G1 X85.07 Y79.23 E32.5034
G1 X86.2 Y78.1 E32.5566
G1 X86.21 Y78.1 E32.5569
G1 X89.6 Y74.71 E32.7165
G1 X89.6 Y74.7 E32.7168
G1 X90.73 Y73.57 E32.77
G1 X90.73 Y73.58 E32.7703
;
; 'Wipe', 0.0 [RPM], 40.0 [mm/s]
;
; 'Stacked Sparse Infill', 75.0 [RPM], 47.0 [mm/s]
G1 F9000
G1 X91.3 Y69.62 E32.7703
G1 F2818.7
G1 X91.27 Y69.59 E32.7717
G1 X90.73 Y69.05 E32.7971
;
; 'Stacked Sparse Infill', 75.0 [RPM], 47.0 [mm/s]
G1 F9000
G1 X9.27 Y69.05 E32.7971
G1 F2818.7
G1 X8.73 Y68.51 E32.8226
G1 X8.71 Y68.48 E32.824
G1 X8.51 Y69.8 E32.8684
G1 X8.46 Y69.99 E32.8751
G1 X8.42 Y70.46 E32.8907
G1 X8.43 Y70.47 E32.891
;
; 'Wipe', 0.0 [RPM], 40.0 [mm/s]
G1 F210
G1 X8.43 Y70.47 Z3.25 E32.891
; END_LAYER_OBJECT z=2.80
; Reset extruder pos
G92 E0
; BEGIN_LAYER_OBJECT z=3.00
; fan on
M106
;
; 'Loop', 53.3 [RPM], 33.4 [mm/s]
G1 F9000
G1 X77 Y87.95 E0
G1 F210
G1 X77 Y87.95 Z3 E0
G1 F2004.6
G1 X75.12 Y89.83 E0.0887
G1 X74.98 Y89.88 E0.0936
G1 X57.27 Y89.88 E0.6827
G1 X57.12 Y89.84 E0.6878
G1 X57.12 Y89.18 E0.7099
G1 X57.24 Y89.11 E0.7146
G1 X74.4 Y89.11 E1.2853
G1 X74.73 Y89.06 E1.2962
G1 X74.96 Y88.92 E1.3053
G1 X90.89 Y72.98 E2.0548
G1 X91.04 Y72.75 E2.0639
G1 X91.12 Y72.43 E2.0748
G1 X91.12 Y70 E2.1556
G1 X91.08 Y69.83 E2.1616
G1 X90.94 Y69.6 E2.1707
G1 X90.71 Y69.45 E2.1798
G1 X90.31 Y69.38 E2.1933
G1 X9.98 Y69.38 E4.8651
G1 X9.6 Y69.38 E4.8776
G1 X9.29 Y69.45 E4.8881
G1 X9.06 Y69.6 E4.8972
G1 X8.92 Y69.83 E4.9063
G1 X8.88 Y70.01 E4.9123
G1 X8.88 Y72.62 E4.9993
G1 X8.92 Y72.8 E5.0053
G1 X9.06 Y73.03 E5.0144
G1 X9.12 Y73.16 E5.0192
G1 X24.86 Y88.91 E5.7598
G1 X25.09 Y89.05 E5.7689
G1 X25.41 Y89.11 E5.7796
G1 X32.01 Y89.11 E5.9991
G1 X32.24 Y89.27 E6.0082
G1 X32.38 Y89.5 E6.0173
G1 X32.38 Y89.71 E6.0243
G1 X32.36 Y89.88 E6.0299
G1 X24.84 Y89.88 E6.2802
G1 X24.7 Y89.82 E6.285
G1 X8.2 Y73.32 E7.0611
G1 X8.12 Y73.18 E7.0668
G1 X8.12 Y47.53 E7.9197
G1 X8.12 Y30.19 E8.4967
G1 X8.24 Y30.12 E8.5012
G1 X8.8 Y30.12 E8.5199
G1 X8.88 Y30.22 E8.5244
G1 X8.88 Y67.91 E9.7779
G1 X8.92 Y68.09 E9.7839
G1 X9.05 Y68.33 E9.7932
G1 X9.24 Y68.52 E9.8021
G1 X9.37 Y68.58 E9.8069
G1 X9.59 Y68.62 E9.8144
G1 X67.29 Y68.62 E11.7335
G1 X90.41 Y68.62 E12.5025
G1 X90.64 Y68.58 E12.5102
G1 X90.87 Y68.44 E12.5193
G1 X91.04 Y68.17 E12.5298
G1 X91.12 Y67.91 E12.5389
G1 X91.12 Y34.72 E13.6427
G1 X91.12 Y30.22 E13.7924
G1 X91.2 Y30.12 E13.7969
G1 X91.76 Y30.12 E13.8154
G1 X91.88 Y30.18 E13.8201
G1 X91.88 Y73.03 E15.2452
G1 X91.81 Y73.14 E15.2497
G1 X77 Y87.95 E15.946
;
; 'Perimeter', 27.9 [RPM], 17.5 [mm/s]
G1 F9000
G1 X75.25 Y90 E15.946
G1 F1050
G1 X75.34 Y90.24 E15.9546
G1 X75.19 Y90.28 E15.9597
G1 X56.86 Y90.28 E16.5693
G1 X56.72 Y90.24 E16.5744
G1 X56.72 Y88.78 E16.6231
G1 X56.84 Y88.71 E16.6277
G1 X74.38 Y88.71 E17.211
G1 X74.55 Y88.69 E17.2166
G1 X74.68 Y88.63 E17.2214
G1 X90.61 Y72.7 E17.9708
G1 X90.72 Y72.43 E17.9805
G1 X90.72 Y70.01 E18.0611
G1 X90.66 Y69.88 E18.0658
G1 X90.33 Y69.78 E18.0771
G1 X9.67 Y69.78 E20.7598
G1 X9.47 Y69.82 E20.7666
G1 X9.34 Y69.88 E20.7713
G1 X9.28 Y70.01 E20.776
G1 X9.28 Y72.62 E20.8629
G1 X9.4 Y72.88 E20.8724
G1 X25.15 Y88.63 E21.613
G1 X25.44 Y88.71 E21.6231
G1 X29.87 Y88.71 E21.7706
G1 X33.17 Y88.71 E21.8802
G1 X33.28 Y88.78 E21.8847
G1 X33.27 Y89.28 E21.9013
G1 X33.09 Y89.28 E21.9076
G1 X32.84 Y89.42 E21.9168
G1 X32.79 Y89.55 E21.9216
G1 X32.79 Y90.11 E21.9404
G1 X32.77 Y90.28 E21.946
G1 X24.66 Y90.28 E22.2157
G1 X24.51 Y90.2 E22.2212
G1 X7.83 Y73.51 E23.0061
G1 X7.72 Y73.35 E23.0127
G1 X7.71 Y73.25 E23.016
G1 X7.71 Y55.24 E23.615
G1 X7.71 Y29.78 E24.4616
G1 X7.83 Y29.71 E24.4662
G1 X9.2 Y29.71 E24.5117
G1 X9.28 Y29.82 E24.5162
G1 X9.28 Y67.91 E25.783
G1 X9.41 Y68.15 E25.7923
G1 X9.57 Y68.22 E25.7978
G1 X57.65 Y68.22 E27.3971
G1 X90.43 Y68.22 E28.4874
G1 X90.59 Y68.15 E28.4929
G1 X90.72 Y67.9 E28.5023
G1 X90.72 Y29.82 E29.7691
G1 X90.8 Y29.71 E29.7735
G1 X92.17 Y29.71 E29.8189
G1 X92.29 Y29.78 E29.8235
G1 X92.29 Y73.25 E31.2692
G1 X92.09 Y73.43 E31.2781
G1 X75.4 Y90.11 E32.063
G1 X75.34 Y90.24 E32.0677
G1 X75.12 Y90.12 E32.0763
; fan off
M107
;
; 'Wipe', 0.0 [RPM], 40.0 [mm/s]
G1 F210
G1 X75.12 Y90.12 Z3.45 E32.0763
; END_LAYER_OBJECT z=3.00
; Reset extruder pos
G92 E0
; BEGIN_LAYER_OBJECT z=3.20
; fan on
M106
;
; 'Loop', 53.3 [RPM], 33.4 [mm/s]
G1 F9000
G1 X77 Y87.95 E0
G1 F210
G1 X77 Y87.95 Z3.2 E0
G1 F2004.6
G1 X75.12 Y89.83 E0.0887
G1 X74.98 Y89.88 E0.0936
G1 X57.27 Y89.88 E0.6827
G1 X57.12 Y89.84 E0.6878
G1 X57.12 Y89.18 E0.7099
G1 X57.24 Y89.11 E0.7146
G1 X74.4 Y89.11 E1.2853
G1 X74.73 Y89.06 E1.2962
G1 X74.96 Y88.92 E1.3053
G1 X90.89 Y72.98 E2.0548
G1 X91.04 Y72.75 E2.0639
G1 X91.12 Y72.43 E2.0748
G1 X91.12 Y70 E2.1556
G1 X91.08 Y69.83 E2.1616
G1 X90.94 Y69.6 E2.1707
G1 X90.71 Y69.45 E2.1798
G1 X90.31 Y69.38 E2.1933
G1 X9.98 Y69.38 E4.8651
G1 X9.6 Y69.38 E4.8776
G1 X9.29 Y69.45 E4.8881
G1 X9.06 Y69.6 E4.8972
G1 X8.92 Y69.83 E4.9063
G1 X8.88 Y70.01 E4.9123
G1 X8.88 Y72.62 E4.9993
G1 X8.92 Y72.8 E5.0053
G1 X9.06 Y73.03 E5.0144
G1 X9.12 Y73.16 E5.0192
G1 X24.86 Y88.91 E5.7598
G1 X25.09 Y89.05 E5.7689
G1 X25.41 Y89.11 E5.7796
G1 X32.01 Y89.11 E5.9991
G1 X32.24 Y89.27 E6.0082
G1 X32.38 Y89.5 E6.0173
G1 X32.38 Y89.71 E6.0243
G1 X32.36 Y89.88 E6.0299
G1 X24.84 Y89.88 E6.2802
G1 X24.7 Y89.82 E6.285
G1 X8.2 Y73.32 E7.0611
G1 X8.12 Y73.18 E7.0668
G1 X8.12 Y49.23 E7.8632
G1 X8.12 Y30.19 E8.4967
G1 X8.24 Y30.12 E8.5012
G1 X8.8 Y30.12 E8.5199
G1 X8.88 Y30.22 E8.5244
G1 X8.88 Y67.91 E9.7779
G1 X8.92 Y68.09 E9.7839
G1 X9.05 Y68.33 E9.7932
G1 X9.24 Y68.52 E9.8021
G1 X9.37 Y68.58 E9.8069
G1 X9.59 Y68.62 E9.8144
G1 X67.29 Y68.62 E11.7335
G1 X90.41 Y68.62 E12.5025
G1 X90.64 Y68.58 E12.5102
G1 X90.87 Y68.44 E12.5193
G1 X91.04 Y68.17 E12.5298
G1 X91.12 Y67.91 E12.5389
G1 X91.12 Y34.72 E13.6427
G1 X91.12 Y30.22 E13.7924
G1 X91.2 Y30.12 E13.7969
G1 X91.76 Y30.12 E13.8154
G1 X91.88 Y30.18 E13.8201
G1 X91.88 Y73.03 E15.2452
G1 X91.81 Y73.14 E15.2497
G1 X77 Y87.95 E15.946
;
; 'Perimeter', 27.9 [RPM], 17.5 [mm/s]
G1 F9000
G1 X75.25 Y90 E15.946
G1 F1050
G1 X75.34 Y90.24 E15.9546
G1 X75.19 Y90.28 E15.9597
G1 X56.86 Y90.28 E16.5693
G1 X56.72 Y90.24 E16.5744
G1 X56.72 Y88.78 E16.6231
G1 X56.84 Y88.71 E16.6277
G1 X74.38 Y88.71 E17.211
G1 X74.55 Y88.69 E17.2166
G1 X74.68 Y88.63 E17.2214
G1 X90.61 Y72.7 E17.9708
G1 X90.72 Y72.43 E17.9805
G1 X90.72 Y70.01 E18.0611
G1 X90.66 Y69.88 E18.0658
G1 X90.33 Y69.78 E18.0771
G1 X9.67 Y69.78 E20.7598
G1 X9.47 Y69.82 E20.7666
G1 X9.34 Y69.88 E20.7713
G1 X9.28 Y70.01 E20.776
G1 X9.28 Y72.62 E20.8629
G1 X9.4 Y72.88 E20.8724
G1 X25.15 Y88.63 E21.613
G1 X25.44 Y88.71 E21.6231
G1 X29.21 Y88.71 E21.7485
G1 X33.17 Y88.71 E21.8802
G1 X33.28 Y88.78 E21.8847
G1 X33.27 Y89.28 E21.9013
G1 X33.09 Y89.28 E21.9076
G1 X32.84 Y89.42 E21.9168
G1 X32.79 Y89.55 E21.9216
G1 X32.79 Y90.11 E21.9404
G1 X32.77 Y90.28 E21.946
G1 X24.66 Y90.28 E22.2157
G1 X24.51 Y90.2 E22.2212
G1 X7.83 Y73.51 E23.0061
G1 X7.72 Y73.35 E23.0127
G1 X7.71 Y73.25 E23.016
G1 X7.71 Y38.08 E24.1857
G1 X7.71 Y29.78 E24.4616
G1 X7.83 Y29.71 E24.4662
G1 X9.2 Y29.71 E24.5117
G1 X9.28 Y29.82 E24.5162
G1 X9.28 Y67.91 E25.783
G1 X9.41 Y68.15 E25.7923
G1 X9.57 Y68.22 E25.7978
G1 X49.73 Y68.22 E27.1337
G1 X90.43 Y68.22 E28.4874
G1 X90.59 Y68.15 E28.4929
G1 X90.72 Y67.9 E28.5023
G1 X90.72 Y29.82 E29.7691
G1 X90.8 Y29.71 E29.7735
G1 X92.17 Y29.71 E29.8189
G1 X92.29 Y29.78 E29.8235
G1 X92.29 Y34.97 E29.9961
G1 X92.29 Y73.25 E31.2692
G1 X92.09 Y73.43 E31.2781
G1 X75.4 Y90.11 E32.063
G1 X75.34 Y90.24 E32.0677
G1 X75.12 Y90.12 E32.0763
; fan off
M107
;
; 'Stacked Sparse Infill', 75.0 [RPM], 47.0 [mm/s]
G1 F9000
G1 X76.02 Y88.29 E32.0763
G1 F2818.7
G1 X76.02 Y88.28 E32.0766
G1 X77.15 Y87.15 E32.1298
G1 X77.16 Y87.16 E32.1301
G1 X80.55 Y83.76 E32.2897
G1 X80.54 Y83.76 E32.29
G1 X81.68 Y82.62 E32.3432
G1 X81.68 Y82.63 E32.3435
G1 X85.08 Y79.24 E32.5031
G1 X85.07 Y79.23 E32.5034
G1 X86.2 Y78.1 E32.5566
G1 X86.21 Y78.1 E32.5568
G1 X89.6 Y74.71 E32.7165
G1 X89.6 Y74.7 E32.7168
G1 X90.73 Y73.57 E32.77
G1 X90.73 Y73.58 E32.7702
;
; 'Wipe', 0.0 [RPM], 40.0 [mm/s]
;
; 'Stacked Sparse Infill', 75.0 [RPM], 47.0 [mm/s]
G1 F9000
G1 X91.3 Y69.62 E32.7702
G1 F2818.7
G1 X91.27 Y69.59 E32.7717
G1 X90.73 Y69.05 E32.7971
;
; 'Stacked Sparse Infill', 75.0 [RPM], 47.0 [mm/s]
G1 F9000
G1 X9.27 Y69.05 E32.7971
G1 F2818.7
G1 X8.73 Y68.51 E32.8225
G1 X8.71 Y68.48 E32.824
G1 X8.51 Y69.8 E32.8684
G1 X8.46 Y69.99 E32.875
G1 X8.42 Y70.46 E32.8907
G1 X8.43 Y70.47 E32.891
;
; 'Wipe', 0.0 [RPM], 40.0 [mm/s]
G1 F210
G1 X8.43 Y70.47 Z3.65 E32.891
; END_LAYER_OBJECT z=3.20
; Reset extruder pos
G92 E0
; BEGIN_LAYER_OBJECT z=3.40
; fan on
M106
;
; 'Loop', 53.3 [RPM], 33.4 [mm/s]
G1 F9000
G1 X75.4 Y89.55 E0
G1 F210
G1 X75.4 Y89.55 Z3.4 E0
G1 F2004.6
G1 X75.12 Y89.83 E0.0133
G1 X74.98 Y89.88 E0.0182
G1 X57.27 Y89.88 E0.6073
G1 X57.12 Y89.84 E0.6125
G1 X57.12 Y89.18 E0.6345
G1 X57.24 Y89.11 E0.6392
G1 X74.4 Y89.11 E1.2099
G1 X74.73 Y89.06 E1.2208
G1 X74.96 Y88.92 E1.2299
G1 X90.89 Y72.98 E1.9794
G1 X91.04 Y72.75 E1.9885
G1 X91.12 Y72.43 E1.9994
G1 X91.12 Y70 E2.0802
G1 X91.08 Y69.83 E2.0862
G1 X90.94 Y69.6 E2.0953
G1 X90.71 Y69.45 E2.1044
G1 X90.31 Y69.38 E2.1179
G1 X9.98 Y69.38 E4.7897
G1 X9.6 Y69.38 E4.8022
G1 X9.29 Y69.45 E4.8127
G1 X9.06 Y69.6 E4.8218
G1 X8.92 Y69.83 E4.8309
G1 X8.88 Y70.01 E4.8369
G1 X8.88 Y72.62 E4.9239
G1 X8.92 Y72.8 E4.93
G1 X9.06 Y73.03 E4.9391
G1 X9.12 Y73.16 E4.9438
G1 X24.86 Y88.91 E5.6844
G1 X25.09 Y89.05 E5.6935
G1 X25.41 Y89.11 E5.7043
G1 X32.01 Y89.11 E5.9238
G1 X32.24 Y89.27 E5.9328
G1 X32.38 Y89.5 E5.9419
G1 X32.38 Y89.71 E5.9489
G1 X32.36 Y89.88 E5.9545
G1 X24.84 Y89.88 E6.2048
G1 X24.7 Y89.82 E6.2096
G1 X8.2 Y73.32 E6.9857
G1 X8.12 Y73.18 E6.9914
G1 X8.12 Y39.05 E8.1265
G1 X8.12 Y30.19 E8.4213
G1 X8.24 Y30.12 E8.4259
G1 X8.8 Y30.12 E8.4445
G1 X8.88 Y30.22 E8.449
G1 X8.88 Y67.91 E9.7025
G1 X8.92 Y68.09 E9.7086
G1 X9.05 Y68.33 E9.7178
G1 X9.24 Y68.52 E9.7267
G1 X9.37 Y68.58 E9.7316
G1 X9.59 Y68.62 E9.739
G1 X52.96 Y68.62 E11.1815
G1 X90.41 Y68.62 E12.4271
G1 X90.64 Y68.58 E12.4348
G1 X90.87 Y68.44 E12.4439
G1 X91.04 Y68.17 E12.4544
G1 X91.12 Y67.91 E12.4635
G1 X91.12 Y35.85 E13.5297
G1 X91.12 Y30.22 E13.717
G1 X91.2 Y30.12 E13.7215
G1 X91.76 Y30.12 E13.7401
G1 X91.88 Y30.18 E13.7447
G1 X91.88 Y73.03 E15.1698
G1 X91.81 Y73.14 E15.1743
G1 X75.4 Y89.55 E15.946
;
; 'Perimeter', 27.9 [RPM], 17.5 [mm/s]
G1 F9000
G1 X75.25 Y90 E15.946
G1 F1050
G1 X75.34 Y90.24 E15.9546
G1 X75.19 Y90.28 E15.9597
G1 X56.86 Y90.28 E16.5693
G1 X56.72 Y90.24 E16.5744
G1 X56.72 Y88.78 E16.6231
G1 X56.84 Y88.71 E16.6277
G1 X74.38 Y88.71 E17.211
G1 X74.55 Y88.69 E17.2166
G1 X74.68 Y88.63 E17.2214
G1 X90.61 Y72.7 E17.9708
G1 X90.72 Y72.43 E17.9805
G1 X90.72 Y70.01 E18.0611
G1 X90.66 Y69.88 E18.0658
G1 X90.33 Y69.78 E18.0771
G1 X10.05 Y69.78 E20.7472
G1 X9.62 Y69.78 E20.7614
G1 X9.34 Y69.88 E20.7712
G1 X9.28 Y70.01 E20.776
G1 X9.28 Y72.62 E20.8628
G1 X9.4 Y72.88 E20.8723
G1 X25.15 Y88.63 E21.6129
G1 X25.44 Y88.71 E21.623
G1 X29.21 Y88.71 E21.7485
G1 X33.17 Y88.71 E21.8802
G1 X33.28 Y88.78 E21.8847
G1 X33.27 Y89.28 E21.9013
G1 X33.09 Y89.28 E21.9076
G1 X32.84 Y89.42 E21.9168
G1 X32.79 Y89.55 E21.9215
G1 X32.79 Y90.11 E21.9403
G1 X32.77 Y90.28 E21.946
G1 X24.66 Y90.28 E22.2157
G1 X24.51 Y90.2 E22.2212
G1 X7.83 Y73.51 E23.0061
G1 X7.72 Y73.35 E23.0127
G1 X7.71 Y73.25 E23.016
G1 X7.71 Y36.95 E24.2233
G1 X7.71 Y29.78 E24.4616
G1 X7.83 Y29.71 E24.4662
G1 X9.2 Y29.71 E24.5117
G1 X9.28 Y29.82 E24.5161
G1 X9.28 Y47.54 E25.1057
G1 X9.28 Y67.91 E25.783
G1 X9.41 Y68.15 E25.7923
G1 X9.57 Y68.22 E25.7978
G1 X49.73 Y68.22 E27.1336
G1 X90.43 Y68.22 E28.4874
G1 X90.59 Y68.15 E28.4929
G1 X90.72 Y67.9 E28.5022
G1 X90.72 Y29.82 E29.7691
G1 X90.8 Y29.71 E29.7735
G1 X92.17 Y29.71 E29.8189
G1 X92.29 Y29.78 E29.8235
G1 X92.29 Y31.86 E29.8925
G1 X92.29 Y73.25 E31.2692
G1 X92.09 Y73.43 E31.2781
G1 X75.4 Y90.11 E32.063
G1 X75.34 Y90.24 E32.0677
G1 X75.12 Y90.12 E32.0763
; fan off
M107
;
; 'Wipe', 0.0 [RPM], 40.0 [mm/s]
G1 F210
G1 X75.12 Y90.12 Z3.85 E32.0763
; END_LAYER_OBJECT z=3.40
; Reset extruder pos
G92 E0
; BEGIN_LAYER_OBJECT z=3.60
; fan on
M106
;
; 'Loop', 53.3 [RPM], 33.4 [mm/s]
G1 F9000
G1 X75.4 Y89.55 E0
G1 F210
G1 X75.4 Y89.55 Z3.6 E0
G1 F2004.6
G1 X75.12 Y89.83 E0.0133
G1 X74.98 Y89.88 E0.0182
G1 X57.27 Y89.88 E0.6073
G1 X57.12 Y89.84 E0.6125
G1 X57.12 Y89.18 E0.6345
G1 X57.24 Y89.11 E0.6392
G1 X74.4 Y89.11 E1.2099
G1 X74.73 Y89.06 E1.2208
G1 X74.96 Y88.92 E1.2299
G1 X90.89 Y72.98 E1.9794
G1 X91.04 Y72.75 E1.9885
G1 X91.12 Y72.43 E1.9994
G1 X91.12 Y70 E2.0802
G1 X91.08 Y69.83 E2.0862
G1 X90.94 Y69.6 E2.0953
G1 X90.71 Y69.45 E2.1044
G1 X90.31 Y69.38 E2.1179
G1 X9.98 Y69.38 E4.7897
G1 X9.6 Y69.38 E4.8022
G1 X9.29 Y69.45 E4.8127
G1 X9.06 Y69.6 E4.8218
G1 X8.92 Y69.83 E4.8309
G1 X8.88 Y70.01 E4.8369
G1 X8.88 Y72.62 E4.9239
G1 X8.92 Y72.8 E4.93
G1 X9.06 Y73.03 E4.9391
G1 X9.12 Y73.16 E4.9438
G1 X24.86 Y88.91 E5.6844
G1 X25.09 Y89.05 E5.6935
G1 X25.41 Y89.11 E5.7043
G1 X32.01 Y89.11 E5.9238
G1 X32.24 Y89.27 E5.9328
G1 X32.38 Y89.5 E5.9419
G1 X32.38 Y89.71 E5.9489
G1 X32.36 Y89.88 E5.9545
G1 X24.84 Y89.88 E6.2048
G1 X24.7 Y89.82 E6.2096
G1 X8.2 Y73.32 E6.9857
G1 X8.12 Y73.18 E6.9914
G1 X8.12 Y39.05 E8.1265
G1 X8.12 Y30.19 E8.4213
G1 X8.24 Y30.12 E8.4259
G1 X8.8 Y30.12 E8.4445
G1 X8.88 Y30.22 E8.449
G1 X8.88 Y67.91 E9.7025
G1 X8.92 Y68.09 E9.7086
G1 X9.05 Y68.33 E9.7178
G1 X9.24 Y68.52 E9.7267
G1 X9.37 Y68.58 E9.7316
G1 X9.59 Y68.62 E9.739
G1 X52.96 Y68.62 E11.1815
G1 X90.41 Y68.62 E12.4271
G1 X90.64 Y68.58 E12.4348
G1 X90.87 Y68.44 E12.4439
G1 X91.04 Y68.17 E12.4544
G1 X91.12 Y67.91 E12.4635
G1 X91.12 Y41.16 E13.3533
G1 X91.12 Y30.22 E13.717
G1 X91.2 Y30.12 E13.7215
G1 X91.76 Y30.12 E13.7401
G1 X91.88 Y30.18 E13.7447
G1 X91.88 Y73.03 E15.1698
G1 X91.81 Y73.14 E15.1743
G1 X75.4 Y89.55 E15.946
;
; 'Perimeter', 27.9 [RPM], 17.5 [mm/s]
G1 F9000
G1 X75.25 Y90 E15.946
G1 F1050
G1 X75.34 Y90.24 E15.9546
G1 X75.19 Y90.28 E15.9597
G1 X56.86 Y90.28 E16.5693
G1 X56.72 Y90.24 E16.5744
G1 X56.72 Y88.78 E16.6231
G1 X56.84 Y88.71 E16.6277
G1 X74.38 Y88.71 E17.211
G1 X74.55 Y88.69 E17.2166
G1 X74.68 Y88.63 E17.2214
G1 X90.61 Y72.7 E17.9708
G1 X90.72 Y72.43 E17.9805
G1 X90.72 Y70.01 E18.0611
G1 X90.66 Y69.88 E18.0658
G1 X90.33 Y69.78 E18.0771
G1 X10.05 Y69.78 E20.7472
G1 X9.62 Y69.78 E20.7614
G1 X9.34 Y69.88 E20.7712
G1 X9.28 Y70.01 E20.776
G1 X9.28 Y72.62 E20.8628
G1 X9.4 Y72.88 E20.8723
G1 X25.15 Y88.63 E21.6129
G1 X25.44 Y88.71 E21.623
G1 X29.21 Y88.71 E21.7485
G1 X33.17 Y88.71 E21.8802
G1 X33.28 Y88.78 E21.8847
G1 X33.27 Y89.28 E21.9013
G1 X33.09 Y89.28 E21.9076
G1 X32.84 Y89.42 E21.9168
G1 X32.79 Y89.55 E21.9215
G1 X32.79 Y90.11 E21.9403
G1 X32.77 Y90.28 E21.946
G1 X24.66 Y90.28 E22.2157
G1 X24.51 Y90.2 E22.2212
G1 X7.83 Y73.51 E23.0061
G1 X7.72 Y73.35 E23.0127
G1 X7.71 Y73.25 E23.016
G1 X7.71 Y29.78 E24.4616
G1 X7.83 Y29.71 E24.4662
G1 X9.2 Y29.71 E24.5117
G1 X9.28 Y29.82 E24.5161
G1 X9.28 Y67.91 E25.783
G1 X9.41 Y68.15 E25.7923
G1 X9.57 Y68.22 E25.7978
G1 X90.43 Y68.22 E28.4874
G1 X90.59 Y68.15 E28.4929
G1 X90.72 Y67.9 E28.5022
G1 X90.72 Y29.82 E29.7691
G1 X90.8 Y29.71 E29.7735
G1 X92.17 Y29.71 E29.8189
G1 X92.29 Y29.78 E29.8235
G1 X92.29 Y40.25 E30.1717
G1 X92.29 Y73.25 E31.2692
G1 X92.09 Y73.43 E31.2781
G1 X75.4 Y90.11 E32.063
G1 X75.34 Y90.24 E32.0677
G1 X75.12 Y90.12 E32.0763
; fan off
M107
;
; 'Stacked Sparse Infill', 75.0 [RPM], 47.0 [mm/s]
G1 F9000
G1 X76.02 Y88.29 E32.0763
G1 F2818.7
G1 X76.02 Y88.28 E32.0766
G1 X77.15 Y87.15 E32.1298
G1 X77.16 Y87.16 E32.13
G1 X80.55 Y83.76 E32.2897
G1 X80.54 Y83.76 E32.29
G1 X81.68 Y82.62 E32.3432
G1 X81.68 Y82.63 E32.3434
G1 X85.08 Y79.24 E32.5031
G1 X85.07 Y79.23 E32.5033
G1 X86.2 Y78.1 E32.5566
G1 X86.21 Y78.1 E32.5568
G1 X89.6 Y74.71 E32.7165
G1 X89.6 Y74.7 E32.7167
G1 X90.73 Y73.57 E32.77
G1 X90.73 Y73.58 E32.7702
;
; 'Wipe', 0.0 [RPM], 40.0 [mm/s]
;
; 'Stacked Sparse Infill', 75.0 [RPM], 47.0 [mm/s]
G1 F9000
G1 X91.3 Y69.62 E32.7702
G1 F2818.7
G1 X91.27 Y69.59 E32.7717
G1 X90.73 Y69.05 E32.7971
;
; 'Stacked Sparse Infill', 75.0 [RPM], 47.0 [mm/s]
G1 F9000
G1 X9.27 Y69.05 E32.7971
G1 F2818.7
G1 X8.73 Y68.51 E32.8225
G1 X8.71 Y68.48 E32.824
G1 X8.51 Y69.8 E32.8684
G1 X8.46 Y69.99 E32.875
G1 X8.42 Y70.46 E32.8907
G1 X8.43 Y70.47 E32.8909
;
; 'Wipe', 0.0 [RPM], 40.0 [mm/s]
G1 F210
G1 X8.43 Y70.47 Z4.05 E32.8909
; END_LAYER_OBJECT z=3.60
; Reset extruder pos
G92 E0
; BEGIN_LAYER_OBJECT z=3.80
; fan on
M106
;
; 'Loop', 53.3 [RPM], 33.4 [mm/s]
G1 F9000
G1 X75.4 Y89.55 E0
G1 F210
G1 X75.4 Y89.55 Z3.8 E0
G1 F2004.6
G1 X75.12 Y89.83 E0.0133
G1 X74.98 Y89.88 E0.0182
G1 X57.27 Y89.88 E0.6073
G1 X57.12 Y89.84 E0.6125
G1 X57.12 Y89.18 E0.6345
G1 X57.24 Y89.11 E0.6392
G1 X74.4 Y89.11 E1.2099
G1 X74.73 Y89.06 E1.2208
G1 X74.96 Y88.92 E1.2299
G1 X90.89 Y72.98 E1.9794
G1 X91.04 Y72.75 E1.9885
G1 X91.12 Y72.43 E1.9994
G1 X91.12 Y70 E2.0802
G1 X91.08 Y69.83 E2.0862
G1 X90.94 Y69.6 E2.0953
G1 X90.71 Y69.45 E2.1044
G1 X90.31 Y69.38 E2.1179
G1 X9.98 Y69.38 E4.7897
G1 X9.6 Y69.38 E4.8022
G1 X9.29 Y69.45 E4.8127
G1 X9.06 Y69.6 E4.8218
G1 X8.92 Y69.83 E4.8309
G1 X8.88 Y70.01 E4.8369
G1 X8.88 Y72.62 E4.9239
G1 X8.92 Y72.8 E4.93
G1 X9.06 Y73.03 E4.9391
G1 X9.12 Y73.16 E4.9438
G1 X24.86 Y88.91 E5.6844
G1 X25.09 Y89.05 E5.6935
G1 X25.41 Y89.11 E5.7043
G1 X32.01 Y89.11 E5.9238
G1 X32.24 Y89.27 E5.9328
G1 X32.38 Y89.5 E5.9419
G1 X32.38 Y89.71 E5.9489
G1 X32.36 Y89.88 E5.9545
G1 X24.84 Y89.88 E6.2048
G1 X24.7 Y89.82 E6.2096
G1 X8.2 Y73.32 E6.9857
G1 X8.12 Y73.18 E6.9914
G1 X8.12 Y43.05 E7.9933
G1 X8.12 Y30.19 E8.4213
G1 X8.24 Y30.12 E8.4259
G1 X8.8 Y30.12 E8.4445
G1 X8.88 Y30.22 E8.449
G1 X8.88 Y67.91 E9.7025
G1 X8.92 Y68.09 E9.7086
G1 X9.05 Y68.33 E9.7178
G1 X9.24 Y68.52 E9.7267
G1 X9.37 Y68.58 E9.7316
G1 X9.59 Y68.62 E9.739
G1 X90.41 Y68.62 E12.4271
G1 X90.64 Y68.58 E12.4348
G1 X90.87 Y68.44 E12.4439
G1 X91.04 Y68.17 E12.4544
G1 X91.12 Y67.91 E12.4635
G1 X91.12 Y39.25 E13.4168
G1 X91.12 Y30.22 E13.717
G1 X91.2 Y30.12 E13.7215
G1 X91.76 Y30.12 E13.7401
G1 X91.88 Y30.18 E13.7447
G1 X91.88 Y73.03 E15.1698
G1 X91.81 Y73.14 E15.1743
G1 X75.4 Y89.55 E15.946
;
; 'Perimeter', 27.9 [RPM], 17.5 [mm/s]
G1 F9000
G1 X75.25 Y90 E15.946
G1 F1050
G1 X75.34 Y90.24 E15.9546
G1 X75.19 Y90.28 E15.9597
G1 X56.86 Y90.28 E16.5693
G1 X56.72 Y90.24 E16.5744
G1 X56.72 Y88.78 E16.6231
G1 X56.84 Y88.71 E16.6277
G1 X74.38 Y88.71 E17.211
G1 X74.55 Y88.69 E17.2166
G1 X74.68 Y88.63 E17.2214
G1 X90.61 Y72.7 E17.9708
G1 X90.72 Y72.43 E17.9805
G1 X90.72 Y70.01 E18.0611
G1 X90.66 Y69.88 E18.0658
G1 X90.33 Y69.78 E18.0771
G1 X10.05 Y69.78 E20.7472
G1 X9.62 Y69.78 E20.7614
G1 X9.34 Y69.88 E20.7712
G1 X9.28 Y70.01 E20.776
G1 X9.28 Y72.62 E20.8628
G1 X9.4 Y72.88 E20.8723
G1 X25.15 Y88.63 E21.6129
G1 X25.44 Y88.71 E21.623
G1 X29.21 Y88.71 E21.7485
G1 X33.17 Y88.71 E21.8802
G1 X33.28 Y88.78 E21.8847
G1 X33.27 Y89.28 E21.9013
G1 X33.09 Y89.28 E21.9076
G1 X32.84 Y89.42 E21.9168
G1 X32.79 Y89.55 E21.9215
G1 X32.79 Y90.11 E21.9403
G1 X32.77 Y90.28 E21.946
G1 X24.66 Y90.28 E22.2157
G1 X24.51 Y90.2 E22.2212
G1 X7.83 Y73.51 E23.0061
G1 X7.72 Y73.35 E23.0127
G1 X7.71 Y73.25 E23.016
G1 X7.71 Y29.78 E24.4616
G1 X7.83 Y29.71 E24.4662
G1 X9.2 Y29.71 E24.5117
G1 X9.28 Y29.82 E24.5161
G1 X9.28 Y67.91 E25.783
G1 X9.41 Y68.15 E25.7923
G1 X9.57 Y68.22 E25.7978
G1 X90.43 Y68.22 E28.4874
G1 X90.59 Y68.15 E28.4929
G1 X90.72 Y67.9 E28.5022
G1 X90.72 Y29.82 E29.7691
G1 X90.8 Y29.71 E29.7735
G1 X92.17 Y29.71 E29.8189
G1 X92.29 Y29.78 E29.8235
G1 X92.29 Y73.25 E31.2692
G1 X92.09 Y73.43 E31.2781
G1 X75.4 Y90.11 E32.063
G1 X75.34 Y90.24 E32.0677
G1 X75.12 Y90.12 E32.0763
; fan off
M107
;
; 'Wipe', 0.0 [RPM], 40.0 [mm/s]
G1 F210
G1 X75.12 Y90.12 Z4.25 E32.0763
; END_LAYER_OBJECT z=3.80
; Reset extruder pos
G92 E0
; BEGIN_LAYER_OBJECT z=4.00
; fan on
M106
;
; 'Loop', 53.3 [RPM], 33.4 [mm/s]
G1 F9000
G1 X75.4 Y89.55 E0
G1 F210
G1 X75.4 Y89.55 Z4 E0
G1 F2004.6
G1 X75.12 Y89.83 E0.0133
G1 X74.98 Y89.88 E0.0182
G1 X57.27 Y89.88 E0.6073
G1 X57.12 Y89.84 E0.6125
G1 X57.12 Y89.18 E0.6345
G1 X57.24 Y89.11 E0.6392
G1 X74.4 Y89.11 E1.2099
G1 X74.73 Y89.06 E1.2208
G1 X74.96 Y88.92 E1.2299
G1 X90.89 Y72.98 E1.9794
G1 X91.04 Y72.75 E1.9885
G1 X91.12 Y72.43 E1.9994
G1 X91.12 Y70 E2.0802
G1 X91.08 Y69.83 E2.0862
G1 X90.94 Y69.6 E2.0953
G1 X90.71 Y69.45 E2.1044
G1 X90.31 Y69.38 E2.1179
G1 X9.98 Y69.38 E4.7897
G1 X9.6 Y69.38 E4.8022
G1 X9.29 Y69.45 E4.8127
G1 X9.06 Y69.6 E4.8218
G1 X8.92 Y69.83 E4.8309
G1 X8.88 Y70.01 E4.8369
G1 X8.88 Y72.62 E4.9239
G1 X8.92 Y72.8 E4.93
G1 X9.06 Y73.03 E4.9391
G1 X9.12 Y73.16 E4.9438
G1 X24.86 Y88.91 E5.6844
G1 X25.09 Y89.05 E5.6935
G1 X25.41 Y89.11 E5.7043
G1 X32.01 Y89.11 E5.9238
G1 X32.24 Y89.27 E5.9328
G1 X32.38 Y89.5 E5.9419
G1 X32.38 Y89.71 E5.9489
G1 X32.36 Y89.88 E5.9545
G1 X24.84 Y89.88 E6.2048
G1 X24.7 Y89.82 E6.2096
G1 X8.2 Y73.32 E6.9857
G1 X8.12 Y73.18 E6.9914
G1 X8.12 Y53.19 E7.6562
G1 X8.12 Y33.06 E8.3257
G1 X8.12 Y30.19 E8.4213
G1 X8.24 Y30.12 E8.4259
G1 X8.8 Y30.12 E8.4445
G1 X8.88 Y30.22 E8.449
G1 X8.88 Y67.91 E9.7025
G1 X8.92 Y68.09 E9.7086
G1 X9.05 Y68.33 E9.7178
G1 X9.24 Y68.52 E9.7267
G1 X9.37 Y68.58 E9.7316
G1 X9.59 Y68.62 E9.739
G1 X90.41 Y68.62 E12.4271
G1 X90.64 Y68.58 E12.4348
G1 X90.87 Y68.44 E12.4439
G1 X91.04 Y68.17 E12.4544
G1 X91.12 Y67.91 E12.4635
G1 X91.12 Y39.25 E13.4168
G1 X91.12 Y30.22 E13.717
G1 X91.2 Y30.12 E13.7215
G1 X91.76 Y30.12 E13.7401
G1 X91.88 Y30.18 E13.7447
G1 X91.88 Y73.03 E15.1698
G1 X91.81 Y73.14 E15.1743
G1 X75.4 Y89.55 E15.946
;
; 'Perimeter', 27.9 [RPM], 17.5 [mm/s]
G1 F9000
G1 X75.25 Y90 E15.946
G1 F1050
G1 X75.34 Y90.24 E15.9546
G1 X75.19 Y90.28 E15.9597
G1 X56.86 Y90.28 E16.5693
G1 X56.72 Y90.24 E16.5744
G1 X56.72 Y88.78 E16.6231
G1 X56.84 Y88.71 E16.6277
G1 X74.38 Y88.71 E17.211
G1 X74.55 Y88.69 E17.2166
G1 X74.68 Y88.63 E17.2214
G1 X90.61 Y72.7 E17.9708
G1 X90.72 Y72.43 E17.9805
G1 X90.72 Y70.01 E18.0611
G1 X90.66 Y69.88 E18.0658
G1 X90.33 Y69.78 E18.0771
G1 X10.05 Y69.78 E20.7472
G1 X9.62 Y69.78 E20.7614
G1 X9.34 Y69.88 E20.7712
G1 X9.28 Y70.01 E20.776
G1 X9.28 Y72.62 E20.8628
G1 X9.4 Y72.88 E20.8723
G1 X25.15 Y88.63 E21.6129
G1 X25.44 Y88.71 E21.623
G1 X29.21 Y88.71 E21.7485
G1 X33.17 Y88.71 E21.8802
G1 X33.28 Y88.78 E21.8847
G1 X33.27 Y89.28 E21.9013
G1 X33.09 Y89.28 E21.9076
G1 X32.84 Y89.42 E21.9168
G1 X32.79 Y89.55 E21.9215
G1 X32.79 Y90.11 E21.9403
G1 X32.77 Y90.28 E21.946
G1 X24.66 Y90.28 E22.2157
G1 X24.51 Y90.2 E22.2212
G1 X7.83 Y73.51 E23.0061
G1 X7.72 Y73.35 E23.0127
G1 X7.71 Y73.25 E23.016
G1 X7.71 Y41.47 E24.0728
G1 X7.71 Y29.78 E24.4616
G1 X7.83 Y29.71 E24.4662
G1 X9.2 Y29.71 E24.5117
G1 X9.28 Y29.82 E24.5161
G1 X9.28 Y67.91 E25.783
G1 X9.41 Y68.15 E25.7923
G1 X9.57 Y68.22 E25.7978
G1 X90.43 Y68.22 E28.4874
G1 X90.59 Y68.15 E28.4929
G1 X90.72 Y67.9 E28.5022
G1 X90.72 Y29.82 E29.7691
G1 X90.8 Y29.71 E29.7735
G1 X92.17 Y29.71 E29.8189
G1 X92.29 Y29.78 E29.8235
G1 X92.29 Y73.25 E31.2692
G1 X92.09 Y73.43 E31.2781
G1 X75.4 Y90.11 E32.063
G1 X75.34 Y90.24 E32.0677
G1 X75.12 Y90.12 E32.0763
; fan off
M107
;
; 'Wipe', 0.0 [RPM], 40.0 [mm/s]
;
; 'Stacked Sparse Infill', 75.0 [RPM], 47.0 [mm/s]
G1 F9000
G1 X90.73 Y69.05 E32.0763
G1 F2818.7
G1 X91.27 Y69.59 E32.1017
G1 X91.3 Y69.62 E32.1032
;
; 'Wipe', 0.0 [RPM], 40.0 [mm/s]
;
; 'Stacked Sparse Infill', 75.0 [RPM], 47.0 [mm/s]
G1 F9000
G1 X90.73 Y73.57 E32.1032
G1 F2818.7
G1 X90.73 Y73.58 E32.1034
G1 X89.6 Y74.71 E32.1567
G1 X89.6 Y74.7 E32.1569
G1 X86.2 Y78.1 E32.3166
G1 X86.21 Y78.1 E32.3168
G1 X85.08 Y79.24 E32.37
G1 X85.07 Y79.23 E32.3703
G1 X81.68 Y82.62 E32.53
G1 X81.68 Y82.63 E32.5302
G1 X80.55 Y83.76 E32.5834
G1 X80.54 Y83.76 E32.5837
G1 X77.15 Y87.15 E32.7433
G1 X77.16 Y87.16 E32.7436
G1 X76.02 Y88.29 E32.7968
G1 X76.02 Y88.28 E32.7971
;
; 'Wipe', 0.0 [RPM], 40.0 [mm/s]
;
; 'Stacked Sparse Infill', 75.0 [RPM], 47.0 [mm/s]
G1 F9000
G1 X8.43 Y70.47 E32.7971
G1 F2818.7
G1 X8.42 Y70.46 E32.7974
G1 X8.32 Y69.92 E32.8158
G1 X8.59 Y69.73 E32.8267
G1 X9.27 Y69.05 E32.8586
G1 X8.73 Y68.51 E32.884
G1 X8.71 Y68.48 E32.8855
;
; 'Wipe', 0.0 [RPM], 40.0 [mm/s]
G1 F210
G1 X8.71 Y68.48 Z4.45 E32.8855
; END_LAYER_OBJECT z=4.00
; Reset extruder pos
G92 E0
; BEGIN_LAYER_OBJECT z=4.20
; fan on
M106
;
; 'Loop', 53.3 [RPM], 33.4 [mm/s]
G1 F9000
G1 X75.4 Y89.55 E0
G1 F210
G1 X75.4 Y89.55 Z4.2 E0
G1 F2004.6
G1 X75.12 Y89.83 E0.0133
G1 X74.98 Y89.88 E0.0182
G1 X57.27 Y89.88 E0.6073
G1 X57.12 Y89.84 E0.6125
G1 X57.12 Y89.18 E0.6345
G1 X57.24 Y89.11 E0.6392
G1 X74.4 Y89.11 E1.2099
G1 X74.73 Y89.06 E1.2208
G1 X74.96 Y88.92 E1.2299
G1 X90.89 Y72.98 E1.9794
G1 X91.04 Y72.75 E1.9885
G1 X91.12 Y72.43 E1.9994
G1 X91.12 Y70 E2.0802
G1 X91.08 Y69.83 E2.0862
G1 X90.94 Y69.6 E2.0953
G1 X90.71 Y69.45 E2.1044
G1 X90.31 Y69.38 E2.1179
G1 X9.98 Y69.38 E4.7897
G1 X9.6 Y69.38 E4.8022
G1 X9.29 Y69.45 E4.8127
G1 X9.06 Y69.6 E4.8218
G1 X8.92 Y69.83 E4.8309
G1 X8.88 Y70.01 E4.8369
G1 X8.88 Y72.62 E4.9239
G1 X8.92 Y72.8 E4.93
G1 X9.06 Y73.03 E4.9391
G1 X9.12 Y73.16 E4.9438
G1 X24.86 Y88.91 E5.6844
G1 X25.09 Y89.05 E5.6935
G1 X25.41 Y89.11 E5.7043
G1 X32.01 Y89.11 E5.9238
G1 X32.24 Y89.27 E5.9328
G1 X32.38 Y89.5 E5.9419
G1 X32.38 Y89.71 E5.9489
G1 X32.36 Y89.88 E5.9545
G1 X24.84 Y89.88 E6.2048
G1 X24.7 Y89.82 E6.2096
G1 X8.2 Y73.32 E6.9857
G1 X8.12 Y73.18 E6.9914
G1 X8.12 Y41.17 E8.0561
G1 X8.12 Y30.19 E8.4213
G1 X8.24 Y30.12 E8.4259
G1 X8.8 Y30.12 E8.4445
G1 X8.88 Y30.22 E8.449
G1 X8.88 Y67.91 E9.7025
G1 X8.92 Y68.09 E9.7086
G1 X9.05 Y68.33 E9.7178
G1 X9.24 Y68.52 E9.7267
G1 X9.37 Y68.58 E9.7316
G1 X9.59 Y68.62 E9.739
G1 X90.41 Y68.62 E12.4271
G1 X90.64 Y68.58 E12.4348
G1 X90.87 Y68.44 E12.4439
G1 X91.04 Y68.17 E12.4544
G1 X91.12 Y67.91 E12.4635
G1 X91.12 Y37.55 E13.4733
G1 X91.12 Y30.22 E13.717
G1 X91.2 Y30.12 E13.7215
G1 X91.76 Y30.12 E13.7401
G1 X91.88 Y30.18 E13.7447
G1 X91.88 Y73.03 E15.1698
G1 X91.81 Y73.14 E15.1743
G1 X75.4 Y89.55 E15.946
;
; 'Perimeter', 27.9 [RPM], 17.5 [mm/s]
G1 F9000
G1 X75.25 Y90 E15.946
G1 F1050
G1 X75.34 Y90.24 E15.9546
G1 X75.19 Y90.28 E15.9597
G1 X56.86 Y90.28 E16.5693
G1 X56.72 Y90.24 E16.5744
G1 X56.72 Y88.78 E16.6231
G1 X56.84 Y88.71 E16.6277
G1 X74.38 Y88.71 E17.211
G1 X74.55 Y88.69 E17.2166
G1 X74.68 Y88.63 E17.2214
G1 X90.61 Y72.7 E17.9708
G1 X90.72 Y72.43 E17.9805
G1 X90.72 Y70.01 E18.0611
G1 X90.66 Y69.88 E18.0658
G1 X90.33 Y69.78 E18.0771
G1 X10.05 Y69.78 E20.7472
G1 X9.62 Y69.78 E20.7614
G1 X9.34 Y69.88 E20.7712
G1 X9.28 Y70.01 E20.776
G1 X9.28 Y72.62 E20.8628
G1 X9.4 Y72.88 E20.8723
G1 X25.15 Y88.63 E21.6129
G1 X25.44 Y88.71 E21.623
G1 X29.21 Y88.71 E21.7485
G1 X33.17 Y88.71 E21.8802
G1 X33.28 Y88.78 E21.8847
G1 X33.27 Y89.28 E21.9013
G1 X33.09 Y89.28 E21.9076
G1 X32.84 Y89.42 E21.9168
G1 X32.79 Y89.55 E21.9215
G1 X32.79 Y90.11 E21.9403
G1 X32.77 Y90.28 E21.946
G1 X24.66 Y90.28 E22.2157
G1 X24.51 Y90.2 E22.2212
G1 X7.83 Y73.51 E23.0061
G1 X7.72 Y73.35 E23.0127
G1 X7.71 Y73.25 E23.016
G1 X7.71 Y29.78 E24.4616
G1 X7.83 Y29.71 E24.4662
G1 X9.2 Y29.71 E24.5117
G1 X9.28 Y29.82 E24.5161
G1 X9.28 Y67.91 E25.783
G1 X9.41 Y68.15 E25.7923
G1 X9.57 Y68.22 E25.7978
G1 X90.43 Y68.22 E28.4874
G1 X90.59 Y68.15 E28.4929
G1 X90.72 Y67.9 E28.5022
G1 X90.72 Y29.82 E29.7691
G1 X90.8 Y29.71 E29.7735
G1 X92.17 Y29.71 E29.8189
G1 X92.29 Y29.78 E29.8235
G1 X92.29 Y73.25 E31.2692
G1 X92.09 Y73.43 E31.2781
G1 X75.4 Y90.11 E32.063
G1 X75.34 Y90.24 E32.0677
G1 X75.12 Y90.12 E32.0763
; fan off
M107
;
; 'Wipe', 0.0 [RPM], 40.0 [mm/s]
G1 F210
G1 X75.12 Y90.12 Z4.65 E32.0763
; END_LAYER_OBJECT z=4.20
; Reset extruder pos
G92 E0
; BEGIN_LAYER_OBJECT z=4.40
; fan on
M106
;
; 'Loop', 53.3 [RPM], 33.4 [mm/s]
G1 F9000
G1 X75.4 Y89.55 E0
G1 F210
G1 X75.4 Y89.55 Z4.4 E0
G1 F2004.6
G1 X75.12 Y89.83 E0.0133
G1 X74.98 Y89.88 E0.0182
G1 X57.27 Y89.88 E0.6073
G1 X57.12 Y89.84 E0.6125
G1 X57.12 Y89.18 E0.6345
G1 X57.24 Y89.11 E0.6392
G1 X74.4 Y89.11 E1.2099
G1 X74.73 Y89.06 E1.2208
G1 X74.96 Y88.92 E1.2299
G1 X90.89 Y72.98 E1.9794
G1 X91.04 Y72.75 E1.9885
G1 X91.12 Y72.43 E1.9994
G1 X91.12 Y70 E2.0802
G1 X91.08 Y69.83 E2.0862
G1 X90.94 Y69.6 E2.0953
G1 X90.71 Y69.45 E2.1044
G1 X90.31 Y69.38 E2.1179
G1 X9.98 Y69.38 E4.7897
G1 X9.6 Y69.38 E4.8022
G1 X9.29 Y69.45 E4.8127
G1 X9.06 Y69.6 E4.8218
G1 X8.92 Y69.83 E4.8309
G1 X8.88 Y70.01 E4.8369
G1 X8.88 Y72.62 E4.9239
G1 X8.92 Y72.8 E4.93
G1 X9.06 Y73.03 E4.9391
G1 X9.12 Y73.16 E4.9438
G1 X24.86 Y88.91 E5.6844
G1 X25.09 Y89.05 E5.6935
G1 X25.41 Y89.11 E5.7043
G1 X32.01 Y89.11 E5.9238
G1 X32.24 Y89.27 E5.9328
G1 X32.38 Y89.5 E5.9419
G1 X32.38 Y89.71 E5.9489
G1 X32.36 Y89.88 E5.9545
G1 X24.84 Y89.88 E6.2048
G1 X24.7 Y89.82 E6.2096
G1 X8.2 Y73.32 E6.9857
G1 X8.12 Y73.18 E6.9914
G1 X8.12 Y39.61 E8.1077
G1 X8.12 Y30.19 E8.4213
G1 X8.24 Y30.12 E8.4259
G1 X8.8 Y30.12 E8.4445
G1 X8.88 Y30.22 E8.449
G1 X8.88 Y67.91 E9.7025
G1 X8.92 Y68.09 E9.7086
G1 X9.05 Y68.33 E9.7178
G1 X9.24 Y68.52 E9.7267
G1 X9.37 Y68.58 E9.7316
G1 X9.59 Y68.62 E9.739
G1 X90.41 Y68.62 E12.4271
G1 X90.64 Y68.58 E12.4348
G1 X90.87 Y68.44 E12.4439
G1 X91.04 Y68.17 E12.4544
G1 X91.12 Y67.91 E12.4635
G1 X91.12 Y42.85 E13.2969
G1 X91.12 Y30.22 E13.717
G1 X91.2 Y30.12 E13.7215
G1 X91.76 Y30.12 E13.7401
G1 X91.88 Y30.18 E13.7447
G1 X91.88 Y73.03 E15.1698
G1 X91.81 Y73.14 E15.1743
G1 X75.4 Y89.55 E15.946
;
; 'Perimeter', 27.9 [RPM], 17.5 [mm/s]
G1 F9000
G1 X75.25 Y90 E15.946
G1 F1050
G1 X75.34 Y90.24 E15.9546
G1 X75.19 Y90.28 E15.9597
G1 X56.86 Y90.28 E16.5693
G1 X56.72 Y90.24 E16.5744
G1 X56.72 Y88.78 E16.6231
G1 X56.84 Y88.71 E16.6277
G1 X74.38 Y88.71 E17.211
G1 X74.55 Y88.69 E17.2166
G1 X74.68 Y88.63 E17.2214
G1 X90.61 Y72.7 E17.9708
G1 X90.72 Y72.43 E17.9805
G1 X90.72 Y70.01 E18.0611
G1 X90.66 Y69.88 E18.0658
G1 X90.33 Y69.78 E18.0771
G1 X10.05 Y69.78 E20.7472
G1 X9.62 Y69.78 E20.7614
G1 X9.34 Y69.88 E20.7712
G1 X9.28 Y70.01 E20.776
G1 X9.28 Y72.62 E20.8628
G1 X9.4 Y72.88 E20.8723
