; KISSlicer - PRO
; Linux
; version 1.0.9.7
; Built: Jun 12 2012, 22:57:28
;
; Saved: Mon Apr 29 16:07:33 2013
; 'HeadMount.gcode'
;
; *** Printer Settings ***
;
; printer_name = Blade-1
; extension = gcode
; cost_per_hour = 2.5
; g_code_prefix = 473238
; g_code_postfix = 0A4D313430205330203B207475726E206F6666206265640A4730205938302046353030303B2050726573656E7420506172740A4D383420202020203B2064697361626C65206D6F746F72730A
; g_code_ext_change = NULL
; post_process = NULL
; num_extruders = 1
; firmware_type = 2
; M104_M109 = 1
; add_comments = 1
; z_speed_mm_per_s = 3.5
; z_settle_mm = 0.25
; bed_size_x_mm = 100
; bed_size_y_mm = 100
; bed_size_z_mm = 150
; bed_offset_x_mm = 50
; bed_offset_y_mm = 60
; bed_offset_z_mm = 0
; bed_roughness_mm = 0.4
; travel_speed_mm_per_s = 150
; first_layer_speed_mm_per_s = 10
; lo_speed_perim_mm_per_s = 10
; lo_speed_solid_mm_per_s = 20
; lo_speed_sparse_mm_per_s = 30
; hi_speed_perim_mm_per_s = 25
; hi_speed_solid_mm_per_s = 60
; hi_speed_sparse_mm_per_s = 75
; ext_mm_per_rev_1 = 1.25
; ext_material_1 = 0
; ext_axis_1 = 0
; ext_mm_per_rev_2 = 1.25
; ext_material_2 = 0
; ext_axis_2 = 0
; ext_mm_per_rev_3 = 1.25
; ext_material_3 = 0
; ext_axis_3 = 0
; model_ext = 0
; support_ext = 0
; support_body_ext = 0
; raft_ext = 0
; solid_loop_overlap_fraction = 0.5
;
; *** Material Settings for Extruder 1 ***
;
; material_name = ABS
; fan_off_ISOs_all = 1
; temperature_C = 250
; keep_warm_C = 150
; first_layer_C = 250
; bed_C = 110
; sec_per_C_per_C = 0
; RPM_min = 3
; RPM_max = 75
; destring_suck = 0.4
; destring_prime = 0.2
; destring_min_mm = 0
; destring_speed_mm_per_s = 15
; min_layer_time_s = 15
; wipe_mm = 0
; cost_per_cm3 = 0.062
; flowrate_tweak = 1
; fiber_dia_mm = 1.75
; color = 0
;
; *** Style Settings ***
;
; style_name = High
; layer_thickness_mm = 0.2
; extrusion_width_mm = 0.4
; num_loops = 2
; skin_thickness_mm = 0.8
; infill_extrusion_width = 0.4
; infill_density_denominator = 4
; stacked_layers = 1
; use_destring = 0
; loops_insideout = 1
; round_infill = 1
;
; *** Actual Slicing Settings As Used ***
;
; layer_thickness_mm = 0.2
; extrusion_width = 0.4
; num_ISOs = 2
; wall_thickness = 0.8
; infill_style = 5
; support_style = 0
; support_angle = 90
; destring_min_mm = 0
; stacked_infill_layers = 1
; ISO_wipe_mm = 0
; raft_style = 0
; extra_raft_depth = 0.4
; oversample_res_mm = 0.125
; crowning_threshold_mm = 1
; loops_insideout = 1
; sheathed_support = 0
; solid_loop_overlap_fraction = 0.5
; inflate_raft_mm = 0
; inflate_support_mm = 1
; model_support_gap_mm = 0.5
; round_infill = 1
; Speed vs Quality = 0.50
;
; *** Header ***
;
; fan off
M107
; [mm] mode
G21
; absolute mode
G90
; *** User-Supplied G-code Prefix ***
;
G28
;
; *** Main G-code ***
;
; Reset extruder pos
G92 E0
; BEGIN_LAYER_OBJECT z=0.20
;
; *** Warming Extruder 1 to 250 C ***
M109 S250
G92 E0
;
;
; 'Loop', 16.0 [RPM], 10.0 [mm/s]
G1 F9000
G1 X75.88 Y94.37 Z0.45 E0
G1 F210
G1 X75.88 Y94.37 Z0.2 E0
G1 F600
G1 X75.71 Y94.38 E0.0058
G1 X24.29 Y94.38 E1.7159
G1 X24.12 Y94.37 E1.7218
G1 X24.12 Y25.63 E4.0079
G1 X24.29 Y25.62 E4.0138
G1 X48.55 Y25.62 E4.8207
G1 X75.71 Y25.62 E5.7239
G1 X75.88 Y25.63 E5.7297
G1 X75.88 Y64.76 E7.0312
G1 X75.88 Y94.37 E8.0159
;
; 'Wipe', 0.0 [RPM], 10.0 [mm/s]
;
; 'Perimeter', 16.0 [RPM], 10.0 [mm/s]
G1 F9000
G1 X76.14 Y94.53 E8.0159
G1 F600
G1 X76.28 Y94.77 E8.0251
G1 X76.11 Y94.78 E8.0309
G1 X23.89 Y94.78 E9.7676
G1 X23.72 Y94.77 E9.7735
G1 X23.72 Y57.06 E11.0278
G1 X23.72 Y25.23 E12.0863
G1 X23.89 Y25.22 E12.0921
G1 X76.11 Y25.22 E13.8288
G1 X76.12 Y25.22 E13.8294
G1 X76.28 Y25.23 E13.8347
G1 X76.28 Y65.73 E15.1816
G1 X76.28 Y94.77 E16.1475
G1 X76.04 Y94.64 E16.1567
;
; 'Solid', 16.0 [RPM], 10.0 [mm/s]
G1 F9000
G1 X75.32 Y94.07 E16.1567
G1 F600
G1 X75.52 Y93.87 E16.1661
G1 X75.52 Y93.31 E16.1849
G1 X74.81 Y94.02 E16.2184
G1 X74.24 Y94.02 E16.2372
G1 X75.52 Y92.74 E16.2973
G1 X75.52 Y92.18 E16.3161
G1 X73.68 Y94.02 E16.4028
G1 X73.11 Y94.02 E16.4216
G1 X75.52 Y91.61 E16.535
G1 X75.52 Y91.05 E16.5538
G1 X72.55 Y94.02 E16.6937
G1 X71.98 Y94.02 E16.7125
G1 X75.52 Y90.48 E16.8791
G1 X75.52 Y89.92 E16.8979
G1 X71.42 Y94.02 E17.091
G1 X70.85 Y94.02 E17.1098
G1 X75.52 Y89.35 E17.3296
G1 X75.52 Y88.78 E17.3484
G1 X70.28 Y94.02 E17.5948
G1 X69.72 Y94.02 E17.6136
G1 X75.52 Y88.22 E17.8865
G1 X75.52 Y87.65 E17.9054
G1 X69.15 Y94.02 E18.2049
G1 X68.59 Y94.02 E18.2238
G1 X75.52 Y87.09 E18.5499
G1 X75.52 Y86.52 E18.5688
G1 X68.02 Y94.02 E18.9215
G1 X67.46 Y94.02 E18.9404
G1 X75.52 Y85.96 E19.3198
G1 X75.52 Y85.39 E19.3386
G1 X66.89 Y94.02 E19.7446
G1 X66.32 Y94.02 E19.7634
G1 X75.52 Y84.82 E20.196
G1 X75.52 Y84.26 E20.2148
G1 X65.76 Y94.02 E20.6741
G1 X65.19 Y94.02 E20.6929
G1 X75.52 Y83.69 E21.1787
G1 X75.52 Y83.13 E21.1975
G1 X64.63 Y94.02 E21.71
G1 X64.06 Y94.02 E21.7288
G1 X75.52 Y82.56 E22.2678
G1 X75.52 Y82 E22.2866
G1 X63.5 Y94.02 E22.8523
G1 X62.93 Y94.02 E22.8711
G1 X75.52 Y81.43 E23.4634
G1 X75.52 Y80.86 E23.4822
G1 X62.36 Y94.02 E24.1011
G1 X61.8 Y94.02 E24.1199
G1 X75.52 Y80.3 E24.7654
G1 X75.52 Y79.73 E24.7842
G1 X61.23 Y94.02 E25.4563
G1 X60.67 Y94.02 E25.4751
G1 X75.52 Y79.17 E26.1738
G1 X75.52 Y78.6 E26.1926
G1 X60.1 Y94.02 E26.9179
G1 X59.54 Y94.02 E26.9367
G1 X75.52 Y78.04 E27.6886
G1 X75.52 Y77.47 E27.7075
G1 X58.97 Y94.02 E28.486
G1 X58.4 Y94.02 E28.5048
G1 X75.52 Y76.9 E29.3099
G1 X75.52 Y76.34 E29.3287
G1 X57.84 Y94.02 E30.1605
G1 X57.27 Y94.02 E30.1793
G1 X75.52 Y75.77 E31.0377
G1 X75.52 Y75.21 E31.0565
G1 X56.71 Y94.02 E31.9414
G1 X56.14 Y94.02 E31.9602
G1 X75.52 Y74.64 E32.8718
G1 X75.52 Y74.08 E32.8906
G1 X55.58 Y94.02 E33.8288
G1 X55.01 Y94.02 E33.8476
G1 X75.52 Y73.51 E34.8124
G1 X75.52 Y72.94 E34.8312
G1 X54.45 Y94.02 E35.8226
G1 X53.88 Y94.02 E35.8414
G1 X75.52 Y72.38 E36.8594
G1 X75.52 Y71.81 E36.8782
G1 X53.31 Y94.02 E37.9228
G1 X52.75 Y94.02 E37.9416
G1 X75.52 Y71.25 E39.0128
G1 X75.52 Y70.68 E39.0317
G1 X52.18 Y94.02 E40.1295
G1 X51.62 Y94.02 E40.1483
G1 X75.52 Y70.12 E41.2727
G1 X75.52 Y69.55 E41.2915
G1 X51.05 Y94.02 E42.4426
G1 X50.49 Y94.02 E42.4614
G1 X75.52 Y68.98 E43.639
G1 X75.52 Y68.42 E43.6578
G1 X49.92 Y94.02 E44.8621
G1 X49.35 Y94.02 E44.8809
G1 X75.52 Y67.85 E46.1118
G1 X75.52 Y67.29 E46.1306
G1 X48.79 Y94.02 E47.3881
G1 X48.22 Y94.02 E47.4069
G1 X75.52 Y66.72 E48.691
G1 X75.52 Y66.16 E48.7098
G1 X47.66 Y94.02 E50.0205
G1 X47.09 Y94.02 E50.0393
G1 X75.52 Y65.59 E51.3766
G1 X75.52 Y65.03 E51.3954
G1 X46.53 Y94.02 E52.7593
G1 X45.96 Y94.02 E52.7781
G1 X75.52 Y64.46 E54.1686
G1 X75.52 Y63.89 E54.1874
G1 X45.39 Y94.02 E55.6045
G1 X44.83 Y94.02 E55.6234
G1 X75.52 Y63.33 E57.0671
G1 X75.52 Y62.76 E57.0859
G1 X44.26 Y94.02 E58.5562
G1 X43.7 Y94.02 E58.575
G1 X75.52 Y62.2 E60.072
G1 X75.52 Y61.63 E60.0908
G1 X43.13 Y94.02 E61.6143
G1 X42.57 Y94.02 E61.6332
G1 X75.52 Y61.07 E63.1833
G1 X75.52 Y60.5 E63.2021
G1 X42 Y94.02 E64.7789
G1 X41.43 Y94.02 E64.7977
G1 X75.52 Y59.93 E66.4011
G1 X75.52 Y59.37 E66.4199
G1 X40.87 Y94.02 E68.0499
G1 X40.3 Y94.02 E68.0687
G1 X75.52 Y58.8 E69.7253
G1 X75.52 Y58.24 E69.7441
G1 X39.74 Y94.02 E71.4273
G1 X39.17 Y94.02 E71.4461
G1 X75.52 Y57.67 E73.1559
G1 X75.52 Y57.11 E73.1747
G1 X38.61 Y94.02 E74.9112
G1 X38.04 Y94.02 E74.93
G1 X75.52 Y56.54 E76.693
G1 X75.52 Y55.97 E76.7118
G1 X37.47 Y94.02 E78.5014
G1 X36.91 Y94.02 E78.5203
G1 X75.52 Y55.41 E80.3365
G1 X75.52 Y54.84 E80.3553
G1 X36.34 Y94.02 E82.1982
G1 X35.78 Y94.02 E82.217
G1 X75.52 Y54.28 E84.0864
G1 X75.52 Y53.71 E84.1052
G1 X35.21 Y94.02 E86.0013
G1 X34.65 Y94.02 E86.0201
G1 X75.52 Y53.15 E87.9428
G1 X75.52 Y52.58 E87.9616
G1 X34.08 Y94.02 E89.9109
G1 X33.51 Y94.02 E89.9297
G1 X75.52 Y52.01 E91.9056
G1 X75.52 Y51.45 E91.9244
G1 X32.95 Y94.02 E93.9269
G1 X32.38 Y94.02 E93.9457
G1 X75.52 Y50.88 E95.9748
G1 X75.52 Y50.32 E95.9936
G1 X31.82 Y94.02 E98.0494
G1 X31.25 Y94.02 E98.0682
G1 X75.52 Y49.75 E100.1505
G1 X75.52 Y49.19 E100.1693
G1 X30.69 Y94.02 E102.2782
G1 X30.12 Y94.02 E102.2971
G1 X75.52 Y48.62 E104.4326
G1 X75.52 Y48.05 E104.4514
G1 X29.55 Y94.02 E106.6135
G1 X28.99 Y94.02 E106.6324
G1 X75.52 Y47.49 E108.8211
G1 X75.52 Y46.92 E108.8399
G1 X28.42 Y94.02 E111.0553
G1 X27.86 Y94.02 E111.0741
G1 X75.52 Y46.36 E113.3161
G1 X75.52 Y45.79 E113.3349
G1 X27.29 Y94.02 E115.6035
G1 X26.73 Y94.02 E115.6223
G1 X75.52 Y45.23 E117.9175
G1 X75.52 Y44.66 E117.9363
G1 X26.16 Y94.02 E120.2581
G1 X25.6 Y94.02 E120.2769
G1 X75.52 Y44.09 E122.6253
G1 X75.52 Y43.53 E122.6441
G1 X25.03 Y94.02 E125.0192
G1 X24.48 Y94.01 E125.0375
G1 X75.52 Y42.96 E127.4386
G1 X75.52 Y42.4 E127.4574
G1 X24.48 Y93.44 E129.8583
G1 X24.48 Y92.88 E129.8771
G1 X75.52 Y41.83 E132.2781
G1 X75.52 Y41.27 E132.2969
G1 X24.48 Y92.31 E134.6979
G1 X24.48 Y91.74 E134.7167
G1 X75.52 Y40.7 E137.1176
G1 X75.52 Y40.13 E137.1364
G1 X24.48 Y91.18 E139.5374
G1 X24.48 Y90.61 E139.5562
G1 X75.52 Y39.57 E141.9572
G1 X75.52 Y39 E141.976
G1 X24.48 Y90.05 E144.3769
G1 X24.48 Y89.48 E144.3957
G1 X75.52 Y38.44 E146.7967
G1 X75.52 Y37.87 E146.8155
G1 X24.48 Y88.92 E149.2165
G1 X24.48 Y88.35 E149.2353
G1 X75.52 Y37.31 E151.6362
G1 X75.52 Y36.74 E151.655
G1 X24.48 Y87.78 E154.056
G1 X24.48 Y87.22 E154.0748
G1 X75.52 Y36.18 E156.4758
G1 X75.52 Y35.61 E156.4946
G1 X24.48 Y86.65 E158.8955
G1 X24.48 Y86.09 E158.9143
G1 X75.52 Y35.04 E161.3153
G1 X75.52 Y34.48 E161.3341
G1 X24.48 Y85.52 E163.7351
G1 X24.48 Y84.96 E163.7539
G1 X75.52 Y33.91 E166.1548
G1 X75.52 Y33.35 E166.1736
G1 X24.48 Y84.39 E168.5746
G1 X24.48 Y83.82 E168.5934
G1 X75.52 Y32.78 E170.9944
G1 X75.52 Y32.22 E171.0132
G1 X24.48 Y83.26 E173.4141
G1 X24.48 Y82.69 E173.4329
G1 X75.52 Y31.65 E175.8339
G1 X75.52 Y31.08 E175.8527
G1 X24.48 Y82.13 E178.2536
G1 X24.48 Y81.56 E178.2725
G1 X75.52 Y30.52 E180.6734
G1 X75.52 Y29.95 E180.6922
G1 X24.48 Y81 E183.0932
G1 X24.48 Y80.43 E183.112
G1 X75.52 Y29.39 E185.513
G1 X75.52 Y28.82 E185.5318
G1 X24.48 Y79.87 E187.9327
G1 X24.48 Y79.3 E187.9515
G1 X75.52 Y28.26 E190.3525
G1 X75.52 Y27.69 E190.3713
G1 X24.48 Y78.73 E192.7722
G1 X24.48 Y78.17 E192.7911
G1 X75.52 Y27.12 E195.192
G1 X75.52 Y26.56 E195.2108
G1 X24.48 Y77.6 E197.6118
G1 X24.48 Y77.04 E197.6306
G1 X75.52 Y25.99 E200.0316
G1 X74.97 Y25.98 E200.05
G1 X24.48 Y76.47 E202.425
G1 X24.48 Y75.91 E202.4439
G1 X74.4 Y25.98 E204.7923
G1 X73.84 Y25.98 E204.8111
G1 X24.48 Y75.34 E207.1329
G1 X24.48 Y74.77 E207.1517
G1 X73.27 Y25.98 E209.4469
G1 X72.71 Y25.98 E209.4657
G1 X24.48 Y74.21 E211.7343
G1 X24.48 Y73.64 E211.7531
G1 X72.14 Y25.98 E213.9951
G1 X71.58 Y25.98 E214.0139
G1 X24.48 Y73.08 E216.2292
G1 X24.48 Y72.51 E216.248
G1 X71.01 Y25.98 E218.4368
G1 X70.45 Y25.98 E218.4556
G1 X24.48 Y71.95 E220.6178
G1 X24.48 Y71.38 E220.6366
G1 X69.88 Y25.98 E222.7721
G1 X69.31 Y25.98 E222.7909
G1 X24.48 Y70.81 E224.8999
G1 X24.48 Y70.25 E224.9187
G1 X68.75 Y25.98 E227.001
G1 X68.18 Y25.98 E227.0198
G1 X24.48 Y69.68 E229.0755
G1 X24.48 Y69.12 E229.0943
G1 X67.62 Y25.98 E231.1235
G1 X67.05 Y25.98 E231.1423
G1 X24.48 Y68.55 E233.1448
G1 X24.48 Y67.99 E233.1636
G1 X66.49 Y25.98 E235.1395
G1 X65.92 Y25.98 E235.1583
G1 X24.48 Y67.42 E237.1076
G1 X24.48 Y66.85 E237.1264
G1 X65.35 Y25.98 E239.0491
G1 X64.79 Y25.98 E239.0679
G1 X24.48 Y66.29 E240.9639
G1 X24.48 Y65.72 E240.9827
G1 X64.22 Y25.98 E242.8522
G1 X63.66 Y25.98 E242.871
G1 X24.48 Y65.16 E244.7139
G1 X24.48 Y64.59 E244.7327
G1 X63.09 Y25.98 E246.5489
G1 X62.53 Y25.98 E246.5677
G1 X24.48 Y64.03 E248.3574
G1 X24.48 Y63.46 E248.3762
G1 X61.96 Y25.98 E250.1392
G1 X61.39 Y25.98 E250.158
G1 X24.48 Y62.89 E251.8944
G1 X24.48 Y62.33 E251.9133
G1 X60.83 Y25.98 E253.6231
G1 X60.26 Y25.98 E253.6419
G1 X24.48 Y61.76 E255.3251
G1 X24.48 Y61.2 E255.3439
G1 X59.7 Y25.98 E257.0005
G1 X59.13 Y25.98 E257.0193
G1 X24.48 Y60.63 E258.6493
G1 X24.48 Y60.07 E258.6681
G1 X58.57 Y25.98 E260.2715
G1 X58 Y25.98 E260.2903
G1 X24.48 Y59.5 E261.8671
G1 X24.48 Y58.93 E261.8859
G1 X57.43 Y25.98 E263.436
G1 X56.87 Y25.98 E263.4549
G1 X24.48 Y58.37 E264.9784
G1 X24.48 Y57.8 E264.9972
G1 X56.3 Y25.98 E266.4942
G1 X55.74 Y25.98 E266.513
G1 X24.48 Y57.24 E267.9833
G1 X24.48 Y56.67 E268.0021
G1 X55.17 Y25.98 E269.4459
G1 X54.61 Y25.98 E269.4647
G1 X24.48 Y56.11 E270.8818
G1 X24.48 Y55.54 E270.9006
G1 X54.04 Y25.98 E272.2911
G1 X53.47 Y25.98 E272.3099
G1 X24.48 Y54.97 E273.6738
G1 X24.48 Y54.41 E273.6927
G1 X52.91 Y25.98 E275.0299
G1 X52.34 Y25.98 E275.0488
G1 X24.48 Y53.84 E276.3594
G1 X24.48 Y53.28 E276.3783
G1 X51.78 Y25.98 E277.6624
G1 X51.21 Y25.98 E277.6812
G1 X24.48 Y52.71 E278.9386
G1 X24.48 Y52.15 E278.9574
G1 X50.65 Y25.98 E280.1883
G1 X50.08 Y25.98 E280.2071
G1 X24.48 Y51.58 E281.4114
G1 X24.48 Y51.02 E281.4302
G1 X49.51 Y25.98 E282.6078
G1 X48.95 Y25.98 E282.6266
G1 X24.48 Y50.45 E283.7777
G1 X24.48 Y49.88 E283.7965
G1 X48.38 Y25.98 E284.9209
G1 X47.82 Y25.98 E284.9398
G1 X24.48 Y49.32 E286.0376
G1 X24.48 Y48.75 E286.0564
G1 X47.25 Y25.98 E287.1276
G1 X46.69 Y25.98 E287.1464
G1 X24.48 Y48.19 E288.191
G1 X24.48 Y47.62 E288.2098
G1 X46.12 Y25.98 E289.2278
G1 X45.55 Y25.98 E289.2466
G1 X24.48 Y47.06 E290.238
G1 X24.48 Y46.49 E290.2569
G1 X44.99 Y25.98 E291.2216
G1 X44.42 Y25.98 E291.2404
G1 X24.48 Y45.92 E292.1786
G1 X24.48 Y45.36 E292.1974
G1 X43.86 Y25.98 E293.109
G1 X43.29 Y25.98 E293.1278
G1 X24.48 Y44.79 E294.0128
G1 X24.48 Y44.23 E294.0316
G1 X42.73 Y25.98 E294.89
G1 X42.16 Y25.98 E294.9088
G1 X24.48 Y43.66 E295.7405
G1 X24.48 Y43.1 E295.7593
G1 X41.6 Y25.98 E296.5645
G1 X41.03 Y25.98 E296.5833
G1 X24.48 Y42.53 E297.3618
G1 X24.48 Y41.96 E297.3806
G1 X40.46 Y25.98 E298.1325
G1 X39.9 Y25.98 E298.1513
G1 X24.48 Y41.4 E298.8766
G1 X24.48 Y40.83 E298.8954
G1 X39.33 Y25.98 E299.5941
G1 X38.77 Y25.98 E299.613
G1 X24.48 Y40.27 E300.2851
G1 X24.48 Y39.7 E300.3039
G1 X38.2 Y25.98 E300.9494
G1 X37.64 Y25.98 E300.9682
G1 X24.48 Y39.14 E301.5871
G1 X24.48 Y38.57 E301.6059
G1 X37.07 Y25.98 E302.1982
G1 X36.5 Y25.98 E302.2169
G1 X24.48 Y38 E302.7826
G1 X24.48 Y37.44 E302.8014
G1 X35.94 Y25.98 E303.3405
G1 X35.37 Y25.98 E303.3593
G1 X24.48 Y36.87 E303.8717
G1 X24.48 Y36.31 E303.8906
G1 X34.81 Y25.98 E304.3764
G1 X34.24 Y25.98 E304.3952
G1 X24.48 Y35.74 E304.8544
G1 X24.48 Y35.18 E304.8732
G1 X33.68 Y25.98 E305.3059
G1 X33.11 Y25.98 E305.3247
G1 X24.48 Y34.61 E305.7307
G1 X24.48 Y34.04 E305.7495
G1 X32.54 Y25.98 E306.1289
G1 X31.98 Y25.98 E306.1477
G1 X24.48 Y33.48 E306.5005
G1 X24.48 Y32.91 E306.5193
G1 X31.41 Y25.98 E306.8455
G1 X30.85 Y25.98 E306.8643
G1 X24.48 Y32.35 E307.1639
G1 X24.48 Y31.78 E307.1827
G1 X30.28 Y25.98 E307.4557
G1 X29.72 Y25.98 E307.4745
G1 X24.48 Y31.22 E307.7209
G1 X24.48 Y30.65 E307.7397
G1 X29.15 Y25.98 E307.9594
G1 X28.58 Y25.98 E307.9783
G1 X24.48 Y30.08 E308.1714
G1 X24.48 Y29.52 E308.1902
G1 X28.02 Y25.98 E308.3568
G1 X27.45 Y25.98 E308.3756
G1 X24.48 Y28.95 E308.5155
G1 X24.48 Y28.39 E308.5343
G1 X26.89 Y25.98 E308.6476
G1 X26.32 Y25.98 E308.6665
G1 X24.48 Y27.82 E308.7532
G1 X24.48 Y27.26 E308.772
G1 X25.76 Y25.98 E308.8321
G1 X25.19 Y25.98 E308.8509
G1 X24.48 Y26.69 E308.8844
G1 X24.48 Y26.13 E308.9032
G1 X24.63 Y25.97 E308.9106
;
; 'Wipe', 0.0 [RPM], 10.0 [mm/s]
G1 F210
G1 X24.63 Y25.97 Z0.65 E308.9106
; END_LAYER_OBJECT z=0.20
; Reset extruder pos
G92 E0
; BEGIN_LAYER_OBJECT z=0.40
; fan on
M106
;
; 'Loop', 53.3 [RPM], 33.4 [mm/s]
G1 F9000
G1 X75.88 Y94.37 E0
G1 F210
G1 X75.88 Y94.37 Z0.4 E0
G1 F2004.6
G1 X75.71 Y94.38 E0.0058
G1 X24.29 Y94.38 E1.7159
G1 X24.12 Y94.37 E1.7218
G1 X24.12 Y25.63 E4.0079
G1 X24.29 Y25.62 E4.0138
G1 X59.3 Y25.62 E5.1782
G1 X75.71 Y25.62 E5.7239
G1 X75.88 Y25.63 E5.7297
G1 X75.88 Y80.04 E7.5392
G1 X75.88 Y94.37 E8.0159
; fan off
M107
;
; 'Wipe', 0.0 [RPM], 40.0 [mm/s]
; fan on
M106
;
; 'Perimeter', 27.9 [RPM], 17.5 [mm/s]
G1 F9000
G1 X76.14 Y94.53 E8.0159
G1 F1050
G1 X76.28 Y94.77 E8.0251
G1 X76.11 Y94.78 E8.0309
G1 X23.89 Y94.78 E9.7676
G1 X23.72 Y94.77 E9.7735
G1 X23.72 Y57.06 E11.0278
G1 X23.72 Y25.23 E12.0863
G1 X23.89 Y25.22 E12.0921
G1 X75.94 Y25.22 E13.8231
G1 X76.11 Y25.22 E13.8288
G1 X76.28 Y25.23 E13.8347
G1 X76.28 Y94.77 E16.1475
G1 X76.04 Y94.64 E16.1567
; fan off
M107
;
; 'Solid', 63.9 [RPM], 40.0 [mm/s]
G1 F9000
G1 X75.32 Y25.93 E16.1567
G1 F2400
G1 X75.52 Y26.13 E16.1661
G1 X75.52 Y26.69 E16.1849
G1 X74.81 Y25.98 E16.2184
G1 X74.24 Y25.98 E16.2372
G1 X75.52 Y27.26 E16.2973
G1 X75.52 Y27.82 E16.3161
G1 X73.68 Y25.98 E16.4028
G1 X73.11 Y25.98 E16.4216
G1 X75.52 Y28.39 E16.535
G1 X75.52 Y28.95 E16.5538
G1 X72.55 Y25.98 E16.6937
G1 X71.98 Y25.98 E16.7125
G1 X75.52 Y29.52 E16.8791
G1 X75.52 Y30.08 E16.8979
G1 X71.42 Y25.98 E17.091
G1 X70.85 Y25.98 E17.1098
G1 X75.52 Y30.65 E17.3296
G1 X75.52 Y31.22 E17.3484
G1 X70.28 Y25.98 E17.5948
G1 X69.72 Y25.98 E17.6136
G1 X75.52 Y31.78 E17.8865
G1 X75.52 Y32.35 E17.9054
G1 X69.15 Y25.98 E18.2049
G1 X68.59 Y25.98 E18.2238
G1 X75.52 Y32.91 E18.5499
G1 X75.52 Y33.48 E18.5688
G1 X68.02 Y25.98 E18.9216
G1 X67.46 Y25.98 E18.9404
G1 X75.52 Y34.04 E19.3198
G1 X75.52 Y34.61 E19.3386
G1 X66.89 Y25.98 E19.7446
G1 X66.32 Y25.98 E19.7634
G1 X75.52 Y35.18 E20.196
G1 X75.52 Y35.74 E20.2148
G1 X65.76 Y25.98 E20.6741
G1 X65.19 Y25.98 E20.6929
G1 X75.52 Y36.31 E21.1787
G1 X75.52 Y36.87 E21.1975
G1 X64.63 Y25.98 E21.71
G1 X64.06 Y25.98 E21.7288
G1 X75.52 Y37.44 E22.2678
G1 X75.52 Y38 E22.2867
G1 X63.5 Y25.98 E22.8523
G1 X62.93 Y25.98 E22.8711
G1 X75.52 Y38.57 E23.4634
G1 X75.52 Y39.14 E23.4822
G1 X62.36 Y25.98 E24.1011
G1 X61.8 Y25.98 E24.1199
G1 X75.52 Y39.7 E24.7654
G1 X75.52 Y40.27 E24.7842
G1 X61.23 Y25.98 E25.4563
G1 X60.67 Y25.98 E25.4751
G1 X75.52 Y40.83 E26.1738
G1 X75.52 Y41.4 E26.1926
G1 X60.1 Y25.98 E26.9179
G1 X59.54 Y25.98 E26.9367
G1 X75.52 Y41.96 E27.6887
G1 X75.52 Y42.53 E27.7075
G1 X58.97 Y25.98 E28.486
G1 X58.41 Y25.98 E28.5048
G1 X75.52 Y43.1 E29.3099
G1 X75.52 Y43.66 E29.3288
G1 X57.84 Y25.98 E30.1605
G1 X57.27 Y25.98 E30.1793
G1 X75.52 Y44.23 E31.0377
G1 X75.52 Y44.79 E31.0565
G1 X56.71 Y25.98 E31.9414
G1 X56.14 Y25.98 E31.9602
G1 X75.52 Y45.36 E32.8718
G1 X75.52 Y45.92 E32.8906
G1 X55.58 Y25.98 E33.8288
G1 X55.01 Y25.98 E33.8476
G1 X75.52 Y46.49 E34.8124
G1 X75.52 Y47.06 E34.8312
G1 X54.45 Y25.98 E35.8226
G1 X53.88 Y25.98 E35.8414
G1 X75.52 Y47.62 E36.8594
G1 X75.52 Y48.19 E36.8782
G1 X53.31 Y25.98 E37.9228
G1 X52.75 Y25.98 E37.9416
G1 X75.52 Y48.75 E39.0129
G1 X75.52 Y49.32 E39.0317
G1 X52.18 Y25.98 E40.1295
G1 X51.62 Y25.98 E40.1483
G1 X75.52 Y49.88 E41.2727
G1 X75.52 Y50.45 E41.2915
G1 X51.05 Y25.98 E42.4426
G1 X50.49 Y25.98 E42.4614
G1 X75.52 Y51.02 E43.639
G1 X75.52 Y51.58 E43.6579
G1 X49.92 Y25.98 E44.8621
G1 X49.35 Y25.98 E44.8809
G1 X75.52 Y52.15 E46.1118
G1 X75.52 Y52.71 E46.1306
G1 X48.79 Y25.98 E47.3881
G1 X48.22 Y25.98 E47.4069
G1 X75.52 Y53.28 E48.691
G1 X75.52 Y53.84 E48.7098
G1 X47.66 Y25.98 E50.0205
G1 X47.09 Y25.98 E50.0393
G1 X75.52 Y54.41 E51.3766
G1 X75.52 Y54.98 E51.3954
G1 X46.53 Y25.98 E52.7593
G1 X45.96 Y25.98 E52.7781
G1 X75.52 Y55.54 E54.1686
G1 X75.52 Y56.11 E54.1874
G1 X45.39 Y25.98 E55.6045
G1 X44.83 Y25.98 E55.6234
G1 X75.52 Y56.67 E57.0671
G1 X75.52 Y57.24 E57.0859
G1 X44.26 Y25.98 E58.5562
G1 X43.7 Y25.98 E58.5751
G1 X75.52 Y57.8 E60.072
G1 X75.52 Y58.37 E60.0908
G1 X43.13 Y25.98 E61.6144
G1 X42.57 Y25.98 E61.6332
G1 X75.52 Y58.93 E63.1833
G1 X75.52 Y59.5 E63.2021
G1 X42 Y25.98 E64.7789
G1 X41.43 Y25.98 E64.7977
G1 X75.52 Y60.07 E66.4011
G1 X75.52 Y60.63 E66.4199
G1 X40.87 Y25.98 E68.0499
G1 X40.3 Y25.98 E68.0687
G1 X75.52 Y61.2 E69.7253
G1 X75.52 Y61.76 E69.7441
G1 X39.74 Y25.98 E71.4273
G1 X39.17 Y25.98 E71.4461
G1 X75.52 Y62.33 E73.1559
G1 X75.52 Y62.89 E73.1748
G1 X38.61 Y25.98 E74.9112
G1 X38.04 Y25.98 E74.93
G1 X75.52 Y63.46 E76.693
G1 X75.52 Y64.03 E76.7118
G1 X37.47 Y25.98 E78.5015
G1 X36.91 Y25.98 E78.5203
G1 X75.52 Y64.59 E80.3365
G1 X75.52 Y65.16 E80.3553
G1 X36.34 Y25.98 E82.1982
G1 X35.78 Y25.98 E82.217
G1 X75.52 Y65.72 E84.0864
G1 X75.52 Y66.29 E84.1053
G1 X35.21 Y25.98 E86.0013
G1 X34.65 Y25.98 E86.0201
G1 X75.52 Y66.85 E87.9428
G1 X75.52 Y67.42 E87.9616
G1 X34.08 Y25.98 E89.9109
G1 X33.51 Y25.98 E89.9297
G1 X75.52 Y67.99 E91.9056
G1 X75.52 Y68.55 E91.9244
G1 X32.95 Y25.98 E93.9269
G1 X32.38 Y25.98 E93.9457
G1 X75.52 Y69.12 E95.9748
G1 X75.52 Y69.68 E95.9937
G1 X31.82 Y25.98 E98.0494
G1 X31.25 Y25.98 E98.0682
G1 X75.52 Y70.25 E100.1505
G1 X75.52 Y70.81 E100.1693
G1 X30.69 Y25.98 E102.2783
G1 X30.12 Y25.98 E102.2971
G1 X75.52 Y71.38 E104.4326
G1 X75.52 Y71.95 E104.4514
G1 X29.56 Y25.98 E106.6136
G1 X28.99 Y25.98 E106.6324
G1 X75.52 Y72.51 E108.8211
G1 X75.52 Y73.08 E108.8399
G1 X28.42 Y25.98 E111.0553
G1 X27.86 Y25.98 E111.0741
G1 X75.52 Y73.64 E113.3161
G1 X75.52 Y74.21 E113.3349
G1 X27.29 Y25.98 E115.6035
G1 X26.73 Y25.98 E115.6223
G1 X75.52 Y74.77 E117.9175
G1 X75.52 Y75.34 E117.9363
G1 X26.16 Y25.98 E120.2581
G1 X25.6 Y25.98 E120.2769
G1 X75.52 Y75.91 E122.6253
G1 X75.52 Y76.47 E122.6441
G1 X25.03 Y25.98 E125.0192
G1 X24.48 Y25.99 E125.0376
G1 X75.52 Y77.04 E127.4386
G1 X75.52 Y77.6 E127.4574
G1 X24.48 Y26.56 E129.8584
G1 X24.48 Y27.12 E129.8772
G1 X75.52 Y78.17 E132.2781
G1 X75.52 Y78.73 E132.297
G1 X24.48 Y27.69 E134.6979
G1 X24.48 Y28.26 E134.7167
G1 X75.52 Y79.3 E137.1177
G1 X75.52 Y79.87 E137.1365
G1 X24.48 Y28.82 E139.5374
G1 X24.48 Y29.39 E139.5563
G1 X75.52 Y80.43 E141.9572
G1 X75.52 Y81 E141.976
G1 X24.48 Y29.95 E144.377
G1 X24.48 Y30.52 E144.3958
G1 X75.52 Y81.56 E146.7968
G1 X75.52 Y82.13 E146.8156
G1 X24.48 Y31.08 E149.2166
G1 X24.48 Y31.65 E149.2354
G1 X75.52 Y82.69 E151.6363
G1 X75.52 Y83.26 E151.6551
G1 X24.48 Y32.22 E154.0561
G1 X24.48 Y32.78 E154.0749
G1 X75.52 Y83.83 E156.4759
G1 X75.52 Y84.39 E156.4947
G1 X24.48 Y33.35 E158.8956
G1 X24.48 Y33.91 E158.9145
G1 X75.52 Y84.96 E161.3154
G1 X75.52 Y85.52 E161.3342
G1 X24.48 Y34.48 E163.7352
G1 X24.48 Y35.04 E163.754
G1 X75.52 Y86.09 E166.155
G1 X75.52 Y86.65 E166.1738
G1 X24.48 Y35.61 E168.5747
G1 X24.48 Y36.17 E168.5936
G1 X75.52 Y87.22 E170.9945
G1 X75.52 Y87.78 E171.0133
G1 X24.48 Y36.74 E173.4143
G1 X24.48 Y37.31 E173.4331
G1 X75.52 Y88.35 E175.8341
G1 X75.52 Y88.92 E175.8529
G1 X24.48 Y37.87 E178.2538
G1 X24.48 Y38.44 E178.2726
G1 X75.52 Y89.48 E180.6736
G1 X75.52 Y90.05 E180.6924
G1 X24.48 Y39 E183.0934
G1 X24.48 Y39.57 E183.1122
G1 X75.52 Y90.61 E185.5132
G1 X75.52 Y91.18 E185.532
G1 X24.48 Y40.13 E187.9329
G1 X24.48 Y40.7 E187.9517
G1 X75.52 Y91.74 E190.3527
G1 X75.52 Y92.31 E190.3715
G1 X24.48 Y41.27 E192.7725
G1 X24.48 Y41.83 E192.7913
G1 X75.52 Y92.88 E195.1922
G1 X75.52 Y93.44 E195.2111
G1 X24.48 Y42.4 E197.612
G1 X24.48 Y42.96 E197.6308
G1 X75.52 Y94.01 E200.0319
G1 X74.97 Y94.02 E200.0502
G1 X24.48 Y43.53 E202.4253
G1 X24.48 Y44.09 E202.4441
G1 X74.4 Y94.02 E204.7925
G1 X73.84 Y94.02 E204.8113
G1 X24.48 Y44.66 E207.1331
G1 X24.48 Y45.23 E207.1519
G1 X73.27 Y94.02 E209.4471
G1 X72.71 Y94.02 E209.4659
G1 X24.48 Y45.79 E211.7345
G1 X24.48 Y46.36 E211.7533
G1 X72.14 Y94.02 E213.9953
G1 X71.58 Y94.02 E214.0141
G1 X24.48 Y46.92 E216.2295
G1 X24.48 Y47.49 E216.2483
G1 X71.01 Y94.02 E218.437
G1 X70.44 Y94.02 E218.4559
G1 X24.48 Y48.05 E220.618
G1 X24.48 Y48.62 E220.6368
G1 X69.88 Y94.02 E222.7723
G1 X69.31 Y94.02 E222.7912
G1 X24.48 Y49.19 E224.9001
G1 X24.48 Y49.75 E224.9189
G1 X68.75 Y94.02 E227.0012
G1 X68.18 Y94.02 E227.02
G1 X24.48 Y50.32 E229.0757
G1 X24.48 Y50.88 E229.0946
G1 X67.62 Y94.02 E231.1237
G1 X67.05 Y94.02 E231.1425
G1 X24.48 Y51.45 E233.145
G1 X24.48 Y52.01 E233.1638
G1 X66.49 Y94.02 E235.1397
G1 X65.92 Y94.02 E235.1585
G1 X24.48 Y52.58 E237.1078
G1 X24.48 Y53.15 E237.1266
G1 X65.35 Y94.02 E239.0493
G1 X64.79 Y94.02 E239.0681
G1 X24.48 Y53.71 E240.9641
G1 X24.48 Y54.28 E240.983
G1 X64.22 Y94.02 E242.8524
G1 X63.66 Y94.02 E242.8712
G1 X24.48 Y54.84 E244.7141
G1 X24.48 Y55.41 E244.7329
G1 X63.09 Y94.02 E246.5491
G1 X62.53 Y94.02 E246.5679
G1 X24.48 Y55.97 E248.3576
G1 X24.48 Y56.54 E248.3764
G1 X61.96 Y94.02 E250.1394
G1 X61.39 Y94.02 E250.1582
G1 X24.48 Y57.11 E251.8946
G1 X24.48 Y57.67 E251.9135
G1 X60.83 Y94.02 E253.6233
G1 X60.26 Y94.02 E253.6421
G1 X24.48 Y58.24 E255.3253
G1 X24.48 Y58.8 E255.3441
G1 X59.7 Y94.02 E257.0007
G1 X59.13 Y94.02 E257.0195
G1 X24.48 Y59.37 E258.6495
G1 X24.48 Y59.93 E258.6683
G1 X58.57 Y94.02 E260.2717
G1 X58 Y94.02 E260.2905
G1 X24.48 Y60.5 E261.8672
G1 X24.48 Y61.07 E261.886
G1 X57.43 Y94.02 E263.4362
G1 X56.87 Y94.02 E263.455
G1 X24.48 Y61.63 E264.9786
G1 X24.48 Y62.2 E264.9974
G1 X56.3 Y94.02 E266.4943
G1 X55.74 Y94.02 E266.5132
G1 X24.48 Y62.76 E267.9835
G1 X24.48 Y63.33 E268.0023
G1 X55.17 Y94.02 E269.446
G1 X54.61 Y94.02 E269.4648
G1 X24.48 Y63.89 E270.882
G1 X24.48 Y64.46 E270.9008
G1 X54.04 Y94.02 E272.2913
G1 X53.47 Y94.02 E272.3101
G1 X24.48 Y65.02 E273.674
G1 X24.48 Y65.59 E273.6928
G1 X52.91 Y94.02 E275.0301
G1 X52.34 Y94.02 E275.0489
G1 X24.48 Y66.16 E276.3596
G1 X24.48 Y66.72 E276.3784
G1 X51.78 Y94.02 E277.6625
G1 X51.21 Y94.02 E277.6813
G1 X24.48 Y67.29 E278.9388
G1 X24.48 Y67.85 E278.9576
G1 X50.65 Y94.02 E280.1884
G1 X50.08 Y94.02 E280.2072
G1 X24.48 Y68.42 E281.4115
G1 X24.48 Y68.98 E281.4303
G1 X49.51 Y94.02 E282.608
G1 X48.95 Y94.02 E282.6268
G1 X24.48 Y69.55 E283.7778
G1 X24.48 Y70.12 E283.7966
G1 X48.38 Y94.02 E284.9211
G1 X47.82 Y94.02 E284.9399
G1 X24.48 Y70.68 E286.0377
G1 X24.48 Y71.25 E286.0565
G1 X47.25 Y94.02 E287.1277
G1 X46.69 Y94.02 E287.1465
G1 X24.48 Y71.81 E288.1911
G1 X24.48 Y72.38 E288.21
G1 X46.12 Y94.02 E289.228
G1 X45.55 Y94.02 E289.2468
G1 X24.48 Y72.94 E290.2382
G1 X24.48 Y73.51 E290.257
G1 X44.99 Y94.02 E291.2217
G1 X44.42 Y94.02 E291.2406
G1 X24.48 Y74.08 E292.1787
G1 X24.48 Y74.64 E292.1975
G1 X43.86 Y94.02 E293.1091
G1 X43.29 Y94.02 E293.1279
G1 X24.48 Y75.21 E294.0129
G1 X24.48 Y75.77 E294.0317
G1 X42.73 Y94.02 E294.89
G1 X42.16 Y94.02 E294.9088
G1 X24.48 Y76.34 E295.7406
G1 X24.48 Y76.9 E295.7594
G1 X41.59 Y94.02 E296.5645
G1 X41.03 Y94.02 E296.5833
G1 X24.48 Y77.47 E297.3619
G1 X24.48 Y78.04 E297.3807
G1 X40.46 Y94.02 E298.1326
G1 X39.9 Y94.02 E298.1514
G1 X24.48 Y78.6 E298.8767
G1 X24.48 Y79.17 E298.8955
G1 X39.33 Y94.02 E299.5942
G1 X38.77 Y94.02 E299.6131
G1 X24.48 Y79.73 E300.2852
G1 X24.48 Y80.3 E300.304
G1 X38.2 Y94.02 E300.9494
G1 X37.64 Y94.02 E300.9683
G1 X24.48 Y80.86 E301.5871
G1 X24.48 Y81.43 E301.606
G1 X37.07 Y94.02 E302.1982
G1 X36.5 Y94.02 E302.217
G1 X24.48 Y82 E302.7827
G1 X24.48 Y82.56 E302.8015
G1 X35.94 Y94.02 E303.3405
G1 X35.37 Y94.02 E303.3594
G1 X24.48 Y83.13 E303.8718
G1 X24.48 Y83.69 E303.8906
G1 X34.81 Y94.02 E304.3765
G1 X34.24 Y94.02 E304.3953
G1 X24.48 Y84.26 E304.8545
G1 X24.48 Y84.82 E304.8733
G1 X33.68 Y94.02 E305.3059
G1 X33.11 Y94.02 E305.3247
G1 X24.48 Y85.39 E305.7307
G1 X24.48 Y85.96 E305.7496
G1 X32.54 Y94.02 E306.129
G1 X31.98 Y94.02 E306.1478
G1 X24.48 Y86.52 E306.5006
G1 X24.48 Y87.09 E306.5194
G1 X31.41 Y94.02 E306.8456
G1 X30.85 Y94.02 E306.8644
G1 X24.48 Y87.65 E307.164
G1 X24.48 Y88.22 E307.1828
G1 X30.28 Y94.02 E307.4557
G1 X29.72 Y94.02 E307.4746
G1 X24.48 Y88.78 E307.7209
G1 X24.48 Y89.35 E307.7397
G1 X29.15 Y94.02 E307.9595
G1 X28.58 Y94.02 E307.9783
G1 X24.48 Y89.92 E308.1714
G1 X24.48 Y90.48 E308.1903
G1 X28.02 Y94.02 E308.3568
G1 X27.45 Y94.02 E308.3756
G1 X24.48 Y91.05 E308.5155
G1 X24.48 Y91.61 E308.5344
G1 X26.89 Y94.02 E308.6477
G1 X26.32 Y94.02 E308.6665
G1 X24.48 Y92.18 E308.7532
G1 X24.48 Y92.74 E308.772
G1 X25.76 Y94.02 E308.8321
G1 X25.19 Y94.02 E308.851
G1 X24.48 Y93.31 E308.8844
G1 X24.48 Y93.87 E308.9033
G1 X24.63 Y94.03 E308.9106
;
; 'Wipe', 0.0 [RPM], 40.0 [mm/s]
G1 F210
G1 X24.63 Y94.03 Z0.85 E308.9106
; END_LAYER_OBJECT z=0.40
; Reset extruder pos
G92 E0
; BEGIN_LAYER_OBJECT z=0.60
; fan on
M106
;
; 'Loop', 53.3 [RPM], 33.4 [mm/s]
G1 F9000
G1 X75.88 Y94.37 E0
G1 F210
G1 X75.88 Y94.37 Z0.6 E0
G1 F2004.6
G1 X75.71 Y94.38 E0.0058
G1 X24.29 Y94.38 E1.7159
G1 X24.12 Y94.37 E1.7218
G1 X24.12 Y25.63 E4.0079
G1 X24.29 Y25.62 E4.0138
G1 X73.26 Y25.62 E5.6423
G1 X75.71 Y25.62 E5.7239
G1 X75.88 Y25.63 E5.7297
G1 X75.88 Y80.04 E7.5392
G1 X75.88 Y94.37 E8.0159
; fan off
M107
;
; 'Wipe', 0.0 [RPM], 40.0 [mm/s]
; fan on
M106
;
; 'Perimeter', 27.9 [RPM], 17.5 [mm/s]
G1 F9000
G1 X76.14 Y94.53 E8.0159
G1 F1050
G1 X76.28 Y94.77 E8.0251
G1 X76.11 Y94.78 E8.0309
G1 X23.89 Y94.78 E9.7676
G1 X23.72 Y94.77 E9.7735
G1 X23.72 Y57.06 E11.0278
G1 X23.72 Y25.23 E12.0863
G1 X23.89 Y25.22 E12.0921
G1 X75.94 Y25.22 E13.8231
G1 X76.11 Y25.22 E13.8288
G1 X76.28 Y25.23 E13.8347
G1 X76.28 Y38.43 E14.2737
G1 X76.28 Y94.77 E16.1475
G1 X76.04 Y94.64 E16.1567
; fan off
M107
;
; 'Solid', 63.9 [RPM], 40.0 [mm/s]
G1 F9000
G1 X75.32 Y94.07 E16.1567
G1 F2400
G1 X75.52 Y93.87 E16.1661
G1 X75.52 Y93.31 E16.1849
G1 X74.81 Y94.02 E16.2184
G1 X74.24 Y94.02 E16.2372
G1 X75.52 Y92.74 E16.2973
G1 X75.52 Y92.18 E16.3161
G1 X73.68 Y94.02 E16.4028
G1 X73.11 Y94.02 E16.4216
G1 X75.52 Y91.61 E16.535
G1 X75.52 Y91.05 E16.5538
G1 X72.55 Y94.02 E16.6937
G1 X71.98 Y94.02 E16.7125
G1 X75.52 Y90.48 E16.8791
G1 X75.52 Y89.92 E16.8979
G1 X71.42 Y94.02 E17.091
G1 X70.85 Y94.02 E17.1098
G1 X75.52 Y89.35 E17.3296
G1 X75.52 Y88.78 E17.3484
G1 X70.28 Y94.02 E17.5948
G1 X69.72 Y94.02 E17.6136
G1 X75.52 Y88.22 E17.8866
G1 X75.52 Y87.65 E17.9054
G1 X69.15 Y94.02 E18.2049
G1 X68.59 Y94.02 E18.2238
G1 X75.52 Y87.09 E18.5499
G1 X75.52 Y86.52 E18.5688
G1 X68.02 Y94.02 E18.9216
G1 X67.46 Y94.02 E18.9404
G1 X75.52 Y85.96 E19.3198
G1 X75.52 Y85.39 E19.3386
G1 X66.89 Y94.02 E19.7446
G1 X66.32 Y94.02 E19.7634
G1 X75.52 Y84.82 E20.196
G1 X75.52 Y84.26 E20.2148
G1 X65.76 Y94.02 E20.6741
G1 X65.19 Y94.02 E20.6929
G1 X75.52 Y83.69 E21.1787
G1 X75.52 Y83.13 E21.1975
G1 X64.63 Y94.02 E21.71
G1 X64.06 Y94.02 E21.7288
G1 X75.52 Y82.56 E22.2678
G1 X75.52 Y82 E22.2867
G1 X63.5 Y94.02 E22.8523
G1 X62.93 Y94.02 E22.8711
G1 X75.52 Y81.43 E23.4634
G1 X75.52 Y80.86 E23.4822
G1 X62.36 Y94.02 E24.1011
G1 X61.8 Y94.02 E24.1199
G1 X75.52 Y80.3 E24.7654
G1 X75.52 Y79.73 E24.7842
G1 X61.23 Y94.02 E25.4563
G1 X60.67 Y94.02 E25.4751
G1 X75.52 Y79.17 E26.1738
G1 X75.52 Y78.6 E26.1926
G1 X60.1 Y94.02 E26.9179
G1 X59.54 Y94.02 E26.9367
G1 X75.52 Y78.04 E27.6887
G1 X75.52 Y77.47 E27.7075
G1 X58.97 Y94.02 E28.486
G1 X58.4 Y94.02 E28.5048
G1 X75.52 Y76.9 E29.3099
G1 X75.52 Y76.34 E29.3288
G1 X57.84 Y94.02 E30.1605
G1 X57.27 Y94.02 E30.1793
G1 X75.52 Y75.77 E31.0377
G1 X75.52 Y75.21 E31.0565
G1 X56.71 Y94.02 E31.9414
G1 X56.14 Y94.02 E31.9602
G1 X75.52 Y74.64 E32.8718
G1 X75.52 Y74.08 E32.8906
G1 X55.58 Y94.02 E33.8288
G1 X55.01 Y94.02 E33.8476
G1 X75.52 Y73.51 E34.8124
G1 X75.52 Y72.94 E34.8312
G1 X54.45 Y94.02 E35.8226
G1 X53.88 Y94.02 E35.8414
G1 X75.52 Y72.38 E36.8594
G1 X75.52 Y71.81 E36.8782
G1 X53.31 Y94.02 E37.9228
G1 X52.75 Y94.02 E37.9416
G1 X75.52 Y71.25 E39.0129
G1 X75.52 Y70.68 E39.0317
G1 X52.18 Y94.02 E40.1295
G1 X51.62 Y94.02 E40.1483
G1 X75.52 Y70.12 E41.2727
G1 X75.52 Y69.55 E41.2915
G1 X51.05 Y94.02 E42.4426
G1 X50.49 Y94.02 E42.4614
G1 X75.52 Y68.98 E43.639
G1 X75.52 Y68.42 E43.6579
G1 X49.92 Y94.02 E44.8621
G1 X49.35 Y94.02 E44.8809
G1 X75.52 Y67.85 E46.1118
G1 X75.52 Y67.29 E46.1306
G1 X48.79 Y94.02 E47.3881
G1 X48.22 Y94.02 E47.4069
G1 X75.52 Y66.72 E48.691
G1 X75.52 Y66.16 E48.7098
G1 X47.66 Y94.02 E50.0205
G1 X47.09 Y94.02 E50.0393
G1 X75.52 Y65.59 E51.3766
G1 X75.52 Y65.03 E51.3954
G1 X46.53 Y94.02 E52.7593
G1 X45.96 Y94.02 E52.7781
G1 X75.52 Y64.46 E54.1686
G1 X75.52 Y63.89 E54.1874
G1 X45.39 Y94.02 E55.6045
G1 X44.83 Y94.02 E55.6234
G1 X75.52 Y63.33 E57.0671
G1 X75.52 Y62.76 E57.0859
G1 X44.26 Y94.02 E58.5562
G1 X43.7 Y94.02 E58.5751
G1 X75.52 Y62.2 E60.072
G1 X75.52 Y61.63 E60.0908
G1 X43.13 Y94.02 E61.6144
G1 X42.57 Y94.02 E61.6332
G1 X75.52 Y61.07 E63.1833
G1 X75.52 Y60.5 E63.2021
G1 X42 Y94.02 E64.7789
G1 X41.43 Y94.02 E64.7977
G1 X75.52 Y59.93 E66.4011
G1 X75.52 Y59.37 E66.4199
G1 X40.87 Y94.02 E68.0499
G1 X40.3 Y94.02 E68.0687
G1 X75.52 Y58.8 E69.7253
G1 X75.52 Y58.24 E69.7441
G1 X39.74 Y94.02 E71.4273
G1 X39.17 Y94.02 E71.4461
G1 X75.52 Y57.67 E73.1559
G1 X75.52 Y57.11 E73.1748
G1 X38.61 Y94.02 E74.9112
G1 X38.04 Y94.02 E74.93
G1 X75.52 Y56.54 E76.693
G1 X75.52 Y55.97 E76.7118
G1 X37.47 Y94.02 E78.5015
G1 X36.91 Y94.02 E78.5203
G1 X75.52 Y55.41 E80.3365
G1 X75.52 Y54.84 E80.3553
G1 X36.34 Y94.02 E82.1982
G1 X35.78 Y94.02 E82.217
G1 X75.52 Y54.28 E84.0864
G1 X75.52 Y53.71 E84.1053
G1 X35.21 Y94.02 E86.0013
G1 X34.65 Y94.02 E86.0201
G1 X75.52 Y53.15 E87.9428
G1 X75.52 Y52.58 E87.9616
G1 X34.08 Y94.02 E89.9109
G1 X33.51 Y94.02 E89.9297
G1 X75.52 Y52.01 E91.9056
G1 X75.52 Y51.45 E91.9244
G1 X32.95 Y94.02 E93.9269
G1 X32.38 Y94.02 E93.9457
G1 X75.52 Y50.88 E95.9748
G1 X75.52 Y50.32 E95.9937
G1 X31.82 Y94.02 E98.0494
G1 X31.25 Y94.02 E98.0682
G1 X75.52 Y49.75 E100.1505
G1 X75.52 Y49.19 E100.1693
G1 X30.69 Y94.02 E102.2783
G1 X30.12 Y94.02 E102.2971
G1 X75.52 Y48.62 E104.4326
G1 X75.52 Y48.05 E104.4514
G1 X29.55 Y94.02 E106.6136
G1 X28.99 Y94.02 E106.6324
G1 X75.52 Y47.49 E108.8211
G1 X75.52 Y46.92 E108.8399
G1 X28.42 Y94.02 E111.0553
G1 X27.86 Y94.02 E111.0741
G1 X75.52 Y46.36 E113.3161
G1 X75.52 Y45.79 E113.3349
G1 X27.29 Y94.02 E115.6035
G1 X26.73 Y94.02 E115.6223
G1 X75.52 Y45.23 E117.9175
G1 X75.52 Y44.66 E117.9363
G1 X26.16 Y94.02 E120.2581
G1 X25.6 Y94.02 E120.2769
G1 X75.52 Y44.09 E122.6253
G1 X75.52 Y43.53 E122.6441
G1 X25.03 Y94.02 E125.0192
G1 X24.48 Y94.01 E125.0376
G1 X75.52 Y42.96 E127.4386
G1 X75.52 Y42.4 E127.4574
G1 X24.48 Y93.44 E129.8583
G1 X24.48 Y92.88 E129.8772
G1 X75.52 Y41.83 E132.2781
G1 X75.52 Y41.27 E132.2969
G1 X24.48 Y92.31 E134.6979
G1 X24.48 Y91.74 E134.7167
G1 X75.52 Y40.7 E137.1176
G1 X75.52 Y40.13 E137.1365
G1 X24.48 Y91.18 E139.5374
G1 X24.48 Y90.61 E139.5562
G1 X75.52 Y39.57 E141.9572
G1 X75.52 Y39 E141.976
G1 X24.48 Y90.05 E144.3769
G1 X24.48 Y89.48 E144.3958
G1 X75.52 Y38.44 E146.7967
G1 X75.52 Y37.87 E146.8155
G1 X24.48 Y88.92 E149.2165
G1 X24.48 Y88.35 E149.2353
G1 X75.52 Y37.31 E151.6362
G1 X75.52 Y36.74 E151.6551
G1 X24.48 Y87.78 E154.056
G1 X24.48 Y87.22 E154.0748
G1 X75.52 Y36.18 E156.4758
G1 X75.52 Y35.61 E156.4946
G1 X24.48 Y86.65 E158.8955
G1 X24.48 Y86.09 E158.9144
G1 X75.52 Y35.04 E161.3153
G1 X75.52 Y34.48 E161.3341
G1 X24.48 Y85.52 E163.7351
G1 X24.48 Y84.96 E163.7539
G1 X75.52 Y33.91 E166.1548
G1 X75.52 Y33.35 E166.1737
G1 X24.48 Y84.39 E168.5746
G1 X24.48 Y83.82 E168.5934
G1 X75.52 Y32.78 E170.9944
G1 X75.52 Y32.22 E171.0132
G1 X24.48 Y83.26 E173.4141
G1 X24.48 Y82.69 E173.433
G1 X75.52 Y31.65 E175.8339
G1 X75.52 Y31.08 E175.8527
G1 X24.48 Y82.13 E178.2537
G1 X24.48 Y81.56 E178.2725
G1 X75.52 Y30.52 E180.6734
G1 X75.52 Y29.95 E180.6922
G1 X24.48 Y81 E183.0932
G1 X24.48 Y80.43 E183.112
G1 X75.52 Y29.39 E185.513
G1 X75.52 Y28.82 E185.5318
G1 X24.48 Y79.87 E187.9327
G1 X24.48 Y79.3 E187.9516
G1 X75.52 Y28.26 E190.3525
G1 X75.52 Y27.69 E190.3713
G1 X24.48 Y78.73 E192.7723
G1 X24.48 Y78.17 E192.7911
G1 X75.52 Y27.12 E195.192
G1 X75.52 Y26.56 E195.2108
G1 X24.48 Y77.6 E197.6118
G1 X24.48 Y77.04 E197.6306
G1 X75.52 Y25.99 E200.0316
G1 X74.97 Y25.98 E200.05
G1 X24.48 Y76.47 E202.4251
G1 X24.48 Y75.91 E202.4439
G1 X74.4 Y25.98 E204.7923
G1 X73.84 Y25.98 E204.8111
G1 X24.48 Y75.34 E207.1329
G1 X24.48 Y74.77 E207.1517
G1 X73.27 Y25.98 E209.4469
G1 X72.71 Y25.98 E209.4657
G1 X24.48 Y74.21 E211.7343
G1 X24.48 Y73.64 E211.7531
G1 X72.14 Y25.98 E213.9951
G1 X71.58 Y25.98 E214.0139
G1 X24.48 Y73.08 E216.2292
G1 X24.48 Y72.51 E216.2481
G1 X71.01 Y25.98 E218.4368
G1 X70.45 Y25.98 E218.4556
G1 X24.48 Y71.95 E220.6178
G1 X24.48 Y71.38 E220.6366
G1 X69.88 Y25.98 E222.7721
G1 X69.31 Y25.98 E222.791
G1 X24.48 Y70.81 E224.8999
G1 X24.48 Y70.25 E224.9187
G1 X68.75 Y25.98 E227.001
G1 X68.18 Y25.98 E227.0198
G1 X24.48 Y69.68 E229.0755
G1 X24.48 Y69.12 E229.0944
G1 X67.62 Y25.98 E231.1235
G1 X67.05 Y25.98 E231.1423
G1 X24.48 Y68.55 E233.1448
G1 X24.48 Y67.99 E233.1636
G1 X66.49 Y25.98 E235.1395
G1 X65.92 Y25.98 E235.1583
G1 X24.48 Y67.42 E237.1076
G1 X24.48 Y66.85 E237.1264
G1 X65.35 Y25.98 E239.0491
G1 X64.79 Y25.98 E239.0679
G1 X24.48 Y66.29 E240.964
G1 X24.48 Y65.72 E240.9828
G1 X64.22 Y25.98 E242.8522
G1 X63.66 Y25.98 E242.871
G1 X24.48 Y65.16 E244.7139
G1 X24.48 Y64.59 E244.7327
G1 X63.09 Y25.98 E246.549
G1 X62.53 Y25.98 E246.5678
G1 X24.48 Y64.03 E248.3574
G1 X24.48 Y63.46 E248.3762
G1 X61.96 Y25.98 E250.1392
G1 X61.39 Y25.98 E250.1581
G1 X24.48 Y62.89 E251.8945
G1 X24.48 Y62.33 E251.9133
G1 X60.83 Y25.98 E253.6231
G1 X60.26 Y25.98 E253.6419
G1 X24.48 Y61.76 E255.3251
G1 X24.48 Y61.2 E255.3439
G1 X59.7 Y25.98 E257.0005
G1 X59.13 Y25.98 E257.0193
G1 X24.48 Y60.63 E258.6493
G1 X24.48 Y60.07 E258.6681
G1 X58.57 Y25.98 E260.2715
G1 X58 Y25.98 E260.2903
G1 X24.48 Y59.5 E261.8671
G1 X24.48 Y58.93 E261.8859
G1 X57.43 Y25.98 E263.4361
G1 X56.87 Y25.98 E263.4549
G1 X24.48 Y58.37 E264.9784
G1 X24.48 Y57.8 E264.9973
G1 X56.3 Y25.98 E266.4942
G1 X55.74 Y25.98 E266.513
G1 X24.48 Y57.24 E267.9833
G1 X24.48 Y56.67 E268.0021
G1 X55.17 Y25.98 E269.4459
G1 X54.61 Y25.98 E269.4647
G1 X24.48 Y56.11 E270.8818
G1 X24.48 Y55.54 E270.9006
G1 X54.04 Y25.98 E272.2911
G1 X53.47 Y25.98 E272.31
G1 X24.48 Y54.97 E273.6739
G1 X24.48 Y54.41 E273.6927
G1 X52.91 Y25.98 E275.03
G1 X52.34 Y25.98 E275.0488
G1 X24.48 Y53.84 E276.3595
G1 X24.48 Y53.28 E276.3783
G1 X51.78 Y25.98 E277.6624
G1 X51.21 Y25.98 E277.6812
G1 X24.48 Y52.71 E278.9387
G1 X24.48 Y52.15 E278.9575
G1 X50.65 Y25.98 E280.1883
G1 X50.08 Y25.98 E280.2072
G1 X24.48 Y51.58 E281.4114
G1 X24.48 Y51.02 E281.4302
G1 X49.51 Y25.98 E282.6078
G1 X48.95 Y25.98 E282.6267
G1 X24.48 Y50.45 E283.7777
G1 X24.48 Y49.88 E283.7965
G1 X48.38 Y25.98 E284.921
G1 X47.82 Y25.98 E284.9398
G1 X24.48 Y49.32 E286.0376
G1 X24.48 Y48.75 E286.0564
G1 X47.25 Y25.98 E287.1276
G1 X46.69 Y25.98 E287.1464
G1 X24.48 Y48.19 E288.191
G1 X24.48 Y47.62 E288.2099
G1 X46.12 Y25.98 E289.2278
G1 X45.55 Y25.98 E289.2467
G1 X24.48 Y47.06 E290.2381
G1 X24.48 Y46.49 E290.2569
G1 X44.99 Y25.98 E291.2216
G1 X44.42 Y25.98 E291.2405
G1 X24.48 Y45.92 E292.1786
G1 X24.48 Y45.36 E292.1974
G1 X43.86 Y25.98 E293.109
G1 X43.29 Y25.98 E293.1278
G1 X24.48 Y44.79 E294.0128
G1 X24.48 Y44.23 E294.0316
G1 X42.73 Y25.98 E294.89
G1 X42.16 Y25.98 E294.9088
G1 X24.48 Y43.66 E295.7405
G1 X24.48 Y43.1 E295.7593
G1 X41.6 Y25.98 E296.5645
G1 X41.03 Y25.98 E296.5833
G1 X24.48 Y42.53 E297.3618
G1 X24.48 Y41.96 E297.3806
G1 X40.46 Y25.98 E298.1325
G1 X39.9 Y25.98 E298.1514
G1 X24.48 Y41.4 E298.8766
G1 X24.48 Y40.83 E298.8955
G1 X39.33 Y25.98 E299.5942
G1 X38.77 Y25.98 E299.613
G1 X24.48 Y40.27 E300.2851
G1 X24.48 Y39.7 E300.3039
G1 X38.2 Y25.98 E300.9494
G1 X37.64 Y25.98 E300.9682
G1 X24.48 Y39.14 E301.5871
G1 X24.48 Y38.57 E301.6059
G1 X37.07 Y25.98 E302.1982
G1 X36.5 Y25.98 E302.217
G1 X24.48 Y38 E302.7826
G1 X24.48 Y37.44 E302.8015
G1 X35.94 Y25.98 E303.3405
G1 X35.37 Y25.98 E303.3593
G1 X24.48 Y36.87 E303.8718
G1 X24.48 Y36.31 E303.8906
G1 X34.81 Y25.98 E304.3764
G1 X34.24 Y25.98 E304.3952
G1 X24.48 Y35.74 E304.8545
G1 X24.48 Y35.18 E304.8733
G1 X33.68 Y25.98 E305.3059
G1 X33.11 Y25.98 E305.3247
G1 X24.48 Y34.61 E305.7307
G1 X24.48 Y34.04 E305.7495
G1 X32.54 Y25.98 E306.1289
G1 X31.98 Y25.98 E306.1477
G1 X24.48 Y33.48 E306.5005
G1 X24.48 Y32.91 E306.5193
G1 X31.41 Y25.98 E306.8456
G1 X30.85 Y25.98 E306.8643
G1 X24.48 Y32.35 E307.1639
G1 X24.48 Y31.78 E307.1827
G1 X30.28 Y25.98 E307.4557
G1 X29.72 Y25.98 E307.4745
G1 X24.48 Y31.22 E307.7209
G1 X24.48 Y30.65 E307.7397
G1 X29.15 Y25.98 E307.9595
G1 X28.58 Y25.98 E307.9783
G1 X24.48 Y30.08 E308.1714
G1 X24.48 Y29.52 E308.1902
G1 X28.02 Y25.98 E308.3568
G1 X27.45 Y25.98 E308.3756
G1 X24.48 Y28.95 E308.5155
G1 X24.48 Y28.39 E308.5343
G1 X26.89 Y25.98 E308.6477
G1 X26.32 Y25.98 E308.6665
G1 X24.48 Y27.82 E308.7532
G1 X24.48 Y27.26 E308.772
G1 X25.76 Y25.98 E308.8321
G1 X25.19 Y25.98 E308.8509
G1 X24.48 Y26.69 E308.8844
G1 X24.48 Y26.13 E308.9033
G1 X24.63 Y25.97 E308.9106
;
; 'Wipe', 0.0 [RPM], 40.0 [mm/s]
G1 F210
G1 X24.63 Y25.97 Z1.05 E308.9106
; END_LAYER_OBJECT z=0.60
; Reset extruder pos
G92 E0
; BEGIN_LAYER_OBJECT z=0.80
; fan on
M106
;
; 'Loop', 53.3 [RPM], 33.4 [mm/s]
G1 F9000
G1 X75.88 Y94.37 E0
G1 F210
G1 X75.88 Y94.37 Z0.8 E0
G1 F2004.6
G1 X75.71 Y94.38 E0.0058
G1 X24.29 Y94.38 E1.7159
G1 X24.12 Y94.37 E1.7218
G1 X24.12 Y25.63 E4.0079
G1 X24.29 Y25.62 E4.0138
G1 X54.4 Y25.62 E5.0152
G1 X75.71 Y25.62 E5.7239
G1 X75.88 Y25.63 E5.7297
G1 X75.88 Y76.17 E7.4105
G1 X75.88 Y94.37 E8.0159
; fan off
M107
;
; 'Wipe', 0.0 [RPM], 40.0 [mm/s]
; fan on
M106
;
; 'Perimeter', 27.9 [RPM], 17.5 [mm/s]
G1 F9000
G1 X76.14 Y94.53 E8.0159
G1 F1050
G1 X76.28 Y94.77 E8.0251
G1 X76.11 Y94.78 E8.0309
G1 X23.89 Y94.78 E9.7676
G1 X23.72 Y94.77 E9.7735
G1 X23.72 Y57.06 E11.0278
G1 X23.72 Y25.23 E12.0863
G1 X23.89 Y25.22 E12.0921
G1 X76.11 Y25.22 E13.8288
G1 X76.12 Y25.22 E13.8294
G1 X76.28 Y25.23 E13.8347
G1 X76.28 Y94.77 E16.1475
G1 X76.04 Y94.64 E16.1567
; fan off
M107
;
; 'Solid', 63.9 [RPM], 40.0 [mm/s]
G1 F9000
G1 X75.32 Y25.93 E16.1567
G1 F2400
G1 X75.52 Y26.13 E16.1661
G1 X75.52 Y26.69 E16.1849
G1 X74.81 Y25.98 E16.2184
G1 X74.24 Y25.98 E16.2372
G1 X75.52 Y27.26 E16.2973
G1 X75.52 Y27.82 E16.3161
G1 X73.68 Y25.98 E16.4028
G1 X73.11 Y25.98 E16.4216
G1 X75.52 Y28.39 E16.535
G1 X75.52 Y28.95 E16.5538
G1 X72.55 Y25.98 E16.6937
G1 X71.98 Y25.98 E16.7125
G1 X75.52 Y29.52 E16.8791
G1 X75.52 Y30.08 E16.8979
G1 X71.42 Y25.98 E17.091
G1 X70.85 Y25.98 E17.1098
G1 X75.52 Y30.65 E17.3296
G1 X75.52 Y31.22 E17.3484
G1 X70.28 Y25.98 E17.5948
G1 X69.72 Y25.98 E17.6136
G1 X75.52 Y31.78 E17.8866
G1 X75.52 Y32.35 E17.9054
G1 X69.15 Y25.98 E18.2049
G1 X68.59 Y25.98 E18.2238
G1 X75.52 Y32.91 E18.5499
G1 X75.52 Y33.48 E18.5688
G1 X68.02 Y25.98 E18.9216
G1 X67.46 Y25.98 E18.9404
G1 X75.52 Y34.04 E19.3198
G1 X75.52 Y34.61 E19.3386
G1 X66.89 Y25.98 E19.7446
G1 X66.32 Y25.98 E19.7634
G1 X75.52 Y35.18 E20.196
G1 X75.52 Y35.74 E20.2148
G1 X65.76 Y25.98 E20.6741
G1 X65.19 Y25.98 E20.6929
G1 X75.52 Y36.31 E21.1787
G1 X75.52 Y36.87 E21.1975
G1 X64.63 Y25.98 E21.71
G1 X64.06 Y25.98 E21.7288
G1 X75.52 Y37.44 E22.2678
G1 X75.52 Y38 E22.2867
G1 X63.5 Y25.98 E22.8523
G1 X62.93 Y25.98 E22.8711
G1 X75.52 Y38.57 E23.4634
G1 X75.52 Y39.14 E23.4822
G1 X62.36 Y25.98 E24.1011
G1 X61.8 Y25.98 E24.1199
G1 X75.52 Y39.7 E24.7654
G1 X75.52 Y40.27 E24.7842
G1 X61.23 Y25.98 E25.4563
G1 X60.67 Y25.98 E25.4751
G1 X75.52 Y40.83 E26.1738
G1 X75.52 Y41.4 E26.1926
G1 X60.1 Y25.98 E26.9179
G1 X59.54 Y25.98 E26.9367
G1 X75.52 Y41.96 E27.6887
G1 X75.52 Y42.53 E27.7075
G1 X58.97 Y25.98 E28.486
G1 X58.41 Y25.98 E28.5048
G1 X75.52 Y43.1 E29.3099
G1 X75.52 Y43.66 E29.3288
G1 X57.84 Y25.98 E30.1605
G1 X57.27 Y25.98 E30.1793
G1 X75.52 Y44.23 E31.0377
G1 X75.52 Y44.79 E31.0565
G1 X56.71 Y25.98 E31.9414
G1 X56.14 Y25.98 E31.9602
G1 X75.52 Y45.36 E32.8718
G1 X75.52 Y45.92 E32.8906
G1 X55.58 Y25.98 E33.8288
G1 X55.01 Y25.98 E33.8476
G1 X75.52 Y46.49 E34.8124
G1 X75.52 Y47.06 E34.8312
G1 X54.45 Y25.98 E35.8226
G1 X53.88 Y25.98 E35.8414
G1 X75.52 Y47.62 E36.8594
G1 X75.52 Y48.19 E36.8782
G1 X53.31 Y25.98 E37.9228
G1 X52.75 Y25.98 E37.9416
G1 X75.52 Y48.75 E39.0129
G1 X75.52 Y49.32 E39.0317
G1 X52.18 Y25.98 E40.1295
G1 X51.62 Y25.98 E40.1483
G1 X75.52 Y49.88 E41.2727
G1 X75.52 Y50.45 E41.2915
G1 X51.05 Y25.98 E42.4426
G1 X50.49 Y25.98 E42.4614
G1 X75.52 Y51.02 E43.639
G1 X75.52 Y51.58 E43.6579
G1 X49.92 Y25.98 E44.8621
G1 X49.35 Y25.98 E44.8809
G1 X75.52 Y52.15 E46.1118
G1 X75.52 Y52.71 E46.1306
G1 X48.79 Y25.98 E47.3881
G1 X48.22 Y25.98 E47.4069
G1 X75.52 Y53.28 E48.691
G1 X75.52 Y53.84 E48.7098
G1 X47.66 Y25.98 E50.0205
G1 X47.09 Y25.98 E50.0393
G1 X75.52 Y54.41 E51.3766
G1 X75.52 Y54.98 E51.3954
G1 X46.53 Y25.98 E52.7593
G1 X45.96 Y25.98 E52.7781
G1 X75.52 Y55.54 E54.1686
G1 X75.52 Y56.11 E54.1874
G1 X45.39 Y25.98 E55.6046
G1 X44.83 Y25.98 E55.6234
G1 X75.52 Y56.67 E57.0671
G1 X75.52 Y57.24 E57.0859
G1 X44.26 Y25.98 E58.5562
G1 X43.7 Y25.98 E58.5751
G1 X75.52 Y57.8 E60.072
G1 X75.52 Y58.37 E60.0908
G1 X43.13 Y25.98 E61.6144
G1 X42.57 Y25.98 E61.6332
G1 X75.52 Y58.93 E63.1833
G1 X75.52 Y59.5 E63.2022
G1 X42 Y25.98 E64.7789
G1 X41.43 Y25.98 E64.7977
G1 X75.52 Y60.07 E66.4011
G1 X75.52 Y60.63 E66.4199
G1 X40.87 Y25.98 E68.0499
G1 X40.3 Y25.98 E68.0687
G1 X75.52 Y61.2 E69.7253
G1 X75.52 Y61.76 E69.7441
G1 X39.74 Y25.98 E71.4273
G1 X39.17 Y25.98 E71.4461
G1 X75.52 Y62.33 E73.156
G1 X75.52 Y62.89 E73.1748
G1 X38.61 Y25.98 E74.9112
G1 X38.04 Y25.98 E74.93
G1 X75.52 Y63.46 E76.693
G1 X75.52 Y64.03 E76.7118
G1 X37.47 Y25.98 E78.5015
G1 X36.91 Y25.98 E78.5203
G1 X75.52 Y64.59 E80.3365
G1 X75.52 Y65.16 E80.3553
G1 X36.34 Y25.98 E82.1982
G1 X35.78 Y25.98 E82.217
G1 X75.52 Y65.72 E84.0865
G1 X75.52 Y66.29 E84.1053
G1 X35.21 Y25.98 E86.0013
G1 X34.65 Y25.98 E86.0201
G1 X75.52 Y66.85 E87.9428
G1 X75.52 Y67.42 E87.9616
G1 X34.08 Y25.98 E89.9109
G1 X33.51 Y25.98 E89.9297
G1 X75.52 Y67.99 E91.9056
G1 X75.52 Y68.55 E91.9244
G1 X32.95 Y25.98 E93.9269
G1 X32.38 Y25.98 E93.9457
G1 X75.52 Y69.12 E95.9748
G1 X75.52 Y69.68 E95.9937
G1 X31.82 Y25.98 E98.0494
G1 X31.25 Y25.98 E98.0682
G1 X75.52 Y70.25 E100.1505
G1 X75.52 Y70.81 E100.1693
G1 X30.69 Y25.98 E102.2783
G1 X30.12 Y25.98 E102.2971
G1 X75.52 Y71.38 E104.4326
G1 X75.52 Y71.95 E104.4514
G1 X29.56 Y25.98 E106.6136
G1 X28.99 Y25.98 E106.6324
G1 X75.52 Y72.51 E108.8211
G1 X75.52 Y73.08 E108.84
G1 X28.42 Y25.98 E111.0553
G1 X27.86 Y25.98 E111.0741
G1 X75.52 Y73.64 E113.3161
G1 X75.52 Y74.21 E113.3349
G1 X27.29 Y25.98 E115.6035
G1 X26.73 Y25.98 E115.6223
G1 X75.52 Y74.77 E117.9175
G1 X75.52 Y75.34 E117.9363
G1 X26.16 Y25.98 E120.2581
G1 X25.6 Y25.98 E120.2769
G1 X75.52 Y75.91 E122.6253
G1 X75.52 Y76.47 E122.6441
G1 X25.03 Y25.98 E125.0192
G1 X24.48 Y25.99 E125.0376
G1 X75.52 Y77.04 E127.4386
G1 X75.52 Y77.6 E127.4574
G1 X24.48 Y26.56 E129.8584
G1 X24.48 Y27.12 E129.8772
G1 X75.52 Y78.17 E132.2781
G1 X75.52 Y78.73 E132.297
G1 X24.48 Y27.69 E134.6979
G1 X24.48 Y28.26 E134.7167
G1 X75.52 Y79.3 E137.1177
G1 X75.52 Y79.87 E137.1365
G1 X24.48 Y28.82 E139.5375
G1 X24.48 Y29.39 E139.5563
G1 X75.52 Y80.43 E141.9572
G1 X75.52 Y81 E141.976
G1 X24.48 Y29.95 E144.377
G1 X24.48 Y30.52 E144.3958
G1 X75.52 Y81.56 E146.7968
G1 X75.52 Y82.13 E146.8156
G1 X24.48 Y31.08 E149.2166
G1 X24.48 Y31.65 E149.2354
G1 X75.52 Y82.69 E151.6363
G1 X75.52 Y83.26 E151.6552
G1 X24.48 Y32.22 E154.0561
G1 X24.48 Y32.78 E154.0749
G1 X75.52 Y83.83 E156.4759
G1 X75.52 Y84.39 E156.4947
G1 X24.48 Y33.35 E158.8956
G1 X24.48 Y33.91 E158.9145
G1 X75.52 Y84.96 E161.3154
G1 X75.52 Y85.52 E161.3342
G1 X24.48 Y34.48 E163.7352
G1 X24.48 Y35.04 E163.754
G1 X75.52 Y86.09 E166.155
G1 X75.52 Y86.65 E166.1738
G1 X24.48 Y35.61 E168.5748
G1 X24.48 Y36.17 E168.5936
G1 X75.52 Y87.22 E170.9945
G1 X75.52 Y87.78 E171.0133
G1 X24.48 Y36.74 E173.4143
G1 X24.48 Y37.31 E173.4331
G1 X75.52 Y88.35 E175.8341
G1 X75.52 Y88.92 E175.8529
G1 X24.48 Y37.87 E178.2538
G1 X24.48 Y38.44 E178.2727
G1 X75.52 Y89.48 E180.6736
G1 X75.52 Y90.05 E180.6924
G1 X24.48 Y39 E183.0934
G1 X24.48 Y39.57 E183.1122
G1 X75.52 Y90.61 E185.5132
G1 X75.52 Y91.18 E185.532
G1 X24.48 Y40.13 E187.9329
G1 X24.48 Y40.7 E187.9518
G1 X75.52 Y91.74 E190.3527
G1 X75.52 Y92.31 E190.3715
G1 X24.48 Y41.27 E192.7725
G1 X24.48 Y41.83 E192.7913
G1 X75.52 Y92.88 E195.1923
G1 X75.52 Y93.44 E195.2111
G1 X24.48 Y42.4 E197.612
G1 X24.48 Y42.96 E197.6308
G1 X75.52 Y94.01 E200.0319
G1 X74.97 Y94.02 E200.0502
G1 X24.48 Y43.53 E202.4253
G1 X24.48 Y44.09 E202.4441
G1 X74.4 Y94.02 E204.7925
G1 X73.84 Y94.02 E204.8113
G1 X24.48 Y44.66 E207.1331
G1 X24.48 Y45.23 E207.1519
G1 X73.27 Y94.02 E209.4471
G1 X72.71 Y94.02 E209.4659
G1 X24.48 Y45.79 E211.7345
G1 X24.48 Y46.36 E211.7533
G1 X72.14 Y94.02 E213.9953
G1 X71.58 Y94.02 E214.0141
G1 X24.48 Y46.92 E216.2295
G1 X24.48 Y47.49 E216.2483
G1 X71.01 Y94.02 E218.437
G1 X70.44 Y94.02 E218.4559
G1 X24.48 Y48.05 E220.618
G1 X24.48 Y48.62 E220.6368
G1 X69.88 Y94.02 E222.7724
G1 X69.31 Y94.02 E222.7912
G1 X24.48 Y49.19 E224.9001
G1 X24.48 Y49.75 E224.9189
G1 X68.75 Y94.02 E227.0012
G1 X68.18 Y94.02 E227.0201
G1 X24.48 Y50.32 E229.0758
G1 X24.48 Y50.88 E229.0946
G1 X67.62 Y94.02 E231.1237
G1 X67.05 Y94.02 E231.1425
G1 X24.48 Y51.45 E233.145
G1 X24.48 Y52.01 E233.1638
G1 X66.49 Y94.02 E235.1397
G1 X65.92 Y94.02 E235.1585
G1 X24.48 Y52.58 E237.1078
G1 X24.48 Y53.15 E237.1266
G1 X65.35 Y94.02 E239.0493
G1 X64.79 Y94.02 E239.0681
G1 X24.48 Y53.71 E240.9641
G1 X24.48 Y54.28 E240.983
G1 X64.22 Y94.02 E242.8524
G1 X63.66 Y94.02 E242.8712
G1 X24.48 Y54.84 E244.7141
G1 X24.48 Y55.41 E244.7329
G1 X63.09 Y94.02 E246.5491
G1 X62.53 Y94.02 E246.5679
G1 X24.48 Y55.97 E248.3576
G1 X24.48 Y56.54 E248.3764
G1 X61.96 Y94.02 E250.1394
G1 X61.39 Y94.02 E250.1582
G1 X24.48 Y57.11 E251.8946
G1 X24.48 Y57.67 E251.9135
G1 X60.83 Y94.02 E253.6233
G1 X60.26 Y94.02 E253.6421
G1 X24.48 Y58.24 E255.3253
G1 X24.48 Y58.8 E255.3441
G1 X59.7 Y94.02 E257.0007
G1 X59.13 Y94.02 E257.0195
G1 X24.48 Y59.37 E258.6495
G1 X24.48 Y59.93 E258.6683
G1 X58.57 Y94.02 E260.2717
G1 X58 Y94.02 E260.2905
G1 X24.48 Y60.5 E261.8672
G1 X24.48 Y61.07 E261.886
G1 X57.43 Y94.02 E263.4362
G1 X56.87 Y94.02 E263.455
G1 X24.48 Y61.63 E264.9786
G1 X24.48 Y62.2 E264.9974
G1 X56.3 Y94.02 E266.4944
G1 X55.74 Y94.02 E266.5132
G1 X24.48 Y62.76 E267.9835
G1 X24.48 Y63.33 E268.0023
G1 X55.17 Y94.02 E269.446
G1 X54.61 Y94.02 E269.4648
G1 X24.48 Y63.89 E270.882
G1 X24.48 Y64.46 E270.9008
G1 X54.04 Y94.02 E272.2913
G1 X53.47 Y94.02 E272.3101
G1 X24.48 Y65.02 E273.674
G1 X24.48 Y65.59 E273.6928
G1 X52.91 Y94.02 E275.0301
G1 X52.34 Y94.02 E275.0489
G1 X24.48 Y66.16 E276.3596
G1 X24.48 Y66.72 E276.3784
G1 X51.78 Y94.02 E277.6625
G1 X51.21 Y94.02 E277.6813
G1 X24.48 Y67.29 E278.9388
G1 X24.48 Y67.85 E278.9576
G1 X50.65 Y94.02 E280.1884
G1 X50.08 Y94.02 E280.2073
G1 X24.48 Y68.42 E281.4115
G1 X24.48 Y68.98 E281.4303
G1 X49.51 Y94.02 E282.608
G1 X48.95 Y94.02 E282.6268
G1 X24.48 Y69.55 E283.7778
G1 X24.48 Y70.12 E283.7967
G1 X48.38 Y94.02 E284.9211
G1 X47.82 Y94.02 E284.9399
G1 X24.48 Y70.68 E286.0377
G1 X24.48 Y71.25 E286.0565
G1 X47.25 Y94.02 E287.1277
G1 X46.69 Y94.02 E287.1465
G1 X24.48 Y71.81 E288.1912
G1 X24.48 Y72.38 E288.21
G1 X46.12 Y94.02 E289.228
G1 X45.55 Y94.02 E289.2468
G1 X24.48 Y72.94 E290.2382
G1 X24.48 Y73.51 E290.257
G1 X44.99 Y94.02 E291.2218
G1 X44.42 Y94.02 E291.2406
G1 X24.48 Y74.08 E292.1787
G1 X24.48 Y74.64 E292.1976
G1 X43.86 Y94.02 E293.1091
G1 X43.29 Y94.02 E293.1279
G1 X24.48 Y75.21 E294.0129
G1 X24.48 Y75.77 E294.0317
G1 X42.73 Y94.02 E294.89
G1 X42.16 Y94.02 E294.9089
G1 X24.48 Y76.34 E295.7406
G1 X24.48 Y76.9 E295.7594
G1 X41.59 Y94.02 E296.5645
G1 X41.03 Y94.02 E296.5834
G1 X24.48 Y77.47 E297.3619
G1 X24.48 Y78.04 E297.3807
G1 X40.46 Y94.02 E298.1326
G1 X39.9 Y94.02 E298.1514
G1 X24.48 Y78.6 E298.8767
G1 X24.48 Y79.17 E298.8956
G1 X39.33 Y94.02 E299.5943
G1 X38.77 Y94.02 E299.6131
G1 X24.48 Y79.73 E300.2852
G1 X24.48 Y80.3 E300.304
G1 X38.2 Y94.02 E300.9495
G1 X37.64 Y94.02 E300.9683
G1 X24.48 Y80.86 E301.5872
G1 X24.48 Y81.43 E301.606
G1 X37.07 Y94.02 E302.1982
G1 X36.5 Y94.02 E302.217
G1 X24.48 Y82 E302.7827
G1 X24.48 Y82.56 E302.8015
G1 X35.94 Y94.02 E303.3406
G1 X35.37 Y94.02 E303.3594
G1 X24.48 Y83.13 E303.8718
G1 X24.48 Y83.69 E303.8906
G1 X34.81 Y94.02 E304.3765
G1 X34.24 Y94.02 E304.3953
G1 X24.48 Y84.26 E304.8545
G1 X24.48 Y84.82 E304.8733
G1 X33.68 Y94.02 E305.3059
G1 X33.11 Y94.02 E305.3248
G1 X24.48 Y85.39 E305.7308
G1 X24.48 Y85.96 E305.7496
G1 X32.54 Y94.02 E306.129
G1 X31.98 Y94.02 E306.1478
G1 X24.48 Y86.52 E306.5006
G1 X24.48 Y87.09 E306.5194
G1 X31.41 Y94.02 E306.8456
G1 X30.85 Y94.02 E306.8644
G1 X24.48 Y87.65 E307.164
G1 X24.48 Y88.22 E307.1828
G1 X30.28 Y94.02 E307.4557
G1 X29.72 Y94.02 E307.4746
G1 X24.48 Y88.78 E307.7209
G1 X24.48 Y89.35 E307.7397
G1 X29.15 Y94.02 E307.9595
G1 X28.58 Y94.02 E307.9783
G1 X24.48 Y89.92 E308.1715
G1 X24.48 Y90.48 E308.1903
G1 X28.02 Y94.02 E308.3568
G1 X27.45 Y94.02 E308.3756
G1 X24.48 Y91.05 E308.5156
G1 X24.48 Y91.61 E308.5344
G1 X26.89 Y94.02 E308.6477
G1 X26.32 Y94.02 E308.6665
G1 X24.48 Y92.18 E308.7532
G1 X24.48 Y92.74 E308.772
G1 X25.76 Y94.02 E308.8321
G1 X25.19 Y94.02 E308.851
G1 X24.48 Y93.31 E308.8845
G1 X24.48 Y93.87 E308.9033
G1 X24.63 Y94.03 E308.9106
;
; 'Wipe', 0.0 [RPM], 40.0 [mm/s]
G1 F210
G1 X24.63 Y94.03 Z1.25 E308.9106
; END_LAYER_OBJECT z=0.80
; Reset extruder pos
G92 E0
; BEGIN_LAYER_OBJECT z=1.00
; fan on
M106
;
; 'Loop', 53.3 [RPM], 33.4 [mm/s]
G1 F9000
G1 X75.88 Y94.37 E0
G1 F210
G1 X75.88 Y94.37 Z1 E0
G1 F2004.6
G1 X75.71 Y94.38 E0.0058
G1 X24.29 Y94.38 E1.7159
G1 X24.12 Y94.37 E1.7218
G1 X24.12 Y25.63 E4.0079
G1 X24.29 Y25.62 E4.0138
G1 X75.71 Y25.62 E5.7239
G1 X75.88 Y25.63 E5.7297
G1 X75.88 Y74.95 E7.3699
G1 X75.88 Y94.37 E8.0159
; fan off
M107
;
; 'Wipe', 0.0 [RPM], 40.0 [mm/s]
; fan on
M106
;
; 'Perimeter', 27.9 [RPM], 17.5 [mm/s]
G1 F9000
G1 X76.14 Y94.53 E8.0159
G1 F1050
G1 X76.28 Y94.77 E8.0251
G1 X76.11 Y94.78 E8.0309
G1 X23.89 Y94.78 E9.7676
G1 X23.72 Y94.77 E9.7735
G1 X23.72 Y57.06 E11.0278
G1 X23.72 Y25.23 E12.0863
G1 X23.89 Y25.22 E12.0921
G1 X76.11 Y25.22 E13.8288
G1 X76.12 Y25.22 E13.8294
G1 X76.28 Y25.23 E13.8347
G1 X76.28 Y50.88 E14.6876
G1 X76.28 Y51.78 E14.7175
G1 X76.28 Y94.77 E16.1475
G1 X76.04 Y94.64 E16.1567
; fan off
M107
;
; 'Sparse Infill', 75.0 [RPM], 47.0 [mm/s]
G1 F9000
G1 X75.45 Y93.94 E16.1567
G1 F2818.7
G1 X75.46 Y93.94 E16.157
G1 X75.34 Y93.56 E16.1701
G1 X75.34 Y93.18 E16.1827
G1 X75.46 Y92.81 E16.1959
G1 X74.32 Y93.94 E16.2494
G1 X73.94 Y93.82 E16.2625
G1 X73.57 Y93.82 E16.2751
G1 X73.19 Y93.94 E16.2883
G1 X75.46 Y91.68 E16.395
G1 X75.34 Y91.3 E16.4081
G1 X75.34 Y90.92 E16.4207
G1 X75.46 Y90.54 E16.4339
G1 X72.06 Y93.94 E16.5938
G1 X71.68 Y93.82 E16.607
G1 X71.3 Y93.82 E16.6195
G1 X70.93 Y93.94 E16.6327
G1 X75.46 Y89.41 E16.8458
G1 X75.34 Y89.04 E16.859
G1 X75.34 Y88.66 E16.8715
G1 X75.46 Y88.28 E16.8847
G1 X69.8 Y93.94 E17.1511
G1 X69.42 Y93.82 E17.1642
G1 X69.04 Y93.82 E17.1768
G1 X68.66 Y93.94 E17.19
G1 X75.46 Y87.15 E17.5095
G1 X75.34 Y86.77 E17.5227
G1 X75.34 Y86.4 E17.5353
G1 X75.46 Y86.02 E17.5484
G1 X67.53 Y93.94 E17.9212
G1 X67.16 Y93.82 E17.9344
G1 X66.78 Y93.82 E17.9469
G1 X66.4 Y93.94 E17.9601
G1 X75.46 Y84.89 E18.3861
G1 X75.34 Y84.51 E18.3993
G1 X75.34 Y84.13 E18.4118
G1 X75.46 Y83.76 E18.425
G1 X65.27 Y93.94 E18.9042
G1 X64.89 Y93.82 E18.9174
G1 X64.52 Y93.82 E18.93
G1 X64.14 Y93.94 E18.9432
G1 X75.46 Y82.62 E19.4756
G1 X75.34 Y82.25 E19.4888
G1 X75.34 Y81.87 E19.5013
G1 X75.46 Y81.49 E19.5145
G1 X63.01 Y93.94 E20.1001
G1 X62.63 Y93.82 E20.1133
G1 X62.25 Y93.82 E20.1258
G1 X61.88 Y93.94 E20.139
G1 X75.46 Y80.36 E20.7779
G1 X75.34 Y79.98 E20.7911
G1 X75.34 Y79.61 E20.8036
G1 X75.46 Y79.23 E20.8168
G1 X60.75 Y93.94 E21.5089
G1 X60.37 Y93.82 E21.5221
G1 X59.99 Y93.82 E21.5346
G1 X59.61 Y93.94 E21.5478
G1 X75.46 Y78.1 E22.2931
G1 X75.34 Y77.72 E22.3063
G1 X75.34 Y77.34 E22.3188
G1 X75.46 Y76.97 E22.332
G1 X58.48 Y93.94 E23.1305
G1 X58.11 Y93.82 E23.1437
G1 X57.73 Y93.82 E23.1562
G1 X57.35 Y93.94 E23.1694
G1 X75.46 Y75.84 E24.0211
G1 X75.34 Y75.46 E24.0343
G1 X75.34 Y75.08 E24.0468
G1 X75.46 Y74.71 E24.06
G1 X56.22 Y93.94 E24.965
G1 X55.84 Y93.82 E24.9782
G1 X55.47 Y93.82 E24.9907
G1 X55.09 Y93.94 E25.0039
G1 X75.46 Y73.57 E25.962
G1 X75.34 Y73.2 E25.9752
G1 X75.34 Y72.82 E25.9878
G1 X75.46 Y72.44 E26.001
G1 X53.96 Y93.94 E27.0123
G1 X53.58 Y93.82 E27.0255
G1 X53.2 Y93.82 E27.038
G1 X52.83 Y93.94 E27.0512
G1 X75.46 Y71.31 E28.1158
G1 X75.34 Y70.93 E28.129
G1 X75.34 Y70.56 E28.1415
G1 X75.46 Y70.18 E28.1547
G1 X51.69 Y93.94 E29.2725
G1 X51.32 Y93.82 E29.2857
G1 X50.94 Y93.82 E29.2983
G1 X50.56 Y93.94 E29.3114
G1 X75.46 Y69.05 E30.4825
G1 X75.34 Y68.67 E30.4956
G1 X75.34 Y68.29 E30.5082
G1 X75.46 Y67.92 E30.5214
G1 X59.61 Y83.76 E31.2667
G1 X59.74 Y83.38 E31.2799
G1 X59.73 Y83.01 E31.2924
G1 X59.61 Y82.63 E31.3056
G1 X75.46 Y66.79 E32.0509
G1 X75.34 Y66.41 E32.064
G1 X75.34 Y66.03 E32.0766
G1 X75.46 Y65.65 E32.0898
G1 X59.61 Y81.5 E32.8351
G1 X59.74 Y81.12 E32.8483
G1 X59.73 Y80.74 E32.8608
G1 X59.61 Y80.37 E32.874
G1 X75.46 Y64.52 E33.6193
G1 X75.34 Y64.15 E33.6324
G1 X75.34 Y63.77 E33.645
G1 X75.46 Y63.39 E33.6582
G1 X58.48 Y80.37 E34.4567
G1 X58.11 Y80.25 E34.4699
G1 X57.73 Y80.24 E34.4824
G1 X57.35 Y80.37 E34.4956
G1 X75.46 Y62.26 E35.3473
G1 X75.34 Y61.88 E35.3605
G1 X75.34 Y61.51 E35.373
G1 X75.46 Y61.13 E35.3862
G1 X42.64 Y93.94 E36.9298
G1 X42.27 Y93.82 E36.9429
G1 X41.89 Y93.82 E36.9555
G1 X41.51 Y93.94 E36.9687
G1 X75.46 Y60 E38.5654
G1 X75.34 Y59.62 E38.5786
G1 X75.34 Y59.24 E38.5911
G1 X75.46 Y58.87 E38.6043
G1 X40.38 Y93.94 E40.2543
G1 X40 Y93.82 E40.2675
G1 X39.63 Y93.82 E40.28
G1 X39.25 Y93.94 E40.2932
G1 X75.46 Y57.73 E41.9964
G1 X75.34 Y57.36 E42.0096
G1 X75.34 Y56.98 E42.0221
G1 X75.46 Y56.6 E42.0353
G1 X38.12 Y93.94 E43.7917
G1 X37.74 Y93.82 E43.8049
G1 X37.36 Y93.82 E43.8174
G1 X36.99 Y93.94 E43.8306
G1 X75.46 Y55.47 E45.6402
G1 X75.34 Y55.09 E45.6534
G1 X75.34 Y54.72 E45.6659
G1 X75.46 Y54.34 E45.6791
G1 X35.86 Y93.94 E47.542
G1 X35.48 Y93.82 E47.5551
G1 X35.1 Y93.82 E47.5677
G1 X34.72 Y93.94 E47.5809
G1 X75.46 Y53.21 E49.4969
G1 X75.34 Y52.83 E49.5101
G1 X75.34 Y52.45 E49.5226
G1 X75.46 Y52.08 E49.5358
G1 X33.59 Y93.94 E51.5051
G1 X33.22 Y93.82 E51.5183
G1 X32.84 Y93.82 E51.5308
G1 X32.46 Y93.94 E51.544
G1 X75.46 Y50.95 E53.5665
G1 X75.34 Y50.57 E53.5796
G1 X75.34 Y50.19 E53.5922
G1 X75.46 Y49.81 E53.6054
G1 X31.33 Y93.94 E55.6811
G1 X30.95 Y93.82 E55.6943
G1 X30.58 Y93.82 E55.7068
G1 X30.2 Y93.94 E55.72
G1 X75.46 Y48.68 E57.8489
G1 X75.34 Y48.31 E57.8621
G1 X75.34 Y47.93 E57.8746
G1 X75.46 Y47.55 E57.8878
G1 X29.07 Y93.94 E60.0699
G1 X28.69 Y93.82 E60.0831
G1 X28.31 Y93.82 E60.0957
G1 X27.94 Y93.94 E60.1088
G1 X75.46 Y46.42 E62.3442
G1 X75.34 Y46.04 E62.3574
G1 X75.34 Y45.67 E62.3699
G1 X75.46 Y45.29 E62.3831
G1 X26.8 Y93.94 E64.6717
G1 X26.43 Y93.82 E64.6848
G1 X26.05 Y93.82 E64.6974
G1 X25.67 Y93.94 E64.7106
G1 X75.46 Y44.16 E67.0523
G1 X75.34 Y43.78 E67.0655
G1 X75.34 Y43.4 E67.0781
G1 X75.46 Y43.03 E67.0913
G1 X24.54 Y93.94 E69.4863
G1 X24.66 Y93.57 E69.4994
G1 X24.66 Y93.19 E69.512
G1 X24.54 Y92.81 E69.5252
G1 X75.46 Y41.9 E71.9202
G1 X75.34 Y41.52 E71.9333
G1 X75.34 Y41.14 E71.9459
G1 X75.46 Y40.76 E71.9591
G1 X24.54 Y91.68 E74.3541
G1 X24.66 Y91.3 E74.3672
G1 X24.66 Y90.93 E74.3798
G1 X24.54 Y90.55 E74.393
G1 X30.2 Y84.89 E74.6593
G1 X29.83 Y85.01 E74.6725
G1 X29.45 Y85.01 E74.685
G1 X29.07 Y84.89 E74.6982
G1 X24.54 Y89.42 E74.9113
G1 X24.66 Y89.04 E74.9245
G1 X24.66 Y88.66 E74.9371
G1 X24.54 Y88.29 E74.9503
G1 X28.22 Y84.6 E75.1235
G1 X28.1 Y84.23 E75.1366
G1 X28.1 Y83.85 E75.1492
G1 X28.22 Y83.47 E75.1624
G1 X24.54 Y87.16 E75.3356
G1 X24.66 Y86.78 E75.3488
G1 X24.66 Y86.4 E75.3613
G1 X24.54 Y86.02 E75.3745
G1 X28.22 Y82.34 E75.5477
G1 X28.1 Y81.96 E75.5609
G1 X28.1 Y81.59 E75.5734
G1 X28.22 Y81.21 E75.5866
G1 X24.54 Y84.89 E75.7598
G1 X24.66 Y84.52 E75.773
G1 X24.66 Y84.14 E75.7856
G1 X24.54 Y83.76 E75.7988
G1 X75.46 Y32.84 E78.1937
G1 X75.34 Y32.47 E78.2069
G1 X75.34 Y32.09 E78.2195
G1 X75.46 Y31.71 E78.2327
G1 X34.9 Y72.28 E80.1406
G1 X24.54 Y82.63 E80.6277
G1 X24.66 Y82.25 E80.6408
G1 X24.66 Y81.88 E80.6534
G1 X24.54 Y81.5 E80.6666
G1 X75.46 Y30.58 E83.0616
G1 X75.34 Y30.2 E83.0747
G1 X75.34 Y29.83 E83.0873
G1 X75.46 Y29.45 E83.1005
G1 X32.35 Y72.56 E85.1281
G1 X24.54 Y80.37 E85.4955
G1 X24.66 Y79.99 E85.5087
G1 X24.66 Y79.61 E85.5212
G1 X24.54 Y79.24 E85.5344
G1 X75.46 Y28.32 E87.9294
G1 X75.34 Y27.94 E87.9425
G1 X75.34 Y27.56 E87.9551
G1 X75.46 Y27.19 E87.9683
G1 X31.22 Y71.43 E90.0492
G1 X24.54 Y78.1 E90.3633
G1 X24.66 Y77.73 E90.3765
G1 X24.66 Y77.35 E90.389
G1 X24.54 Y76.97 E90.4022
G1 X75.46 Y26.06 E92.7972
G1 X75.08 Y26.18 E92.8104
G1 X74.7 Y26.18 E92.8229
G1 X74.33 Y26.06 E92.8361
G1 X24.54 Y75.84 E95.1779
G1 X24.66 Y75.46 E95.191
G1 X24.66 Y75.09 E95.2036
G1 X24.54 Y74.71 E95.2168
G1 X73.2 Y26.06 E97.5053
G1 X72.82 Y26.18 E97.5185
G1 X72.44 Y26.18 E97.5311
G1 X72.06 Y26.06 E97.5442
G1 X24.54 Y73.58 E99.7796
G1 X24.66 Y73.2 E99.7928
G1 X24.66 Y72.82 E99.8053
G1 X24.54 Y72.45 E99.8185
G1 X70.93 Y26.06 E102.0006
G1 X70.56 Y26.18 E102.0138
G1 X70.18 Y26.18 E102.0264
G1 X69.8 Y26.06 E102.0395
G1 X24.54 Y71.32 E104.1684
G1 X24.66 Y70.94 E104.1816
G1 X24.66 Y70.56 E104.1942
G1 X24.54 Y70.19 E104.2073
G1 X68.67 Y26.06 E106.283
G1 X68.29 Y26.18 E106.2962
G1 X67.92 Y26.18 E106.3088
G1 X67.54 Y26.06 E106.322
G1 X24.54 Y69.05 E108.3444
G1 X24.66 Y68.68 E108.3576
G1 X24.66 Y68.3 E108.3702
G1 X24.54 Y67.92 E108.3833
G1 X66.41 Y26.06 E110.3526
G1 X66.03 Y26.18 E110.3658
G1 X65.65 Y26.18 E110.3783
G1 X65.28 Y26.06 E110.3915
G1 X24.54 Y66.79 E112.3076
G1 X24.66 Y66.41 E112.3208
G1 X24.66 Y66.04 E112.3333
G1 X24.54 Y65.66 E112.3465
G1 X64.14 Y26.06 E114.2093
G1 X63.77 Y26.18 E114.2225
G1 X63.39 Y26.18 E114.235
G1 X63.01 Y26.06 E114.2482
G1 X24.54 Y64.53 E116.0578
G1 X24.66 Y64.15 E116.071
G1 X24.66 Y63.77 E116.0836
G1 X24.54 Y63.4 E116.0967
G1 X61.88 Y26.06 E117.8531
G1 X61.51 Y26.18 E117.8663
G1 X61.13 Y26.18 E117.8789
G1 X60.75 Y26.06 E117.892
G1 X24.54 Y62.27 E119.5952
G1 X24.66 Y61.89 E119.6084
G1 X24.66 Y61.51 E119.621
G1 X24.54 Y61.13 E119.6341
G1 X59.62 Y26.06 E121.2841
G1 X59.24 Y26.18 E121.2973
G1 X58.87 Y26.18 E121.3098
G1 X58.49 Y26.06 E121.323
G1 X24.54 Y60 E122.9198
G1 X24.66 Y59.63 E122.933
G1 X24.66 Y59.25 E122.9455
G1 X24.54 Y58.87 E122.9587
G1 X57.36 Y26.06 E124.5022
G1 X56.98 Y26.18 E124.5154
G1 X56.6 Y26.18 E124.5279
G1 X56.23 Y26.06 E124.5411
G1 X24.54 Y57.74 E126.0314
G1 X24.66 Y57.36 E126.0446
G1 X24.66 Y56.99 E126.0572
G1 X24.54 Y56.61 E126.0703
G1 X51.42 Y29.73 E127.3345
G1 X51.04 Y29.86 E127.3477
G1 X50.66 Y29.85 E127.3602
G1 X50.29 Y29.73 E127.3734
G1 X24.54 Y55.48 E128.5843
G1 X24.66 Y55.1 E128.5975
G1 X24.66 Y54.72 E128.6101
G1 X24.54 Y54.35 E128.6232
G1 X49.15 Y29.73 E129.781
G1 X48.78 Y29.86 E129.7941
G1 X48.4 Y29.85 E129.8067
G1 X48.02 Y29.73 E129.8199
G1 X24.54 Y53.21 E130.9244
G1 X24.66 Y52.84 E130.9376
G1 X24.66 Y52.46 E130.9501
G1 X24.54 Y52.08 E130.9633
G1 X46.89 Y29.73 E132.0146
G1 X46.7 Y29.54 E132.0234
G1 X46.48 Y29.17 E132.038
G1 X46.61 Y28.88 E132.0484
G1 X24.54 Y50.95 E133.0864
G1 X24.66 Y50.57 E133.0996
G1 X24.66 Y50.2 E133.1121
G1 X24.54 Y49.82 E133.1253
G1 X46.61 Y27.75 E134.1633
G1 X46.49 Y27.38 E134.1765
G1 X46.49 Y27 E134.189
G1 X46.61 Y26.62 E134.2022
G1 X24.54 Y48.69 E135.2402
G1 X24.66 Y48.31 E135.2534
G1 X24.66 Y47.93 E135.2659
G1 X24.54 Y47.56 E135.2791
G1 X46.04 Y26.06 E136.2905
G1 X45.67 Y26.18 E136.3036
G1 X45.29 Y26.18 E136.3162
G1 X44.91 Y26.06 E136.3294
G1 X24.54 Y46.43 E137.2875
G1 X24.66 Y46.05 E137.3007
G1 X24.66 Y45.67 E137.3132
G1 X24.54 Y45.29 E137.3264
G1 X43.78 Y26.06 E138.2314
G1 X43.4 Y26.18 E138.2446
G1 X43.03 Y26.18 E138.2571
G1 X42.65 Y26.06 E138.2703
G1 X24.54 Y44.16 E139.122
G1 X24.66 Y43.79 E139.1352
G1 X24.66 Y43.41 E139.1477
G1 X24.54 Y43.03 E139.1609
G1 X41.52 Y26.06 E139.9594
G1 X41.14 Y26.18 E139.9726
G1 X40.76 Y26.18 E139.9852
G1 X40.39 Y26.06 E139.9983
G1 X24.54 Y41.9 E140.7436
G1 X24.66 Y41.52 E140.7568
G1 X24.66 Y41.15 E140.7693
G1 X24.54 Y40.77 E140.7825
G1 X39.25 Y26.06 E141.4746
G1 X38.88 Y26.18 E141.4878
G1 X38.5 Y26.18 E141.5003
G1 X38.12 Y26.06 E141.5135
G1 X24.54 Y39.64 E142.1524
G1 X24.66 Y39.26 E142.1656
G1 X24.66 Y38.88 E142.1781
G1 X24.54 Y38.51 E142.1913
G1 X36.99 Y26.06 E142.7769
G1 X36.61 Y26.18 E142.7901
G1 X36.24 Y26.18 E142.8026
G1 X35.86 Y26.06 E142.8158
G1 X24.54 Y37.38 E143.3483
G1 X24.66 Y37 E143.3614
G1 X24.66 Y36.62 E143.374
G1 X24.54 Y36.24 E143.3872
G1 X34.73 Y26.06 E143.8664
G1 X34.35 Y26.18 E143.8796
G1 X33.98 Y26.18 E143.8921
G1 X33.6 Y26.06 E143.9053
G1 X24.54 Y35.11 E144.3313
G1 X24.66 Y34.74 E144.3445
G1 X24.66 Y34.36 E144.357
G1 X24.54 Y33.98 E144.3702
G1 X32.47 Y26.06 E144.743
G1 X32.09 Y26.18 E144.7561
G1 X31.71 Y26.18 E144.7687
G1 X31.34 Y26.06 E144.7819
G1 X24.54 Y32.85 E145.1014
G1 X24.66 Y32.47 E145.1146
G1 X24.66 Y32.1 E145.1272
G1 X24.54 Y31.72 E145.1403
G1 X30.2 Y26.06 E145.4067
G1 X29.83 Y26.18 E145.4199
G1 X29.45 Y26.18 E145.4324
G1 X29.07 Y26.06 E145.4456
G1 X24.54 Y30.59 E145.6587
G1 X24.66 Y30.21 E145.6719
G1 X24.66 Y29.83 E145.6844
G1 X24.54 Y29.46 E145.6976
G1 X27.94 Y26.06 E145.8575
G1 X27.56 Y26.18 E145.8707
G1 X27.19 Y26.18 E145.8833
G1 X26.81 Y26.06 E145.8965
G1 X24.54 Y28.32 E146.0031
G1 X24.66 Y27.95 E146.0163
G1 X24.66 Y27.57 E146.0289
G1 X24.54 Y27.19 E146.0421
G1 X25.68 Y26.06 E146.0955
G1 X25.3 Y26.18 E146.1087
G1 X24.92 Y26.18 E146.1213
G1 X24.55 Y26.06 E146.1344
G1 X24.54 Y26.06 E146.1347
;
; 'Sparse Infill', 75.0 [RPM], 47.0 [mm/s]
G1 F9000
G1 X52.26 Y26.63 E146.1347
G1 F2818.7
G1 X52.83 Y26.06 E146.1616
G1 X53.21 Y26.18 E146.1747
G1 X53.59 Y26.18 E146.1873
G1 X53.96 Y26.06 E146.2005
G1 X52.26 Y27.76 E146.2806
G1 X52.38 Y28.14 E146.2937
G1 X52.38 Y28.51 E146.3063
G1 X52.26 Y28.89 E146.3195
G1 X55.09 Y26.06 E146.4528
;
; 'Sparse Infill', 75.0 [RPM], 47.0 [mm/s]
G1 F9000
G1 X75.46 Y33.98 E146.4528
G1 F2818.7
G1 X36.03 Y73.41 E148.3075
G1 X29.07 Y80.37 E148.6349
G1 X29.44 Y80.24 E148.6481
G1 X29.82 Y80.25 E148.6607
G1 X30.2 Y80.37 E148.6738
G1 X75.46 Y35.11 E150.8027
G1 X75.34 Y35.48 E150.8159
G1 X75.34 Y35.86 E150.8285
G1 X75.46 Y36.24 E150.8416
G1 X31.33 Y80.37 E152.9173
G1 X31.52 Y80.56 E152.9262
G1 X31.74 Y80.93 E152.9408
G1 X31.61 Y81.22 E152.9512
G1 X75.46 Y37.37 E155.0136
G1 X75.34 Y37.75 E155.0268
G1 X75.34 Y38.12 E155.0393
G1 X75.46 Y38.5 E155.0525
G1 X31.61 Y82.35 E157.1149
G1 X31.73 Y82.72 E157.1281
G1 X31.74 Y83.1 E157.1406
G1 X31.61 Y83.48 E157.1538
G1 X75.46 Y39.63 E159.2162
;
; 'Sparse Infill', 75.0 [RPM], 47.0 [mm/s]
G1 F9000
G1 X56.23 Y81.49 E159.2162
G1 F2818.7
G1 X43.77 Y93.94 E159.8018
G1 X44.15 Y93.82 E159.815
G1 X44.53 Y93.82 E159.8276
G1 X44.91 Y93.94 E159.8407
G1 X56.23 Y82.62 E160.3732
G1 X56.1 Y83 E160.3864
G1 X56.1 Y83.38 E160.3989
G1 X56.23 Y83.76 E160.4121
G1 X46.04 Y93.94 E160.8913
G1 X46.41 Y93.82 E160.9045
G1 X46.79 Y93.82 E160.917
G1 X47.17 Y93.94 E160.9302
G1 X56.23 Y84.89 E161.3562
G1 X56.6 Y85.01 E161.3694
G1 X56.98 Y85.01 E161.3819
G1 X57.36 Y84.89 E161.3951
G1 X48.3 Y93.94 E161.8211
G1 X48.68 Y93.82 E161.8343
G1 X49.05 Y93.82 E161.8468
G1 X49.43 Y93.94 E161.86
G1 X58.49 Y84.89 E162.286
;
; 'Sparse Infill', 75.0 [RPM], 47.0 [mm/s]
G1 F9000
G1 X29.36 Y84.6 E162.286
G1 F2818.7
G1 X29.22 Y84.65 E162.2906
G1 X28.7 Y84.51 E162.3089
G1 X28.51 Y84.32 E162.3177
G1 X28.5 Y84.33 E162.318
;
; 'Sparse Infill', 75.0 [RPM], 47.0 [mm/s]
G1 F9000
G1 X47.17 Y29.46 E162.318
G1 F2818.7
G1 X47.17 Y29.45 E162.3183
G1 X46.99 Y29.26 E162.3271
G1 X46.73 Y28.63 E162.3499
G1 X46.89 Y28.6 E162.3554
G1 X46.89 Y28.61 E162.3557
;
; 'Stacked Sparse Infill', 75.0 [RPM], 47.0 [mm/s]
G1 F9000
G1 X51.7 Y28.32 E162.3557
G1 F2818.7
G1 X51.47 Y28.32 E162.3633
G1 X49.66 Y28.32 E162.4235
G1 X49.46 Y28.35 E162.4301
G1 X49.32 Y28.43 E162.4356
G1 X48.58 Y29.17 E162.4704
G1 X48.3 Y28.98 E162.4817
G1 X47.17 Y28.32 E162.5254
G1 X47.28 Y28.21 E162.5308
G1 X48.19 Y27.3 E162.5734
G1 X48.27 Y27.16 E162.5789
G1 X48.3 Y26.96 E162.5855
G1 X48.3 Y26.05 E162.6158
;
; 'Stacked Sparse Infill', 75.0 [RPM], 47.0 [mm/s]
G1 F9000
G1 X57.35 Y80.92 E162.6158
G1 F2818.7
G1 X57.35 Y81.27 E162.6273
G1 X57.33 Y81.47 E162.6339
G1 X57.24 Y81.61 E162.6394
G1 X56.79 Y82.06 E162.6608
G1 X59.06 Y82.63 E162.7387
G1 X58.71 Y82.63 E162.7502
G1 X58.51 Y82.66 E162.7568
G1 X58.37 Y82.74 E162.7623
G1 X57.47 Y83.65 E162.8049
G1 X57.38 Y83.79 E162.8103
G1 X57.35 Y83.99 E162.817
G1 X57.35 Y84.33 E162.8285
;
; 'Stacked Sparse Infill', 75.0 [RPM], 47.0 [mm/s]
G1 F9000
G1 X31.34 Y82.63 E162.8285
G1 F2818.7
G1 X31.22 Y82.74 E162.8339
G1 X30.31 Y83.65 E162.8765
G1 X30.23 Y83.79 E162.882
G1 X30.2 Y83.99 E162.8886
G1 X30.2 Y84.33 E162.9001
G1 X29.06 Y82.63 E162.9682
G1 X29.18 Y82.51 E162.9737
G1 X30.09 Y81.61 E163.0162
G1 X30.17 Y81.47 E163.0217
G1 X30.2 Y81.27 E163.0284
G1 X30.2 Y80.92 E163.0398
;
; 'Wipe', 0.0 [RPM], 40.0 [mm/s]
G1 F210
G1 X30.2 Y80.92 Z1.45 E163.0398
; END_LAYER_OBJECT z=1.00
; Reset extruder pos
G92 E0
; BEGIN_LAYER_OBJECT z=1.20
; fan on
M106
;
; 'Loop', 53.3 [RPM], 33.4 [mm/s]
G1 F9000
G1 X75.88 Y94.37 E0
G1 F210
G1 X75.88 Y94.37 Z1.2 E0
G1 F2004.6
G1 X75.71 Y94.38 E0.0058
G1 X24.29 Y94.38 E1.7159
G1 X24.12 Y94.37 E1.7218
G1 X24.12 Y25.63 E4.0079
G1 X24.29 Y25.62 E4.0138
G1 X65.15 Y25.62 E5.3726
G1 X75.71 Y25.62 E5.7239
G1 X75.88 Y25.63 E5.7297
G1 X75.88 Y74.95 E7.3699
G1 X75.88 Y94.37 E8.0159
; fan off
M107
;
; 'Wipe', 0.0 [RPM], 40.0 [mm/s]
; fan on
M106
;
; 'Perimeter', 27.9 [RPM], 17.5 [mm/s]
G1 F9000
G1 X76.14 Y94.53 E8.0159
G1 F1050
G1 X76.28 Y94.77 E8.0251
G1 X76.11 Y94.78 E8.0309
G1 X23.89 Y94.78 E9.7676
G1 X23.72 Y94.77 E9.7735
G1 X23.72 Y57.06 E11.0278
G1 X23.72 Y25.23 E12.0863
G1 X23.89 Y25.22 E12.0921
G1 X76.11 Y25.22 E13.8288
G1 X76.12 Y25.22 E13.8294
G1 X76.28 Y25.23 E13.8347
G1 X76.28 Y94.77 E16.1475
G1 X76.04 Y94.64 E16.1567
; fan off
M107
;
; 'Sparse Infill', 75.0 [RPM], 47.0 [mm/s]
G1 F9000
G1 X75.46 Y93.94 E16.1567
G1 F2818.7
G1 X32.07 Y50.55 E18.1977
G1 X24.54 Y43.03 E18.5517
G1 X24.66 Y42.65 E18.5649
G1 X24.66 Y42.27 E18.5774
G1 X24.54 Y41.9 E18.5906
G1 X75.46 Y92.81 E20.9856
G1 X75.34 Y92.44 E20.9988
G1 X75.34 Y92.06 E21.0113
G1 X75.46 Y91.68 E21.0245
G1 X24.54 Y40.76 E23.4195
G1 X24.66 Y40.39 E23.4327
G1 X24.66 Y40.01 E23.4452
G1 X24.54 Y39.63 E23.4584
G1 X75.46 Y90.55 E25.8534
G1 X75.34 Y90.17 E25.8666
G1 X75.34 Y89.8 E25.8791
G1 X75.46 Y89.42 E25.8923
G1 X24.54 Y38.5 E28.2873
G1 X24.66 Y38.12 E28.3005
G1 X24.66 Y37.75 E28.313
G1 X24.54 Y37.37 E28.3262
G1 X75.46 Y88.29 E30.7212
G1 X75.34 Y87.91 E30.7344
G1 X75.34 Y87.53 E30.7469
G1 X75.46 Y87.16 E30.7601
G1 X24.54 Y36.24 E33.1551
G1 X24.66 Y35.86 E33.1683
G1 X24.66 Y35.48 E33.1808
G1 X24.54 Y35.11 E33.194
G1 X75.46 Y86.02 E35.589
G1 X75.34 Y85.65 E35.6022
G1 X75.34 Y85.27 E35.6147
G1 X75.46 Y84.89 E35.6279
G1 X24.54 Y33.98 E38.0229
G1 X24.66 Y33.6 E38.0361
G1 X24.66 Y33.22 E38.0486
G1 X24.54 Y32.84 E38.0618
G1 X75.46 Y83.76 E40.4568
G1 X75.34 Y83.38 E40.47
G1 X75.34 Y83.01 E40.4825
G1 X75.46 Y82.63 E40.4957
G1 X24.54 Y31.71 E42.8907
G1 X24.66 Y31.34 E42.9039
G1 X24.66 Y30.96 E42.9164
G1 X24.54 Y30.58 E42.9296
G1 X75.46 Y81.5 E45.3246
G1 X75.34 Y81.12 E45.3378
G1 X75.34 Y80.74 E45.3504
G1 X75.46 Y80.37 E45.3635
G1 X24.54 Y29.45 E47.7585
G1 X24.66 Y29.07 E47.7717
G1 X24.66 Y28.7 E47.7842
G1 X24.54 Y28.32 E47.7974
G1 X75.46 Y79.24 E50.1924
G1 X75.34 Y78.86 E50.2056
G1 X75.34 Y78.48 E50.2182
G1 X75.46 Y78.1 E50.2313
G1 X24.54 Y27.19 E52.6263
G1 X24.66 Y26.81 E52.6395
G1 X24.66 Y26.43 E52.652
G1 X24.54 Y26.06 E52.6652
G1 X75.46 Y76.97 E55.0602
G1 X75.34 Y76.6 E55.0734
G1 X75.34 Y76.22 E55.086
G1 X75.46 Y75.84 E55.0991
G1 X25.67 Y26.06 E57.4409
G1 X26.05 Y26.18 E57.4541
G1 X26.43 Y26.18 E57.4667
G1 X26.8 Y26.06 E57.4798
G1 X75.46 Y74.71 E59.7684
G1 X75.34 Y74.33 E59.7816
G1 X75.34 Y73.96 E59.7941
G1 X75.46 Y73.58 E59.8073
G1 X27.94 Y26.06 E62.0426
G1 X28.31 Y26.18 E62.0558
G1 X28.69 Y26.18 E62.0684
G1 X29.07 Y26.06 E62.0815
G1 X75.46 Y72.45 E64.2637
G1 X75.34 Y72.07 E64.2769
G1 X75.34 Y71.69 E64.2894
G1 X75.46 Y71.32 E64.3026
G1 X30.2 Y26.06 E66.4315
G1 X30.58 Y26.18 E66.4447
G1 X30.95 Y26.18 E66.4572
G1 X31.33 Y26.06 E66.4704
G1 X75.46 Y70.19 E68.5461
G1 X75.34 Y69.81 E68.5593
G1 X75.34 Y69.43 E68.5718
G1 X75.46 Y69.05 E68.585
G1 X32.46 Y26.06 E70.6075
G1 X32.84 Y26.18 E70.6207
G1 X33.22 Y26.18 E70.6332
G1 X33.59 Y26.06 E70.6464
G1 X75.46 Y67.92 E72.6157
G1 X75.34 Y67.55 E72.6289
G1 X75.34 Y67.17 E72.6414
G1 X75.46 Y66.79 E72.6546
G1 X34.72 Y26.06 E74.5706
G1 X35.1 Y26.18 E74.5838
G1 X35.48 Y26.18 E74.5964
G1 X35.86 Y26.06 E74.6095
G1 X75.46 Y65.66 E76.4724
G1 X75.34 Y65.28 E76.4856
G1 X75.34 Y64.91 E76.4981
G1 X75.46 Y64.53 E76.5113
G1 X36.99 Y26.06 E78.3209
G1 X37.36 Y26.18 E78.3341
G1 X37.74 Y26.18 E78.3466
G1 X38.12 Y26.06 E78.3598
G1 X75.46 Y63.4 E80.1162
G1 X75.34 Y63.02 E80.1294
G1 X75.34 Y62.64 E80.1419
G1 X75.46 Y62.27 E80.1551
G1 X39.25 Y26.06 E81.8583
G1 X39.63 Y26.18 E81.8715
G1 X40 Y26.18 E81.884
G1 X40.38 Y26.06 E81.8972
G1 X75.46 Y61.13 E83.5472
G1 X75.34 Y60.76 E83.5604
G1 X75.34 Y60.38 E83.5729
G1 X75.46 Y60 E83.5861
G1 X41.51 Y26.06 E85.1828
G1 X41.89 Y26.18 E85.196
G1 X42.27 Y26.18 E85.2086
G1 X42.64 Y26.06 E85.2217
G1 X75.46 Y58.87 E86.7653
G1 X75.34 Y58.49 E86.7785
G1 X75.34 Y58.12 E86.791
G1 X75.46 Y57.74 E86.8042
G1 X47.45 Y29.73 E88.1215
G1 X47.83 Y29.86 E88.1347
G1 X48.21 Y29.85 E88.1473
G1 X48.58 Y29.73 E88.1604
G1 X75.46 Y56.61 E89.4246
G1 X75.34 Y56.23 E89.4378
G1 X75.34 Y55.85 E89.4503
G1 X75.46 Y55.48 E89.4635
G1 X49.71 Y29.73 E90.6744
G1 X50.09 Y29.86 E90.6876
G1 X50.47 Y29.85 E90.7002
G1 X50.85 Y29.73 E90.7133
G1 X75.46 Y54.35 E91.8711
G1 X75.34 Y53.97 E91.8843
G1 X75.34 Y53.59 E91.8968
G1 X75.46 Y53.21 E91.91
G1 X51.98 Y29.73 E93.0145
G1 X52.17 Y29.54 E93.0233
G1 X52.39 Y29.17 E93.038
G1 X52.26 Y28.88 E93.0483
G1 X75.46 Y52.08 E94.1395
G1 X75.34 Y51.71 E94.1527
G1 X75.34 Y51.33 E94.1653
G1 X75.46 Y50.95 E94.1784
G1 X52.26 Y27.75 E95.2696
G1 X52.38 Y27.38 E95.2828
G1 X52.38 Y27 E95.2953
G1 X52.26 Y26.62 E95.3085
G1 X75.46 Y49.82 E96.3997
G1 X75.34 Y49.44 E96.4129
G1 X75.34 Y49.07 E96.4255
G1 X75.46 Y48.69 E96.4386
G1 X52.83 Y26.06 E97.5032
G1 X53.2 Y26.18 E97.5164
G1 X53.58 Y26.18 E97.529
G1 X53.96 Y26.06 E97.5421
G1 X75.46 Y47.56 E98.5535
G1 X75.34 Y47.18 E98.5667
G1 X75.34 Y46.8 E98.5792
G1 X75.46 Y46.43 E98.5924
G1 X55.09 Y26.06 E99.5506
G1 X55.47 Y26.18 E99.5638
G1 X55.84 Y26.18 E99.5763
G1 X56.22 Y26.06 E99.5895
G1 X75.46 Y45.3 E100.4944
G1 X75.34 Y44.92 E100.5076
G1 X75.34 Y44.54 E100.5202
G1 X75.46 Y44.16 E100.5333
G1 X57.35 Y26.06 E101.3851
G1 X57.73 Y26.18 E101.3983
G1 X58.11 Y26.18 E101.4108
G1 X58.48 Y26.06 E101.424
G1 X75.46 Y43.03 E102.2225
G1 X75.34 Y42.66 E102.2357
G1 X75.34 Y42.28 E102.2482
G1 X75.46 Y41.9 E102.2614
G1 X59.61 Y26.06 E103.0067
G1 X59.99 Y26.18 E103.0199
G1 X60.37 Y26.18 E103.0324
G1 X60.75 Y26.06 E103.0456
G1 X75.46 Y40.77 E103.7377
G1 X75.34 Y40.39 E103.7508
G1 X75.34 Y40.02 E103.7634
G1 X75.46 Y39.64 E103.7766
G1 X61.88 Y26.06 E104.4154
G1 X62.25 Y26.18 E104.4286
G1 X62.63 Y26.18 E104.4412
G1 X63.01 Y26.06 E104.4543
G1 X75.46 Y38.51 E105.04
G1 X75.34 Y38.13 E105.0532
G1 X75.34 Y37.75 E105.0657
G1 X75.46 Y37.38 E105.0789
G1 X64.14 Y26.06 E105.6113
G1 X64.52 Y26.18 E105.6245
G1 X64.89 Y26.18 E105.637
G1 X65.27 Y26.06 E105.6502
G1 X75.46 Y36.24 E106.1294
G1 X75.34 Y35.87 E106.1426
G1 X75.34 Y35.49 E106.1552
G1 X75.46 Y35.11 E106.1683
G1 X66.4 Y26.06 E106.5943
G1 X66.78 Y26.18 E106.6075
G1 X67.16 Y26.18 E106.6201
G1 X67.53 Y26.06 E106.6332
G1 X75.46 Y33.98 E107.006
G1 X75.34 Y33.6 E107.0192
G1 X75.34 Y33.23 E107.0318
G1 X75.46 Y32.85 E107.0449
G1 X68.66 Y26.06 E107.3645
G1 X69.04 Y26.18 E107.3777
G1 X69.42 Y26.18 E107.3902
G1 X69.8 Y26.06 E107.4034
G1 X75.46 Y31.72 E107.6697
G1 X75.34 Y31.34 E107.6829
G1 X75.34 Y30.96 E107.6955
G1 X75.46 Y30.59 E107.7086
G1 X70.93 Y26.06 E107.9218
G1 X71.3 Y26.18 E107.935
G1 X71.68 Y26.18 E107.9475
G1 X72.06 Y26.06 E107.9607
G1 X75.46 Y29.46 E108.1206
G1 X75.34 Y29.08 E108.1338
G1 X75.34 Y28.7 E108.1463
G1 X75.46 Y28.32 E108.1595
G1 X73.19 Y26.06 E108.2662
G1 X73.57 Y26.18 E108.2794
G1 X73.94 Y26.18 E108.2919
G1 X74.32 Y26.06 E108.3051
G1 X75.46 Y27.19 E108.3586
G1 X75.34 Y26.82 E108.3718
G1 X75.34 Y26.44 E108.3843
G1 X75.46 Y26.06 E108.3975
G1 X75.45 Y26.06 E108.3978
;
; 'Sparse Infill', 75.0 [RPM], 47.0 [mm/s]
G1 F9000
G1 X46.61 Y26.63 E108.3978
G1 F2818.7
G1 X46.04 Y26.06 E108.4246
G1 X45.66 Y26.18 E108.4378
G1 X45.28 Y26.18 E108.4504
G1 X44.91 Y26.06 E108.4635
G1 X46.61 Y27.76 E108.5436
G1 X46.49 Y28.14 E108.5568
G1 X46.49 Y28.51 E108.5694
G1 X46.61 Y28.89 E108.5826
G1 X43.77 Y26.06 E108.7159
;
; 'Sparse Infill', 75.0 [RPM], 47.0 [mm/s]
G1 F9000
G1 X24.54 Y44.16 E108.7159
G1 F2818.7
G1 X74.33 Y93.94 E111.0576
G1 X73.95 Y93.82 E111.0708
G1 X73.57 Y93.82 E111.0834
G1 X73.2 Y93.94 E111.0965
G1 X24.54 Y45.29 E113.3851
G1 X24.66 Y45.67 E113.3983
G1 X24.66 Y46.04 E113.4108
G1 X24.54 Y46.42 E113.424
G1 X58.49 Y80.37 E115.0208
G1 X58.11 Y80.24 E115.034
G1 X57.73 Y80.25 E115.0465
G1 X57.36 Y80.37 E115.0597
G1 X24.54 Y47.55 E116.6032
G1 X24.66 Y47.93 E116.6164
G1 X24.66 Y48.31 E116.6289
G1 X24.54 Y48.68 E116.6421
G1 X56.23 Y80.37 E118.1324
G1 X56.1 Y80.74 E118.1456
G1 X56.1 Y81.12 E118.1581
G1 X56.23 Y81.5 E118.1713
G1 X24.54 Y49.81 E119.6617
G1 X24.66 Y50.19 E119.6749
G1 X24.66 Y50.57 E119.6874
G1 X24.54 Y50.95 E119.7006
G1 X56.23 Y82.63 E121.1909
G1 X56.1 Y83.01 E121.2041
G1 X56.1 Y83.38 E121.2166
G1 X56.23 Y83.76 E121.2298
G1 X24.54 Y52.08 E122.7201
G1 X24.66 Y52.45 E122.7333
G1 X24.66 Y52.83 E122.7458
G1 X24.54 Y53.21 E122.759
G1 X65.28 Y93.94 E124.6751
G1 X64.9 Y93.82 E124.6883
G1 X64.52 Y93.82 E124.7008
G1 X64.14 Y93.94 E124.714
G1 X24.54 Y54.34 E126.5768
G1 X24.66 Y54.72 E126.59
G1 X24.66 Y55.09 E126.6025
G1 X24.54 Y55.47 E126.6157
G1 X63.01 Y93.94 E128.4253
G1 X62.64 Y93.82 E128.4385
G1 X62.26 Y93.82 E128.4511
G1 X61.88 Y93.94 E128.4642
G1 X24.54 Y56.6 E130.2206
G1 X24.66 Y56.98 E130.2338
G1 X24.66 Y57.36 E130.2464
G1 X24.54 Y57.73 E130.2596
G1 X60.75 Y93.94 E131.9627
G1 X60.37 Y93.82 E131.9759
G1 X60 Y93.82 E131.9885
G1 X59.62 Y93.94 E132.0016
G1 X24.54 Y58.87 E133.6516
G1 X24.66 Y59.24 E133.6648
G1 X24.66 Y59.62 E133.6773
G1 X24.54 Y60 E133.6905
G1 X58.49 Y93.94 E135.2873
G1 X58.11 Y93.82 E135.3005
G1 X57.73 Y93.82 E135.313
G1 X57.36 Y93.94 E135.3262
G1 X24.54 Y61.13 E136.8697
G1 X24.66 Y61.51 E136.8829
G1 X24.66 Y61.88 E136.8954
G1 X24.54 Y62.26 E136.9086
G1 X56.23 Y93.94 E138.3989
G1 X55.85 Y93.82 E138.4121
G1 X55.47 Y93.82 E138.4247
G1 X55.09 Y93.94 E138.4378
G1 X24.54 Y63.39 E139.8749
G1 X24.66 Y63.77 E139.8881
G1 X24.66 Y64.15 E139.9007
G1 X24.54 Y64.52 E139.9138
G1 X53.96 Y93.94 E141.2977
G1 X53.59 Y93.82 E141.3109
G1 X53.21 Y93.82 E141.3235
G1 X52.83 Y93.94 E141.3366
G1 X24.54 Y65.65 E142.6673
G1 X24.66 Y66.03 E142.6805
G1 X24.66 Y66.41 E142.6931
G1 X24.54 Y66.79 E142.7062
G1 X51.7 Y93.94 E143.9837
G1 X51.32 Y93.82 E143.9969
G1 X50.95 Y93.82 E144.0094
G1 X50.57 Y93.94 E144.0226
G1 X24.54 Y67.92 E145.2468
G1 X24.66 Y68.29 E145.26
G1 X24.66 Y68.67 E145.2726
G1 X24.54 Y69.05 E145.2857
G1 X49.44 Y93.94 E146.4568
G1 X49.06 Y93.82 E146.4699
G1 X48.68 Y93.82 E146.4825
G1 X48.31 Y93.94 E146.4957
G1 X24.54 Y70.18 E147.6135
G1 X24.66 Y70.56 E147.6267
G1 X24.66 Y70.93 E147.6392
G1 X24.54 Y71.31 E147.6524
G1 X47.17 Y93.94 E148.717
G1 X46.8 Y93.82 E148.7302
G1 X46.42 Y93.82 E148.7427
G1 X46.04 Y93.94 E148.7559
G1 X24.54 Y72.44 E149.7672
G1 X24.66 Y72.82 E149.7804
G1 X24.66 Y73.2 E149.793
G1 X24.54 Y73.57 E149.8062
G1 X44.91 Y93.94 E150.7643
G1 X44.53 Y93.82 E150.7775
G1 X44.16 Y93.82 E150.79
G1 X43.78 Y93.94 E150.8032
G1 X31.61 Y81.78 E151.3755
G1 X31.74 Y82.15 E151.3887
G1 X31.73 Y82.53 E151.4013
G1 X31.61 Y82.91 E151.4145
G1 X42.65 Y93.94 E151.9336
G1 X42.27 Y93.82 E151.9468
G1 X41.89 Y93.82 E151.9593
G1 X41.52 Y93.94 E151.9725
G1 X31.61 Y84.04 E152.4384
G1 X31.74 Y84.32 E152.4488
G1 X31.52 Y84.7 E152.4634
G1 X31.33 Y84.89 E152.4723
G1 X40.39 Y93.94 E152.8983
G1 X40.01 Y93.82 E152.9114
G1 X39.63 Y93.82 E152.924
G1 X39.25 Y93.94 E152.9372
G1 X30.2 Y84.89 E153.3632
G1 X29.82 Y85.01 E153.3763
G1 X29.44 Y85.01 E153.3889
G1 X29.07 Y84.89 E153.4021
G1 X38.12 Y93.94 E153.828
G1 X37.75 Y93.82 E153.8412
G1 X37.37 Y93.82 E153.8538
G1 X36.99 Y93.94 E153.867
G1 X24.54 Y81.49 E154.4526
G1 X24.66 Y81.87 E154.4658
G1 X24.66 Y82.25 E154.4783
G1 X24.54 Y82.62 E154.4915
G1 X35.86 Y93.94 E155.0239
G1 X35.48 Y93.82 E155.0371
G1 X35.11 Y93.82 E155.0497
G1 X34.73 Y93.94 E155.0629
G1 X24.54 Y83.76 E155.5421
G1 X24.66 Y84.13 E155.5553
G1 X24.66 Y84.51 E155.5678
G1 X24.54 Y84.89 E155.581
G1 X33.6 Y93.94 E156.007
G1 X33.22 Y93.82 E156.0202
G1 X32.84 Y93.82 E156.0327
G1 X32.47 Y93.94 E156.0459
G1 X24.54 Y86.02 E156.4187
G1 X24.66 Y86.4 E156.4318
G1 X24.66 Y86.77 E156.4444
G1 X24.54 Y87.15 E156.4576
G1 X31.34 Y93.94 E156.7771
G1 X30.96 Y93.82 E156.7903
G1 X30.58 Y93.82 E156.8029
G1 X30.2 Y93.94 E156.816
G1 X24.54 Y88.28 E157.0824
G1 X24.66 Y88.66 E157.0956
G1 X24.66 Y89.04 E157.1081
G1 X24.54 Y89.41 E157.1213
G1 X29.07 Y93.94 E157.3344
G1 X28.7 Y93.82 E157.3476
G1 X28.32 Y93.82 E157.3602
G1 X27.94 Y93.94 E157.3733
G1 X24.54 Y90.54 E157.5332
G1 X24.66 Y90.92 E157.5464
G1 X24.66 Y91.3 E157.559
G1 X24.54 Y91.68 E157.5721
G1 X26.81 Y93.94 E157.6788
G1 X26.43 Y93.82 E157.692
G1 X26.06 Y93.82 E157.7046
G1 X25.68 Y93.94 E157.7177
G1 X24.54 Y92.81 E157.7712
G1 X24.66 Y93.18 E157.7844
G1 X24.66 Y93.56 E157.797
G1 X24.54 Y93.94 E157.8101
G1 X24.55 Y93.94 E157.8104
;
; 'Sparse Infill', 75.0 [RPM], 47.0 [mm/s]
G1 F9000
G1 X28.22 Y84.04 E157.8104
G1 F2818.7
G1 X24.54 Y80.36 E157.9836
G1 X24.66 Y79.98 E157.9968
G1 X24.66 Y79.61 E158.0093
G1 X24.54 Y79.23 E158.0225
G1 X28.22 Y82.91 E158.1957
G1 X28.1 Y82.54 E158.2089
G1 X28.1 Y82.16 E158.2215
G1 X28.22 Y81.78 E158.2346
G1 X24.54 Y78.1 E158.4079
G1 X24.66 Y77.72 E158.421
G1 X24.66 Y77.34 E158.4336
G1 X24.54 Y76.97 E158.4468
G1 X28.22 Y80.65 E158.62
G1 X28.41 Y80.46 E158.6289
G1 X28.79 Y80.24 E158.6435
G1 X29.07 Y80.37 E158.6539
G1 X24.54 Y75.84 E158.867
G1 X24.66 Y75.46 E158.8801
G1 X24.66 Y75.08 E158.8927
G1 X24.54 Y74.7 E158.9059
G1 X30.2 Y80.37 E159.1722
;
; 'Sparse Infill', 75.0 [RPM], 47.0 [mm/s]
G1 F9000
G1 X57.35 Y84.89 E159.1722
G1 F2818.7
G1 X66.41 Y93.94 E159.5982
G1 X66.78 Y93.82 E159.6114
G1 X67.16 Y93.82 E159.6239
G1 X67.54 Y93.94 E159.6371
G1 X58.48 Y84.89 E160.0631
G1 X58.86 Y85.01 E160.0763
G1 X59.24 Y85.01 E160.0889
G1 X59.61 Y84.89 E160.102
G1 X68.67 Y93.94 E160.528
G1 X69.05 Y93.82 E160.5412
G1 X69.42 Y93.82 E160.5537
G1 X69.8 Y93.94 E160.5669
G1 X59.61 Y83.76 E161.0461
G1 X59.73 Y83.38 E161.0593
G1 X59.74 Y83 E161.0719
G1 X59.61 Y82.62 E161.0851
G1 X70.93 Y93.94 E161.6175
G1 X71.31 Y93.82 E161.6307
G1 X71.69 Y93.82 E161.6432
G1 X72.06 Y93.94 E161.6564
G1 X59.61 Y81.49 E162.242
;
; 'Sparse Infill', 75.0 [RPM], 47.0 [mm/s]
G1 F9000
G1 X51.69 Y29.45 E162.242
G1 F2818.7
G1 X51.7 Y29.46 E162.2423
G1 X51.88 Y29.26 E162.2512
G1 X52.03 Y28.74 E162.2693
G1 X51.98 Y28.6 E162.274
;
; 'Sparse Infill', 75.0 [RPM], 47.0 [mm/s]
G1 F9000
G1 X58.77 Y80.64 E162.274
G1 F2818.7
G1 X58.77 Y80.65 E162.2742
G1 X59.34 Y81.22 E162.301
;
; 'Sparse Infill', 75.0 [RPM], 47.0 [mm/s]
G1 F9000
G1 X59.33 Y83.47 E162.301
G1 F2818.7
G1 X59.38 Y83.6 E162.3056
G1 X59.24 Y84.13 E162.3238
G1 X59.05 Y84.32 E162.3327
G1 X59.05 Y84.33 E162.333
;
; 'Sparse Infill', 75.0 [RPM], 47.0 [mm/s]
G1 F9000
G1 X31.34 Y81.5 E162.333
G1 F2818.7
G1 X31.33 Y81.49 E162.3332
G1 X31.33 Y80.93 E162.3519
G1 X31.05 Y80.65 E162.3651
G1 X30.49 Y80.65 E162.3838
G1 X30.48 Y80.64 E162.384
;
; 'Stacked Sparse Infill', 75.0 [RPM], 47.0 [mm/s]
G1 F9000
G1 X30.2 Y80.92 E162.384
G1 F2818.7
G1 X30.2 Y81.27 E162.3955
G1 X30.23 Y81.47 E162.4022
G1 X30.31 Y81.61 E162.4076
G1 X31.05 Y82.35 E162.4424
G1 X30.86 Y82.63 E162.4538
G1 X30.71 Y82.91 E162.4644
G1 X30.2 Y83.76 E162.4974
G1 X30.09 Y83.65 E162.5028
G1 X29.18 Y82.74 E162.5454
G1 X29.06 Y82.63 E162.5509
;
; 'Stacked Sparse Infill', 75.0 [RPM], 47.0 [mm/s]
G1 F9000
G1 X56.79 Y83.19 E162.5509
G1 F2818.7
G1 X57.33 Y83.73 E162.5763
G1 X57.35 Y83.76 E162.5777
G1 X59.06 Y82.63 E162.6458
G1 X58.71 Y82.63 E162.6573
G1 X58.51 Y82.6 E162.664
G1 X58.37 Y82.51 E162.6694
G1 X57.47 Y81.61 E162.712
G1 X57.38 Y81.47 E162.7175
G1 X57.35 Y81.27 E162.7242
G1 X57.35 Y80.92 E162.7356
;
; 'Stacked Sparse Infill', 75.0 [RPM], 47.0 [mm/s]
G1 F9000
G1 X48.02 Y29.17 E162.7356
G1 F2818.7
G1 X47.45 Y28.6 E162.7625
G1 X47.61 Y28.24 E162.7757
G1 X47.69 Y27.87 E162.7881
G1 X48.3 Y26.05 E162.852
G1 X48.3 Y26.96 E162.8822
G1 X48.33 Y27.16 E162.8889
G1 X48.42 Y27.3 E162.8944
G1 X49.32 Y28.21 E162.937
G1 X49.46 Y28.29 E162.9424
G1 X49.66 Y28.32 E162.9491
G1 X51.47 Y28.32 E163.0093
G1 X51.7 Y28.32 E163.0169
;
; 'Wipe', 0.0 [RPM], 40.0 [mm/s]
G1 F210
G1 X51.7 Y28.32 Z1.65 E163.0169
; END_LAYER_OBJECT z=1.20
; Reset extruder pos
G92 E0
; BEGIN_LAYER_OBJECT z=1.40
; fan on
M106
;
; 'Loop', 53.3 [RPM], 33.4 [mm/s]
G1 F9000
G1 X75.88 Y94.37 E0
G1 F210
G1 X75.88 Y94.37 Z1.4 E0
G1 F2004.6
G1 X75.71 Y94.38 E0.0058
G1 X24.29 Y94.38 E1.7159
G1 X24.12 Y94.37 E1.7218
G1 X24.12 Y25.63 E4.0079
G1 X24.29 Y25.62 E4.0138
G1 X60.25 Y25.62 E5.2096
G1 X75.71 Y25.62 E5.7239
G1 X75.88 Y25.63 E5.7297
G1 X75.88 Y38.27 E6.1499
G1 X75.88 Y94.37 E8.0159
; fan off
M107
;
; 'Wipe', 0.0 [RPM], 40.0 [mm/s]
; fan on
M106
;
; 'Perimeter', 27.9 [RPM], 17.5 [mm/s]
G1 F9000
G1 X76.14 Y94.53 E8.0159
G1 F1050
G1 X76.28 Y94.77 E8.0251
G1 X76.11 Y94.78 E8.0309
G1 X23.89 Y94.78 E9.7676
G1 X23.72 Y94.77 E9.7735
G1 X23.72 Y57.06 E11.0278
G1 X23.72 Y25.23 E12.0863
G1 X23.89 Y25.22 E12.0921
G1 X75.94 Y25.22 E13.8231
G1 X76.11 Y25.22 E13.8288
G1 X76.28 Y25.23 E13.8347
G1 X76.28 Y62.9 E15.0876
G1 X76.28 Y94.77 E16.1475
G1 X76.04 Y94.64 E16.1567
; fan off
M107
;
; 'Solid', 63.9 [RPM], 40.0 [mm/s]
G1 F9000
G1 X75.32 Y94.07 E16.1567
G1 F2400
G1 X75.52 Y93.87 E16.1661
G1 X75.52 Y93.31 E16.1849
G1 X74.81 Y94.02 E16.2184
G1 X74.24 Y94.02 E16.2372
G1 X75.52 Y92.74 E16.2973
G1 X75.52 Y92.18 E16.3161
G1 X73.68 Y94.02 E16.4028
G1 X73.11 Y94.02 E16.4216
G1 X75.52 Y91.61 E16.535
G1 X75.52 Y91.05 E16.5538
G1 X72.55 Y94.02 E16.6937
G1 X71.98 Y94.02 E16.7125
G1 X75.52 Y90.48 E16.8791
G1 X75.52 Y89.92 E16.8979
G1 X71.42 Y94.02 E17.091
G1 X70.85 Y94.02 E17.1098
G1 X75.52 Y89.35 E17.3296
G1 X75.52 Y88.78 E17.3484
G1 X70.28 Y94.02 E17.5948
G1 X69.72 Y94.02 E17.6136
G1 X75.52 Y88.22 E17.8866
G1 X75.52 Y87.65 E17.9054
G1 X69.15 Y94.02 E18.205
G1 X68.59 Y94.02 E18.2238
G1 X75.52 Y87.09 E18.5499
G1 X75.52 Y86.52 E18.5688
G1 X68.02 Y94.02 E18.9216
G1 X67.46 Y94.02 E18.9404
G1 X75.52 Y85.96 E19.3198
G1 X75.52 Y85.39 E19.3386
G1 X66.89 Y94.02 E19.7446
G1 X66.32 Y94.02 E19.7634
G1 X75.52 Y84.82 E20.196
G1 X75.52 Y84.26 E20.2148
G1 X65.76 Y94.02 E20.6741
G1 X65.19 Y94.02 E20.6929
G1 X75.52 Y83.69 E21.1787
G1 X75.52 Y83.13 E21.1975
G1 X64.63 Y94.02 E21.71
G1 X64.06 Y94.02 E21.7288
G1 X75.52 Y82.56 E22.2678
G1 X75.52 Y82 E22.2867
G1 X63.5 Y94.02 E22.8523
G1 X62.93 Y94.02 E22.8711
G1 X75.52 Y81.43 E23.4634
G1 X75.52 Y80.86 E23.4822
G1 X62.36 Y94.02 E24.1011
G1 X61.8 Y94.02 E24.1199
G1 X75.52 Y80.3 E24.7654
G1 X75.52 Y79.73 E24.7842
G1 X61.23 Y94.02 E25.4563
G1 X60.67 Y94.02 E25.4751
G1 X75.52 Y79.17 E26.1738
G1 X75.52 Y78.6 E26.1926
G1 X60.1 Y94.02 E26.9179
G1 X59.54 Y94.02 E26.9367
G1 X75.52 Y78.04 E27.6887
G1 X75.52 Y77.47 E27.7075
G1 X58.97 Y94.02 E28.486
G1 X58.4 Y94.02 E28.5048
G1 X75.52 Y76.9 E29.3099
G1 X75.52 Y76.34 E29.3288
G1 X57.84 Y94.02 E30.1605
G1 X57.27 Y94.02 E30.1793
G1 X75.52 Y75.77 E31.0377
G1 X75.52 Y75.21 E31.0565
G1 X56.71 Y94.02 E31.9414
G1 X56.14 Y94.02 E31.9603
G1 X75.52 Y74.64 E32.8718
G1 X75.52 Y74.08 E32.8906
G1 X55.58 Y94.02 E33.8288
G1 X55.01 Y94.02 E33.8476
G1 X75.52 Y73.51 E34.8124
G1 X75.52 Y72.94 E34.8312
G1 X54.45 Y94.02 E35.8226
G1 X53.88 Y94.02 E35.8414
G1 X75.52 Y72.38 E36.8594
G1 X75.52 Y71.81 E36.8782
G1 X53.31 Y94.02 E37.9228
G1 X52.75 Y94.02 E37.9417
G1 X75.52 Y71.25 E39.0129
G1 X75.52 Y70.68 E39.0317
G1 X52.18 Y94.02 E40.1295
G1 X51.62 Y94.02 E40.1483
G1 X75.52 Y70.12 E41.2727
G1 X75.52 Y69.55 E41.2916
G1 X51.05 Y94.02 E42.4426
G1 X50.49 Y94.02 E42.4614
G1 X75.58 Y68.92 E43.6419
;
; 'Solid', 63.9 [RPM], 40.0 [mm/s]
G1 F9000
G1 X75.58 Y61.57 E43.6419
G1 F2400
G1 X56.64 Y80.51 E44.5329
G1 X57.2 Y80.51 E44.5517
G1 X75.52 Y62.2 E45.4133
G1 X75.52 Y62.76 E45.4321
G1 X57.77 Y80.51 E46.2671
G1 X58.34 Y80.51 E46.2859
G1 X75.52 Y63.33 E47.0943
G1 X75.52 Y63.89 E47.1131
G1 X58.9 Y80.51 E47.8949
G1 X59.47 Y80.51 E47.9137
G1 X75.52 Y64.46 E48.6689
G1 X75.52 Y65.03 E48.6877
G1 X59.47 Y81.08 E49.4429
G1 X59.47 Y81.65 E49.4617
G1 X75.52 Y65.59 E50.2168
G1 X75.52 Y66.16 E50.2356
G1 X59.47 Y82.21 E50.9908
G1 X59.47 Y82.78 E51.0096
G1 X75.52 Y66.72 E51.7648
G1 X75.52 Y67.29 E51.7836
G1 X59.47 Y83.34 E52.5388
G1 X59.47 Y83.91 E52.5576
G1 X75.52 Y67.85 E53.3127
G1 X75.52 Y68.42 E53.3316
G1 X49.92 Y94.02 E54.5358
G1 X49.35 Y94.02 E54.5546
G1 X58.63 Y84.74 E54.9911
G1 X58.07 Y84.74 E55.01
G1 X48.79 Y94.02 E55.4465
G1 X48.22 Y94.02 E55.4653
G1 X57.5 Y84.74 E55.9018
G1 X56.94 Y84.74 E55.9207
G1 X47.66 Y94.02 E56.3572
G1 X47.09 Y94.02 E56.376
G1 X56.37 Y84.74 E56.8125
G1 X56.37 Y84.18 E56.8313
G1 X46.53 Y94.02 E57.2945
G1 X45.96 Y94.02 E57.3133
G1 X56.37 Y83.61 E57.803
G1 X56.37 Y83.04 E57.8218
G1 X45.39 Y94.02 E58.3382
G1 X44.83 Y94.02 E58.357
G1 X56.37 Y82.48 E58.9
G1 X56.37 Y81.91 E58.9188
G1 X44.26 Y94.02 E59.4884
G1 X43.7 Y94.02 E59.5072
G1 X56.37 Y81.35 E60.1033
G1 X56.37 Y80.78 E60.1222
G1 X43.13 Y94.02 E60.7449
G1 X42.57 Y94.02 E60.7638
G1 X75.52 Y61.07 E62.3139
G1 X75.52 Y60.5 E62.3327
G1 X42 Y94.02 E63.9095
G1 X41.43 Y94.02 E63.9283
G1 X75.52 Y59.93 E65.5317
G1 X75.52 Y59.37 E65.5505
G1 X40.87 Y94.02 E67.1805
G1 X40.3 Y94.02 E67.1993
G1 X75.52 Y58.8 E68.8559
G1 X75.52 Y58.24 E68.8747
G1 X39.74 Y94.02 E70.5579
G1 X39.17 Y94.02 E70.5767
G1 X75.52 Y57.67 E72.2865
G1 X75.52 Y57.11 E72.3054
G1 X38.61 Y94.02 E74.0418
G1 X38.04 Y94.02 E74.0606
G1 X75.52 Y56.54 E75.8236
G1 X75.52 Y55.97 E75.8424
G1 X37.47 Y94.02 E77.632
G1 X36.91 Y94.02 E77.6509
G1 X75.52 Y55.41 E79.4671
G1 X75.52 Y54.84 E79.4859
G1 X36.34 Y94.02 E81.3288
G1 X35.78 Y94.02 E81.3476
G1 X75.52 Y54.28 E83.217
G1 X75.52 Y53.71 E83.2359
G1 X35.21 Y94.02 E85.1319
G1 X34.65 Y94.02 E85.1507
G1 X75.52 Y53.15 E87.0734
G1 X75.52 Y52.58 E87.0922
G1 X34.08 Y94.02 E89.0415
G1 X33.51 Y94.02 E89.0603
G1 X75.52 Y52.01 E91.0362
G1 X75.52 Y51.45 E91.055
G1 X32.95 Y94.02 E93.0575
G1 X32.38 Y94.02 E93.0763
G1 X75.52 Y50.88 E95.1054
G1 X75.52 Y50.32 E95.1242
G1 X31.82 Y94.02 E97.18
G1 X31.25 Y94.02 E97.1988
G1 X75.52 Y49.75 E99.2811
G1 X75.52 Y49.19 E99.2999
G1 X30.69 Y94.02 E101.4088
G1 X30.12 Y94.02 E101.4277
G1 X75.52 Y48.62 E103.5632
G1 X75.52 Y48.05 E103.582
G1 X29.55 Y94.02 E105.7441
G1 X28.99 Y94.02 E105.763
G1 X75.52 Y47.49 E107.9517
G1 X75.52 Y46.92 E107.9705
G1 X28.42 Y94.02 E110.1859
G1 X27.86 Y94.02 E110.2047
G1 X75.52 Y46.36 E112.4467
G1 X75.52 Y45.79 E112.4655
G1 X27.29 Y94.02 E114.7341
G1 X26.73 Y94.02 E114.7529
G1 X75.52 Y45.23 E117.0481
G1 X75.52 Y44.66 E117.0669
G1 X26.16 Y94.02 E119.3887
G1 X25.6 Y94.02 E119.4075
G1 X75.52 Y44.09 E121.7559
G1 X75.52 Y43.53 E121.7747
G1 X25.03 Y94.02 E124.1498
G1 X24.48 Y94.01 E124.1681
G1 X75.52 Y42.96 E126.5692
G1 X75.52 Y42.4 E126.588
G1 X24.48 Y93.44 E128.9889
G1 X24.48 Y92.88 E129.0078
G1 X75.52 Y41.83 E131.4087
G1 X75.52 Y41.27 E131.4275
G1 X24.48 Y92.31 E133.8285
G1 X24.48 Y91.74 E133.8473
G1 X75.52 Y40.7 E136.2482
G1 X75.52 Y40.13 E136.267
G1 X31.47 Y84.19 E138.3393
G1 X31.47 Y83.63 E138.3581
G1 X75.52 Y39.57 E140.4304
G1 X75.52 Y39 E140.4492
G1 X31.47 Y83.06 E142.5215
G1 X31.47 Y82.49 E142.5403
G1 X75.52 Y38.44 E144.6125
G1 X75.52 Y37.87 E144.6313
G1 X31.47 Y81.93 E146.7036
G1 X31.47 Y81.36 E146.7224
G1 X75.52 Y37.31 E148.7947
G1 X75.52 Y36.74 E148.8135
G1 X31.45 Y80.81 E150.8866
G1 X31.17 Y80.53 E150.8999
G1 X75.52 Y36.18 E152.9863
G1 X75.52 Y35.61 E153.0051
G1 X30.62 Y80.51 E155.1173
G1 X30.05 Y80.51 E155.1361
G1 X75.52 Y35.04 E157.2749
G1 X75.52 Y34.48 E157.2937
G1 X29.49 Y80.51 E159.4591
G1 X28.92 Y80.51 E159.4779
G1 X75.52 Y33.91 E161.6699
G1 X75.52 Y33.35 E161.6887
G1 X24.48 Y84.39 E164.0897
G1 X24.48 Y83.82 E164.1085
G1 X75.52 Y32.78 E166.5094
G1 X75.52 Y32.22 E166.5282
G1 X24.48 Y83.26 E168.9292
G1 X24.48 Y82.69 E168.948
G1 X75.52 Y31.65 E171.349
G1 X75.52 Y31.08 E171.3678
G1 X24.48 Y82.13 E173.7687
G1 X24.48 Y81.56 E173.7876
G1 X75.52 Y30.52 E176.1885
G1 X75.52 Y29.95 E176.2073
G1 X24.48 Y81 E178.6083
G1 X24.48 Y80.43 E178.6271
G1 X75.52 Y29.39 E181.028
G1 X75.52 Y28.82 E181.0468
G1 X24.48 Y79.87 E183.4478
G1 X24.48 Y79.3 E183.4666
G1 X75.52 Y28.26 E185.8676
G1 X75.52 Y27.69 E185.8864
G1 X24.48 Y78.73 E188.2873
G1 X24.48 Y78.17 E188.3062
G1 X75.52 Y27.12 E190.7071
G1 X75.52 Y26.56 E190.7259
G1 X24.48 Y77.6 E193.1269
G1 X24.48 Y77.04 E193.1457
G1 X75.52 Y25.99 E195.5467
G1 X74.97 Y25.98 E195.565
G1 X24.48 Y76.47 E197.9401
G1 X24.48 Y75.91 E197.959
G1 X74.4 Y25.98 E200.3074
G1 X73.84 Y25.98 E200.3262
G1 X24.48 Y75.34 E202.648
G1 X24.48 Y74.77 E202.6668
G1 X73.27 Y25.98 E204.962
G1 X72.71 Y25.98 E204.9808
G1 X24.48 Y74.21 E207.2494
G1 X24.48 Y73.64 E207.2682
G1 X72.14 Y25.98 E209.5101
G1 X71.58 Y25.98 E209.529
G1 X24.48 Y73.08 E211.7443
G1 X24.48 Y72.51 E211.7631
G1 X71.01 Y25.98 E213.9519
G1 X70.45 Y25.98 E213.9707
G1 X24.48 Y71.95 E216.1329
G1 X24.48 Y71.38 E216.1517
G1 X69.88 Y25.98 E218.2872
G1 X69.31 Y25.98 E218.306
G1 X24.48 Y70.81 E220.4149
G1 X24.48 Y70.25 E220.4338
G1 X68.75 Y25.98 E222.5161
G1 X68.18 Y25.98 E222.5349
G1 X24.48 Y69.68 E224.5906
G1 X24.48 Y69.12 E224.6094
G1 X67.62 Y25.98 E226.6385
G1 X67.05 Y25.98 E226.6573
G1 X24.48 Y68.55 E228.6599
G1 X24.48 Y67.99 E228.6787
G1 X66.49 Y25.98 E230.6546
G1 X65.92 Y25.98 E230.6734
G1 X24.48 Y67.42 E232.6227
G1 X24.48 Y66.85 E232.6415
G1 X65.35 Y25.98 E234.5641
G1 X64.79 Y25.98 E234.5829
G1 X24.48 Y66.29 E236.479
G1 X24.48 Y65.72 E236.4978
G1 X64.22 Y25.98 E238.3673
G1 X63.66 Y25.98 E238.3861
G1 X24.48 Y65.16 E240.229
G1 X24.48 Y64.59 E240.2478
G1 X63.09 Y25.98 E242.064
G1 X62.53 Y25.98 E242.0828
G1 X24.48 Y64.03 E243.8725
G1 X24.48 Y63.46 E243.8913
G1 X61.96 Y25.98 E245.6543
G1 X61.39 Y25.98 E245.6731
G1 X24.48 Y62.89 E247.4095
G1 X24.48 Y62.33 E247.4283
G1 X60.83 Y25.98 E249.1382
G1 X60.26 Y25.98 E249.157
G1 X24.48 Y61.76 E250.8402
G1 X24.48 Y61.2 E250.859
G1 X59.7 Y25.98 E252.5156
G1 X59.13 Y25.98 E252.5344
G1 X24.48 Y60.63 E254.1644
G1 X24.48 Y60.07 E254.1832
G1 X58.57 Y25.98 E255.7866
G1 X58 Y25.98 E255.8054
G1 X24.48 Y59.5 E257.3821
G1 X24.48 Y58.93 E257.401
G1 X57.43 Y25.98 E258.9511
G1 X56.87 Y25.98 E258.9699
G1 X24.48 Y58.37 E260.4935
G1 X24.48 Y57.8 E260.5123
G1 X56.3 Y25.98 E262.0092
G1 X55.74 Y25.98 E262.0281
G1 X24.48 Y57.24 E263.4984
G1 X24.48 Y56.67 E263.5172
G1 X51.56 Y29.59 E264.7912
G1 X51 Y29.59 E264.8101
G1 X24.48 Y56.11 E266.0575
G1 X24.48 Y55.54 E266.0763
G1 X50.43 Y29.59 E267.2971
G1 X49.87 Y29.59 E267.3159
G1 X24.48 Y54.97 E268.5101
G1 X24.48 Y54.41 E268.5289
G1 X49.3 Y29.59 E269.6965
G1 X48.74 Y29.59 E269.7153
G1 X24.48 Y53.84 E270.8563
G1 X24.48 Y53.28 E270.8751
G1 X48.17 Y29.59 E271.9895
G1 X47.6 Y29.59 E272.0083
G1 X24.48 Y52.71 E273.0961
G1 X24.48 Y52.15 E273.1149
G1 X47.06 Y29.57 E274.1768
G1 X46.77 Y29.29 E274.1902
G1 X24.48 Y51.58 E275.2388
G1 X24.48 Y51.02 E275.2577
G1 X46.76 Y28.74 E276.3055
G1 X46.76 Y28.17 E276.3243
G1 X24.48 Y50.45 E277.3722
G1 X24.48 Y49.88 E277.391
G1 X46.76 Y27.61 E278.4388
G1 X46.76 Y27.04 E278.4577
G1 X24.48 Y49.32 E279.5055
G1 X24.48 Y48.75 E279.5243
G1 X46.76 Y26.47 E280.5725
G1 X46.69 Y25.97 E280.5892
G1 X24.48 Y48.19 E281.6341
G1 X24.48 Y47.62 E281.6529
G1 X46.12 Y25.98 E282.6709
G1 X45.55 Y25.98 E282.6897
G1 X24.48 Y47.06 E283.6811
G1 X24.48 Y46.49 E283.7
G1 X44.99 Y25.98 E284.6647
G1 X44.42 Y25.98 E284.6835
G1 X24.48 Y45.92 E285.6217
G1 X24.48 Y45.36 E285.6405
G1 X43.86 Y25.98 E286.5521
G1 X43.29 Y25.98 E286.5709
G1 X24.48 Y44.79 E287.4559
G1 X24.48 Y44.23 E287.4747
G1 X42.73 Y25.98 E288.333
G1 X42.16 Y25.98 E288.3518
G1 X24.48 Y43.66 E289.1836
G1 X24.48 Y43.1 E289.2024
G1 X41.6 Y25.98 E290.0075
G1 X41.03 Y25.98 E290.0263
G1 X24.48 Y42.53 E290.8049
G1 X24.48 Y41.96 E290.8237
G1 X40.46 Y25.98 E291.5756
G1 X39.9 Y25.98 E291.5944
G1 X24.48 Y41.4 E292.3197
G1 X24.48 Y40.83 E292.3385
G1 X39.33 Y25.98 E293.0372
G1 X38.77 Y25.98 E293.0561
G1 X24.48 Y40.27 E293.7281
G1 X24.48 Y39.7 E293.747
G1 X38.2 Y25.98 E294.3925
G1 X37.64 Y25.98 E294.4113
G1 X24.48 Y39.14 E295.0302
G1 X24.48 Y38.57 E295.049
G1 X37.07 Y25.98 E295.6412
G1 X36.5 Y25.98 E295.66
G1 X24.48 Y38 E296.2257
G1 X24.48 Y37.44 E296.2445
G1 X35.94 Y25.98 E296.7836
G1 X35.37 Y25.98 E296.8024
G1 X24.48 Y36.87 E297.3148
G1 X24.48 Y36.31 E297.3336
G1 X34.81 Y25.98 E297.8195
G1 X34.24 Y25.98 E297.8383
G1 X24.48 Y35.74 E298.2975
G1 X24.48 Y35.18 E298.3163
G1 X33.68 Y25.98 E298.749
G1 X33.11 Y25.98 E298.7678
G1 X24.48 Y34.61 E299.1738
G1 X24.48 Y34.04 E299.1926
G1 X32.54 Y25.98 E299.572
G1 X31.98 Y25.98 E299.5908
G1 X24.48 Y33.48 E299.9436
G1 X24.48 Y32.91 E299.9624
G1 X31.41 Y25.98 E300.2886
G1 X30.85 Y25.98 E300.3074
G1 X24.48 Y32.35 E300.607
G1 X24.48 Y31.78 E300.6258
G1 X30.28 Y25.98 E300.8988
G1 X29.72 Y25.98 E300.9176
G1 X24.48 Y31.22 E301.164
G1 X24.48 Y30.65 E301.1828
G1 X29.15 Y25.98 E301.4025
G1 X28.58 Y25.98 E301.4214
G1 X24.48 Y30.08 E301.6145
G1 X24.48 Y29.52 E301.6333
G1 X28.02 Y25.98 E301.7999
G1 X27.45 Y25.98 E301.8187
G1 X24.48 Y28.95 E301.9586
G1 X24.48 Y28.39 E301.9774
G1 X26.89 Y25.98 E302.0907
G1 X26.32 Y25.98 E302.1096
G1 X24.48 Y27.82 E302.1963
G1 X24.48 Y27.26 E302.2151
G1 X25.76 Y25.98 E302.2752
G1 X25.19 Y25.98 E302.294
G1 X24.48 Y26.69 E302.3275
G1 X24.48 Y26.13 E302.3463
G1 X24.63 Y25.97 E302.3537
;
; 'Solid', 63.9 [RPM], 40.0 [mm/s]
G1 F9000
G1 X52.4 Y25.92 E302.3537
G1 F2400
G1 X52.16 Y26.16 E302.3649
G1 X52.12 Y26.77 E302.3853
G1 X52.91 Y25.98 E302.4225
G1 X53.47 Y25.98 E302.4413
G1 X52.11 Y27.34 E302.5053
G1 X52.11 Y27.91 E302.5241
G1 X54.04 Y25.98 E302.6147
G1 X54.61 Y25.98 E302.6336
G1 X52.11 Y28.47 E302.7508
G1 X52.11 Y29.04 E302.7696
G1 X55.23 Y25.92 E302.9163
;
; 'Solid', 63.9 [RPM], 40.0 [mm/s]
G1 F9000
G1 X24.42 Y85.02 E302.9163
G1 F2400
G1 X28.37 Y81.06 E303.1022
G1 X28.37 Y81.63 E303.121
G1 X24.48 Y85.52 E303.3041
G1 X24.48 Y86.09 E303.3229
G1 X28.37 Y82.2 E303.506
G1 X28.37 Y82.76 E303.5248
G1 X24.48 Y86.65 E303.7079
G1 X24.48 Y87.22 E303.7267
G1 X28.37 Y83.33 E303.9098
G1 X28.37 Y83.89 E303.9286
G1 X24.48 Y87.78 E304.1117
G1 X24.48 Y88.35 E304.1305
G1 X28.39 Y84.44 E304.3144
G1 X28.67 Y84.72 E304.3277
G1 X24.48 Y88.92 E304.5249
G1 X24.48 Y89.48 E304.5438
G1 X29.22 Y84.74 E304.7668
G1 X29.78 Y84.74 E304.7856
G1 X24.48 Y90.05 E305.0352
G1 X24.48 Y90.61 E305.054
G1 X30.35 Y84.74 E305.3302
G1 X30.92 Y84.74 E305.349
G1 X24.42 Y91.24 E305.6547
;
; 'Sparse Infill', 75.0 [RPM], 47.0 [mm/s]
G1 F9000
G1 X31.33 Y81.5 E305.6547
G1 F2818.7
G1 X31.34 Y81.49 E305.6549
G1 X31.27 Y80.87 E305.6758
G1 X31.05 Y80.65 E305.6862
G1 X31.05 Y80.64 E305.6865
;
; 'Stacked Sparse Infill', 75.0 [RPM], 47.0 [mm/s]
G1 F9000
G1 X57.35 Y80.92 E305.6865
G1 F2818.7
G1 X57.35 Y81.27 E305.6979
G1 X57.33 Y81.47 E305.7046
G1 X57.24 Y81.61 E305.7101
G1 X57.07 Y81.78 E305.7182
G1 X57.21 Y82.11 E305.7302
G1 X57.16 Y82.44 E305.7413
G1 X57.35 Y83.76 E305.7857
G1 X57.47 Y83.65 E305.7911
G1 X58.37 Y82.74 E305.8337
G1 X58.51 Y82.66 E305.8392
G1 X58.71 Y82.63 E305.8459
G1 X59.06 Y82.63 E305.8573
;
; 'Stacked Sparse Infill', 75.0 [RPM], 47.0 [mm/s]
G1 F9000
G1 X31.05 Y82.91 E305.8573
G1 F2818.7
G1 X30.31 Y83.65 E305.8921
G1 X30.2 Y83.76 E305.8975
G1 X29.06 Y82.63 E305.951
G1 X29.18 Y82.51 E305.9565
G1 X30.09 Y81.61 E305.999
G1 X30.17 Y81.47 E306.0045
G1 X30.2 Y81.27 E306.0112
G1 X30.2 Y80.92 E306.0226
;
; 'Stacked Sparse Infill', 75.0 [RPM], 47.0 [mm/s]
G1 F9000
G1 X48.58 Y29.17 E306.0226
G1 F2818.7
G1 X49.32 Y28.43 E306.0573
G1 X49.46 Y28.35 E306.0628
G1 X49.66 Y28.32 E306.0695
G1 X51.47 Y28.32 E306.1297
G1 X51.7 Y28.32 E306.1373
G1 X48.3 Y26.05 E306.2731
G1 X48.3 Y26.96 E306.3034
G1 X48.27 Y27.16 E306.3101
G1 X48.19 Y27.3 E306.3156
G1 X47.45 Y28.04 E306.3503
;
; 'Wipe', 0.0 [RPM], 40.0 [mm/s]
G1 F210
G1 X47.45 Y28.04 Z1.85 E306.3503
; END_LAYER_OBJECT z=1.40
; Reset extruder pos
G92 E0
; BEGIN_LAYER_OBJECT z=1.60
; fan on
M106
;
; 'Loop', 53.3 [RPM], 33.4 [mm/s]
G1 F9000
G1 X75.88 Y94.37 E0
G1 F210
G1 X75.88 Y94.37 Z1.6 E0
G1 F2004.6
G1 X75.71 Y94.38 E0.0058
G1 X24.29 Y94.38 E1.7159
G1 X24.12 Y94.37 E1.7218
G1 X24.12 Y25.63 E4.0079
G1 X24.29 Y25.62 E4.0138
G1 X60.25 Y25.62 E5.2096
G1 X75.71 Y25.62 E5.7239
G1 X75.88 Y25.63 E5.7297
G1 X75.88 Y29.4 E5.8551
G1 X75.88 Y94.37 E8.0159
; fan off
M107
;
; 'Wipe', 0.0 [RPM], 40.0 [mm/s]
; fan on
M106
;
; 'Perimeter', 27.9 [RPM], 17.5 [mm/s]
G1 F9000
G1 X76.14 Y94.53 E8.0159
G1 F1050
G1 X76.28 Y94.77 E8.0251
G1 X76.11 Y94.78 E8.0309
G1 X23.89 Y94.78 E9.7676
G1 X23.72 Y94.77 E9.7735
G1 X23.72 Y57.06 E11.0278
G1 X23.72 Y25.23 E12.0863
G1 X23.89 Y25.22 E12.0921
G1 X75.92 Y25.22 E13.8226
G1 X76.11 Y25.22 E13.8288
G1 X76.28 Y25.23 E13.8347
G1 X76.28 Y74.78 E15.4827
G1 X76.28 Y94.77 E16.1475
G1 X76.04 Y94.64 E16.1567
; fan off
M107
;
; 'Wipe', 0.0 [RPM], 40.0 [mm/s]
;
; 'Solid', 63.9 [RPM], 40.0 [mm/s]
G1 F9000
G1 X45.05 Y94.08 E16.1567
G1 F2400
G1 X24.48 Y73.51 E17.1243
G1 X24.48 Y72.94 E17.1431
G1 X45.55 Y94.02 E18.1345
G1 X46.12 Y94.02 E18.1533
G1 X24.48 Y72.38 E19.1713
G1 X24.48 Y71.81 E19.1901
G1 X46.69 Y94.02 E20.2347
G1 X47.25 Y94.02 E20.2535
G1 X24.48 Y71.25 E21.3248
G1 X24.48 Y70.68 E21.3436
G1 X47.82 Y94.02 E22.4414
G1 X48.38 Y94.02 E22.4602
G1 X24.48 Y70.12 E23.5846
G1 X24.48 Y69.55 E23.6034
G1 X48.95 Y94.02 E24.7545
G1 X49.51 Y94.02 E24.7733
G1 X24.48 Y68.98 E25.9509
G1 X24.48 Y68.42 E25.9698
G1 X50.08 Y94.02 E27.174
G1 X50.65 Y94.02 E27.1928
G1 X24.48 Y67.85 E28.4237
G1 X24.48 Y67.29 E28.4425
G1 X51.21 Y94.02 E29.7
G1 X51.78 Y94.02 E29.7188
G1 X24.48 Y66.72 E31.0029
G1 X24.48 Y66.16 E31.0217
G1 X52.34 Y94.02 E32.3324
G1 X52.91 Y94.02 E32.3512
G1 X24.48 Y65.59 E33.6885
G1 X24.48 Y65.02 E33.7073
