; KISSlicer - PRO
; Linux
; version 1.0.9.7
; Built: Jun 12 2012, 22:57:28
;
; Saved: Sun May  5 17:12:01 2013
; 'MirrorMount.gcode'
;
; *** Printer Settings ***
;
; printer_name = Blade-1
; extension = gcode
; cost_per_hour = 2.5
; g_code_prefix = 473238
; g_code_postfix = 0A4D313430205330203B207475726E206F6666206265640A4730205938302046353030303B2050726573656E7420506172740A4D383420202020203B2064697361626C65206D6F746F72730A
; g_code_ext_change = NULL
; post_process = NULL
; num_extruders = 1
; firmware_type = 2
; M104_M109 = 1
; add_comments = 1
; z_speed_mm_per_s = 3.5
; z_settle_mm = 0.25
; bed_size_x_mm = 100
; bed_size_y_mm = 100
; bed_size_z_mm = 150
; bed_offset_x_mm = 50
; bed_offset_y_mm = 60
; bed_offset_z_mm = 0
; bed_roughness_mm = 0.4
; travel_speed_mm_per_s = 150
; first_layer_speed_mm_per_s = 10
; lo_speed_perim_mm_per_s = 10
; lo_speed_solid_mm_per_s = 20
; lo_speed_sparse_mm_per_s = 30
; hi_speed_perim_mm_per_s = 25
; hi_speed_solid_mm_per_s = 60
; hi_speed_sparse_mm_per_s = 75
; ext_mm_per_rev_1 = 1.25
; ext_material_1 = 0
; ext_axis_1 = 0
; ext_mm_per_rev_2 = 1.25
; ext_material_2 = 0
; ext_axis_2 = 0
; ext_mm_per_rev_3 = 1.25
; ext_material_3 = 0
; ext_axis_3 = 0
; model_ext = 0
; support_ext = 0
; support_body_ext = 0
; raft_ext = 0
; solid_loop_overlap_fraction = 0.5
;
; *** Material Settings for Extruder 1 ***
;
; material_name = ABS
; fan_off_ISOs_all = 1
; temperature_C = 250
; keep_warm_C = 150
; first_layer_C = 250
; bed_C = 110
; sec_per_C_per_C = 0
; RPM_min = 3
; RPM_max = 75
; destring_suck = 0.4
; destring_prime = 0.2
; destring_min_mm = 0
; destring_speed_mm_per_s = 15
; min_layer_time_s = 15
; wipe_mm = 0
; cost_per_cm3 = 0.062
; flowrate_tweak = 1
; fiber_dia_mm = 1.75
; color = 0
;
; *** Style Settings ***
;
; style_name = High
; layer_thickness_mm = 0.2
; extrusion_width_mm = 0.4
; num_loops = 2
; skin_thickness_mm = 0.8
; infill_extrusion_width = 0.4
; infill_density_denominator = 4
; stacked_layers = 1
; use_destring = 0
; loops_insideout = 1
; round_infill = 1
;
; *** Actual Slicing Settings As Used ***
;
; layer_thickness_mm = 0.2
; extrusion_width = 0.4
; num_ISOs = 2
; wall_thickness = 0.8
; infill_style = 5
; support_style = 0
; support_angle = 90
; destring_min_mm = 0
; stacked_infill_layers = 1
; ISO_wipe_mm = 0
; raft_style = 0
; extra_raft_depth = 0.4
; oversample_res_mm = 0.125
; crowning_threshold_mm = 1
; loops_insideout = 1
; sheathed_support = 0
; solid_loop_overlap_fraction = 0.5
; inflate_raft_mm = 0
; inflate_support_mm = 1
; model_support_gap_mm = 0.5
; round_infill = 1
; Speed vs Quality = 0.50
;
; *** Header ***
;
; fan off
M107
; [mm] mode
G21
; absolute mode
G90
; *** User-Supplied G-code Prefix ***
;
G28
;
; *** Main G-code ***
;
; Reset extruder pos
G92 E0
; BEGIN_LAYER_OBJECT z=0.20
;
; *** Warming Extruder 1 to 250 C ***
M109 S250
G92 E0
;
;
; 'Loop', 16.0 [RPM], 10.0 [mm/s]
G1 F9000
G1 X38.43 Y66.72 Z0.45 E0
G1 F210
G1 X38.43 Y66.72 Z0.2 E0
G1 F600
G1 X38.34 Y66.82 E0.0044
G1 X38.22 Y66.88 E0.0091
G1 X38.12 Y66.79 E0.0135
G1 X38.12 Y54.16 E0.4337
G1 X38.08 Y53.82 E0.4451
G1 X37.93 Y53.59 E0.4542
G1 X37.7 Y53.44 E0.4633
G1 X37.35 Y53.38 E0.4753
G1 X28.15 Y53.38 E0.7813
G1 X28.12 Y53.2 E0.7873
G1 X28.22 Y53.12 E0.7918
G1 X38.21 Y53.12 E1.1242
G1 X38.38 Y53.14 E1.1298
G1 X38.38 Y66.29 E1.5673
G1 X38.42 Y66.49 E1.574
G1 X38.48 Y66.62 E1.5787
G1 X38.43 Y66.72 E1.5825
;
; 'Wipe', 0.0 [RPM], 10.0 [mm/s]
;
; 'Loop', 16.0 [RPM], 10.0 [mm/s]
G1 F9000
G1 X61.88 Y66.79 E1.5825
G1 F600
G1 X61.78 Y66.88 E1.5869
G1 X61.66 Y66.82 E1.5915
G1 X61.57 Y66.72 E1.596
G1 X61.52 Y66.62 E1.5997
G1 X61.58 Y66.49 E1.6044
G1 X61.62 Y66.29 E1.6111
G1 X61.62 Y53.14 E2.0487
G1 X61.79 Y53.12 E2.0543
G1 X71.78 Y53.12 E2.3866
G1 X71.88 Y53.2 E2.3911
G1 X71.85 Y53.38 E2.3971
G1 X62.65 Y53.38 E2.7032
G1 X62.3 Y53.44 E2.7152
G1 X62.07 Y53.59 E2.7243
G1 X61.92 Y53.82 E2.7334
G1 X61.88 Y54.15 E2.7445
G1 X61.88 Y66.79 E3.1649
;
; 'Perimeter', 16.0 [RPM], 10.0 [mm/s]
G1 F9000
G1 X62.1 Y67.01 E3.1649
G1 F600
G1 X62.29 Y67.19 E3.1735
G1 X62.19 Y67.29 E3.1779
G1 X37.81 Y67.29 E3.9887
G1 X37.71 Y67.19 E3.9931
G1 X37.71 Y54.18 E4.4258
G1 X37.66 Y53.88 E4.4361
G1 X37.52 Y53.81 E4.4412
G1 X37.36 Y53.78 E4.4466
G1 X27.74 Y53.78 E4.7665
G1 X27.71 Y53.62 E4.7719
G1 X27.71 Y52.8 E4.7993
G1 X27.82 Y52.71 E4.8038
G1 X38.62 Y52.71 E5.163
G1 X38.78 Y52.74 E5.1685
G1 X38.78 Y66.31 E5.6201
G1 X38.92 Y66.56 E5.6293
G1 X39.08 Y66.62 E5.6351
G1 X60.92 Y66.62 E6.3614
G1 X61.08 Y66.56 E6.3672
G1 X61.22 Y66.31 E6.3764
G1 X61.22 Y52.74 E6.8279
G1 X61.38 Y52.71 E6.8334
G1 X72.18 Y52.71 E7.1926
G1 X72.29 Y52.8 E7.1971
G1 X72.29 Y53.62 E7.2246
G1 X72.26 Y53.78 E7.2299
G1 X62.64 Y53.78 E7.5498
G1 X62.48 Y53.81 E7.5552
G1 X62.35 Y53.87 E7.56
G1 X62.29 Y54.13 E7.5687
G1 X62.29 Y67.19 E8.0034
G1 X62.03 Y67.18 E8.012
;
; 'Wipe', 0.0 [RPM], 10.0 [mm/s]
;
; 'Crown', 16.0 [RPM], 10.0 [mm/s]
G1 F9000
G1 X38.76 Y66.91 E8.012
G1 F600
G1 X39.08 Y66.96 E8.023
G1 X54.69 Y66.96 E8.5422
G1 X60.92 Y66.96 E8.7491
G1 X61.1 Y66.95 E8.7553
G1 X61.24 Y66.91 E8.7603
;
; 'Wipe', 0.0 [RPM], 10.0 [mm/s]
G1 F210
G1 X61.24 Y66.91 Z0.65 E8.7603
; END_LAYER_OBJECT z=0.20
; Reset extruder pos
G92 E0
; BEGIN_LAYER_OBJECT z=0.40
; *** Cooling...speed multiplier is 0.850021 ***
; fan on
M106
;
; 'Loop', 45.3 [RPM], 28.4 [mm/s]
G1 F9000
G1 X38.4 Y66.88 E0
G1 F210
G1 X38.4 Y66.88 Z0.4 E0
G1 F1703.9
G1 X38.22 Y66.88 E0.0063
G1 X38.12 Y66.79 E0.0107
G1 X38.12 Y54.16 E0.4309
G1 X38.08 Y53.82 E0.4423
G1 X37.93 Y53.59 E0.4513
G1 X37.7 Y53.44 E0.4604
G1 X37.35 Y53.38 E0.4724
G1 X28.15 Y53.38 E0.7785
G1 X28.12 Y53.2 E0.7845
G1 X28.22 Y53.12 E0.789
G1 X38.21 Y53.12 E1.1213
G1 X38.38 Y53.14 E1.1269
G1 X38.38 Y66.11 E1.5582
G1 X38.42 Y66.3 E1.5649
G1 X38.56 Y66.54 E1.574
G1 X38.53 Y66.64 E1.5775
G1 X38.4 Y66.88 E1.5867
;
; 'Loop', 45.3 [RPM], 28.4 [mm/s]
G1 F7650.2
G1 X61.88 Y66.79 E1.5867
G1 F1703.9
G1 X61.78 Y66.88 E1.5912
G1 X61.6 Y66.88 E1.5974
G1 X61.47 Y66.64 E1.6067
G1 X61.44 Y66.54 E1.6102
G1 X61.58 Y66.3 E1.6192
G1 X61.62 Y66.11 E1.6259
G1 X61.62 Y53.14 E2.0572
G1 X61.79 Y53.12 E2.0628
G1 X71.78 Y53.12 E2.3952
G1 X71.88 Y53.2 E2.3996
G1 X71.85 Y53.38 E2.4057
G1 X62.65 Y53.38 E2.7117
G1 X62.3 Y53.44 E2.7237
G1 X62.07 Y53.59 E2.7328
G1 X61.92 Y53.82 E2.7419
G1 X61.88 Y54.15 E2.7531
G1 X61.88 Y66.79 E3.1735
;
; 'Perimeter', 23.7 [RPM], 14.9 [mm/s]
G1 F7650.2
G1 X62.1 Y67.01 E3.1735
G1 F892.5
G1 X62.29 Y67.19 E3.182
G1 X62.19 Y67.29 E3.1864
G1 X37.81 Y67.29 E3.9972
G1 X37.71 Y67.19 E4.0016
G1 X37.71 Y54.18 E4.4344
G1 X37.66 Y53.88 E4.4446
G1 X37.52 Y53.81 E4.4497
G1 X37.36 Y53.78 E4.4552
G1 X27.74 Y53.78 E4.775
G1 X27.71 Y53.62 E4.7804
G1 X27.71 Y52.8 E4.8079
G1 X27.82 Y52.71 E4.8123
G1 X38.62 Y52.71 E5.1715
G1 X38.78 Y52.74 E5.1771
G1 X38.78 Y66.13 E5.6223
G1 X38.84 Y66.25 E5.627
G1 X38.93 Y66.36 E5.6315
G1 X39.07 Y66.42 E5.6366
G1 X60.93 Y66.42 E6.3636
G1 X61.07 Y66.36 E6.3687
G1 X61.22 Y66.13 E6.3778
G1 X61.22 Y53.5 E6.7979
G1 X61.22 Y52.74 E6.8231
G1 X61.38 Y52.71 E6.8286
G1 X72.18 Y52.71 E7.1878
G1 X72.29 Y52.8 E7.1923
G1 X72.29 Y53.62 E7.2197
G1 X72.26 Y53.78 E7.2251
G1 X62.64 Y53.78 E7.545
G1 X62.48 Y53.81 E7.5504
G1 X62.35 Y53.87 E7.5551
G1 X62.29 Y54.13 E7.5639
G1 X62.29 Y67.19 E7.9986
G1 X62.03 Y67.18 E8.0071
; fan off
M107
;
; 'Wipe', 0.0 [RPM], 34.0 [mm/s]
; fan on
M106
;
; 'Crown', 23.7 [RPM], 14.9 [mm/s]
G1 F7650.2
G1 X38.83 Y66.83 E8.0071
G1 F892.5
G1 X38.99 Y66.86 E8.0126
G1 X61.01 Y66.86 E8.7448
G1 X61.17 Y66.83 E8.7502
; fan off
M107
;
; 'Wipe', 0.0 [RPM], 34.0 [mm/s]
G1 F210
G1 X61.17 Y66.83 Z0.85 E8.7502
; END_LAYER_OBJECT z=0.40
; Reset extruder pos
G92 E0
; BEGIN_LAYER_OBJECT z=0.60
; *** Cooling...speed multiplier is 0.832629 ***
; fan on
M106
;
; 'Loop', 44.4 [RPM], 27.8 [mm/s]
G1 F9000
G1 X61.88 Y66.79 E0
G1 F210
G1 X61.88 Y66.79 Z0.6 E0
G1 F1669.1
G1 X61.78 Y66.88 E0.0044
G1 X38.22 Y66.88 E0.7884
G1 X38.12 Y66.79 E0.7928
G1 X38.12 Y54.16 E1.213
G1 X38.08 Y53.82 E1.2244
G1 X37.93 Y53.59 E1.2335
G1 X37.7 Y53.44 E1.2426
G1 X37.35 Y53.38 E1.2546
G1 X28.15 Y53.38 E1.5606
G1 X28.12 Y53.2 E1.5666
G1 X28.22 Y53.12 E1.5711
G1 X38.21 Y53.12 E1.9035
G1 X38.38 Y53.14 E1.9091
G1 X38.38 Y65.92 E2.3341
G1 X38.42 Y66.12 E2.3407
G1 X38.56 Y66.35 E2.3498
G1 X38.76 Y66.52 E2.3587
G1 X38.89 Y66.58 E2.3634
G1 X39.08 Y66.62 E2.3699
G1 X60.92 Y66.62 E3.0962
G1 X61.11 Y66.58 E3.1026
G1 X61.34 Y66.44 E3.1117
G1 X61.52 Y66.24 E3.1206
G1 X61.58 Y66.12 E3.1253
G1 X61.62 Y65.92 E3.132
G1 X61.62 Y53.14 E3.557
G1 X61.79 Y53.12 E3.5626
G1 X71.78 Y53.12 E3.895
G1 X71.88 Y53.2 E3.8994
G1 X71.85 Y53.38 E3.9055
G1 X62.65 Y53.38 E4.2115
G1 X62.3 Y53.44 E4.2235
G1 X62.07 Y53.59 E4.2326
G1 X61.92 Y53.82 E4.2417
G1 X61.88 Y54.15 E4.2529
G1 X61.88 Y66.79 E4.6733
;
; 'Perimeter', 23.3 [RPM], 14.6 [mm/s]
G1 F7493.7
G1 X62.1 Y67.01 E4.6733
G1 F874.3
G1 X62.29 Y67.19 E4.6818
G1 X62.19 Y67.29 E4.6862
G1 X37.81 Y67.29 E5.497
G1 X37.71 Y67.19 E5.5014
G1 X37.71 Y54.18 E5.9342
G1 X37.66 Y53.88 E5.9444
G1 X37.52 Y53.81 E5.9495
G1 X37.36 Y53.78 E5.955
G1 X27.74 Y53.78 E6.2748
G1 X27.71 Y53.62 E6.2802
G1 X27.71 Y52.8 E6.3077
G1 X27.82 Y52.71 E6.3121
G1 X38.62 Y52.71 E6.6713
G1 X38.78 Y52.74 E6.6768
G1 X38.78 Y65.94 E7.1159
G1 X38.84 Y66.06 E7.1205
G1 X38.94 Y66.16 E7.125
G1 X39.07 Y66.22 E7.1297
G1 X60.93 Y66.22 E7.8568
G1 X61.06 Y66.16 E7.8615
G1 X61.16 Y66.06 E7.8659
G1 X61.22 Y65.94 E7.8706
G1 X61.22 Y52.74 E8.3096
G1 X61.38 Y52.71 E8.3152
G1 X72.18 Y52.71 E8.6744
G1 X72.29 Y52.8 E8.6788
G1 X72.29 Y53.62 E8.7063
G1 X72.26 Y53.78 E8.7117
G1 X62.64 Y53.78 E9.0315
G1 X62.48 Y53.81 E9.037
G1 X62.35 Y53.87 E9.0417
G1 X62.29 Y54.13 E9.0505
G1 X62.29 Y67.19 E9.4852
G1 X62.03 Y67.18 E9.4937
; fan off
M107
;
; 'Wipe', 0.0 [RPM], 33.3 [mm/s]
G1 F210
G1 X62.03 Y67.18 Z1.05 E9.4937
; END_LAYER_OBJECT z=0.60
; Reset extruder pos
G92 E0
; BEGIN_LAYER_OBJECT z=0.80
; *** Cooling...speed multiplier is 0.830302 ***
; fan on
M106
;
; 'Loop', 44.3 [RPM], 27.7 [mm/s]
G1 F9000
G1 X61.88 Y66.79 E0
G1 F210
G1 X61.88 Y66.79 Z0.8 E0
G1 F1664.4
G1 X61.78 Y66.88 E0.0044
G1 X38.22 Y66.88 E0.7884
G1 X38.12 Y66.79 E0.7928
G1 X38.12 Y54.16 E1.213
G1 X38.08 Y53.82 E1.2244
G1 X37.93 Y53.59 E1.2335
G1 X37.7 Y53.44 E1.2426
G1 X37.35 Y53.38 E1.2546
G1 X28.15 Y53.38 E1.5606
G1 X28.12 Y53.2 E1.5666
G1 X28.22 Y53.12 E1.5711
G1 X38.21 Y53.12 E1.9035
G1 X38.38 Y53.14 E1.9091
G1 X38.38 Y65.73 E2.3278
G1 X38.42 Y65.93 E2.3345
G1 X38.56 Y66.16 E2.3436
G1 X38.77 Y66.32 E2.3525
G1 X39.07 Y66.42 E2.3629
G1 X60.93 Y66.42 E3.0899
G1 X61.1 Y66.38 E3.0956
G1 X61.33 Y66.24 E3.1047
G1 X61.52 Y66.05 E3.1136
G1 X61.58 Y65.93 E3.1183
G1 X61.62 Y65.73 E3.125
G1 X61.62 Y53.14 E3.5437
G1 X61.79 Y53.12 E3.5493
G1 X71.78 Y53.12 E3.8817
G1 X71.88 Y53.2 E3.8861
G1 X71.85 Y53.38 E3.8922
G1 X62.65 Y53.38 E4.1982
G1 X62.3 Y53.44 E4.2102
G1 X62.07 Y53.59 E4.2193
G1 X61.92 Y53.82 E4.2284
G1 X61.88 Y54.15 E4.2396
G1 X61.88 Y66.79 E4.66
;
; 'Perimeter', 23.2 [RPM], 14.5 [mm/s]
G1 F7472.7
G1 X62.1 Y67.01 E4.66
G1 F871.8
G1 X62.29 Y67.19 E4.6685
G1 X62.19 Y67.29 E4.673
G1 X37.81 Y67.29 E5.4837
G1 X37.71 Y67.19 E5.4882
G1 X37.71 Y54.18 E5.9209
G1 X37.66 Y53.88 E5.9311
G1 X37.52 Y53.81 E5.9363
G1 X37.36 Y53.78 E5.9417
G1 X27.74 Y53.78 E6.2616
G1 X27.71 Y53.62 E6.2669
G1 X27.71 Y52.8 E6.2944
G1 X27.82 Y52.71 E6.2988
G1 X38.62 Y52.71 E6.6581
G1 X38.78 Y52.74 E6.6636
G1 X38.78 Y65.75 E7.0963
G1 X38.84 Y65.88 E7.101
G1 X39.08 Y66.01 E7.1102
G1 X60.92 Y66.01 E7.8364
G1 X61.16 Y65.88 E7.8456
G1 X61.22 Y65.75 E7.8503
G1 X61.22 Y52.74 E8.283
G1 X61.38 Y52.71 E8.2885
G1 X72.18 Y52.71 E8.6477
G1 X72.29 Y52.8 E8.6522
G1 X72.29 Y53.62 E8.6797
G1 X72.26 Y53.78 E8.685
G1 X62.64 Y53.78 E9.0049
G1 X62.48 Y53.81 E9.0103
G1 X62.35 Y53.87 E9.0151
G1 X62.29 Y54.13 E9.0238
G1 X62.29 Y67.19 E9.4585
G1 X62.03 Y67.18 E9.4671
; fan off
M107
;
; 'Wipe', 0.0 [RPM], 33.2 [mm/s]
G1 F210
G1 X62.03 Y67.18 Z1.25 E9.4671
; END_LAYER_OBJECT z=0.80
; Reset extruder pos
G92 E0
; BEGIN_LAYER_OBJECT z=1.00
; *** Cooling...speed multiplier is 0.828026 ***
; fan on
M106
;
; 'Loop', 44.2 [RPM], 27.7 [mm/s]
G1 F9000
G1 X61.88 Y66.79 E0
G1 F210
G1 X61.88 Y66.79 Z1 E0
G1 F1659.9
G1 X61.78 Y66.88 E0.0044
G1 X38.22 Y66.88 E0.7884
G1 X38.12 Y66.79 E0.7928
G1 X38.12 Y54.16 E1.213
G1 X38.08 Y53.82 E1.2244
G1 X37.93 Y53.59 E1.2335
G1 X37.7 Y53.44 E1.2426
G1 X37.35 Y53.38 E1.2546
G1 X28.15 Y53.38 E1.5606
G1 X28.12 Y53.2 E1.5666
G1 X28.22 Y53.12 E1.5711
G1 X38.21 Y53.12 E1.9035
G1 X38.38 Y53.14 E1.9091
G1 X38.38 Y65.54 E2.3215
G1 X38.42 Y65.74 E2.3282
G1 X38.56 Y65.97 E2.3373
G1 X38.79 Y66.12 E2.3463
G1 X39.07 Y66.22 E2.3562
G1 X55.46 Y66.22 E2.9015
G1 X60.93 Y66.22 E3.0834
G1 X61.09 Y66.18 E3.0887
G1 X61.33 Y66.05 E3.098
G1 X61.52 Y65.87 E3.1068
G1 X61.58 Y65.74 E3.1115
G1 X61.62 Y65.54 E3.1182
G1 X61.62 Y53.14 E3.5307
G1 X61.79 Y53.12 E3.5363
G1 X71.78 Y53.12 E3.8686
G1 X71.88 Y53.2 E3.8731
G1 X71.85 Y53.38 E3.8791
G1 X62.65 Y53.38 E4.1852
G1 X62.3 Y53.44 E4.1972
G1 X62.07 Y53.59 E4.2063
G1 X61.92 Y53.82 E4.2154
G1 X61.88 Y54.15 E4.2265
G1 X61.88 Y66.79 E4.6469
;
; 'Perimeter', 23.1 [RPM], 14.5 [mm/s]
G1 F7452.2
G1 X62.1 Y67.01 E4.6469
G1 F869.4
G1 X62.29 Y67.19 E4.6555
G1 X62.19 Y67.29 E4.6599
G1 X37.81 Y67.29 E5.4707
G1 X37.71 Y67.19 E5.4751
G1 X37.71 Y54.18 E5.9078
G1 X37.66 Y53.88 E5.9181
G1 X37.52 Y53.81 E5.9232
G1 X37.36 Y53.78 E5.9286
G1 X27.74 Y53.78 E6.2485
G1 X27.71 Y53.62 E6.2539
G1 X27.71 Y52.8 E6.2813
G1 X27.82 Y52.71 E6.2858
G1 X38.62 Y52.71 E6.645
G1 X38.78 Y52.74 E6.6505
G1 X38.78 Y65.56 E7.077
G1 X38.84 Y65.69 E7.0817
G1 X39.09 Y65.81 E7.091
G1 X60.91 Y65.81 E7.8164
G1 X61.16 Y65.69 E7.8258
G1 X61.22 Y65.56 E7.8305
G1 X61.22 Y52.74 E8.2569
G1 X61.38 Y52.71 E8.2624
G1 X72.18 Y52.71 E8.6217
G1 X72.29 Y52.8 E8.6261
G1 X72.29 Y53.62 E8.6536
G1 X72.26 Y53.78 E8.6589
G1 X62.64 Y53.78 E8.9788
G1 X62.48 Y53.81 E8.9842
G1 X62.35 Y53.87 E8.989
G1 X62.29 Y54.13 E8.9978
G1 X62.29 Y67.19 E9.4324
G1 X62.03 Y67.18 E9.441
; fan off
M107
;
; 'Wipe', 0.0 [RPM], 33.1 [mm/s]
G1 F210
G1 X62.03 Y67.18 Z1.45 E9.441
; END_LAYER_OBJECT z=1.00
; Reset extruder pos
G92 E0
; BEGIN_LAYER_OBJECT z=1.20
; *** Cooling...speed multiplier is 0.871120 ***
; fan on
M106
;
; 'Loop', 46.5 [RPM], 29.1 [mm/s]
G1 F9000
G1 X61.88 Y66.79 E0
G1 F210
G1 X61.88 Y66.79 Z1.2 E0
G1 F1746.2
G1 X61.78 Y66.88 E0.0044
G1 X38.22 Y66.88 E0.7884
G1 X38.12 Y66.79 E0.7928
G1 X38.12 Y54.16 E1.213
G1 X38.08 Y53.82 E1.2244
G1 X37.93 Y53.59 E1.2335
G1 X37.7 Y53.44 E1.2426
G1 X37.35 Y53.38 E1.2546
G1 X28.15 Y53.38 E1.5606
G1 X28.12 Y53.2 E1.5666
G1 X28.22 Y53.12 E1.5711
G1 X38.21 Y53.12 E1.9035
G1 X38.38 Y53.14 E1.9091
G1 X38.38 Y65.35 E2.3152
G1 X38.42 Y65.55 E2.3219
G1 X38.56 Y65.78 E2.331
G1 X38.79 Y65.93 E2.3401
G1 X39.08 Y66.02 E2.3501
G1 X60.92 Y66.02 E3.0765
G1 X61.21 Y65.93 E3.0865
G1 X61.44 Y65.78 E3.0956
G1 X61.58 Y65.55 E3.1047
G1 X61.62 Y65.35 E3.1114
G1 X61.62 Y53.14 E3.5176
G1 X61.79 Y53.12 E3.5232
G1 X71.78 Y53.12 E3.8556
G1 X71.88 Y53.2 E3.86
G1 X71.85 Y53.38 E3.8661
G1 X62.65 Y53.38 E4.1721
G1 X62.3 Y53.44 E4.1841
G1 X62.07 Y53.59 E4.1932
G1 X61.92 Y53.82 E4.2023
G1 X61.88 Y54.15 E4.2135
G1 X61.88 Y66.79 E4.6339
;
; 'Perimeter', 24.3 [RPM], 15.2 [mm/s]
G1 F7840.1
G1 X62.1 Y67.01 E4.6339
G1 F914.7
G1 X62.29 Y67.19 E4.6424
G1 X62.19 Y67.29 E4.6468
G1 X37.81 Y67.29 E5.4576
G1 X37.71 Y67.19 E5.462
G1 X37.71 Y54.18 E5.8948
G1 X37.66 Y53.88 E5.905
G1 X37.52 Y53.81 E5.9101
G1 X37.36 Y53.78 E5.9156
G1 X27.74 Y53.78 E6.2354
G1 X27.71 Y53.62 E6.2408
G1 X27.71 Y52.8 E6.2683
G1 X27.82 Y52.71 E6.2727
G1 X38.62 Y52.71 E6.6319
G1 X38.78 Y52.74 E6.6374
G1 X38.78 Y65.37 E7.0576
G1 X38.84 Y65.5 E7.0623
G1 X39.11 Y65.61 E7.0718
G1 X60.89 Y65.61 E7.7965
G1 X61.16 Y65.5 E7.806
G1 X61.22 Y65.37 E7.8107
G1 X61.22 Y52.74 E8.2309
G1 X61.38 Y52.71 E8.2364
G1 X72.18 Y52.71 E8.5956
G1 X72.29 Y52.8 E8.6001
G1 X72.29 Y53.62 E8.6276
G1 X72.26 Y53.78 E8.6329
G1 X62.64 Y53.78 E8.9528
G1 X62.48 Y53.81 E8.9582
G1 X62.35 Y53.87 E8.963
G1 X62.29 Y54.13 E8.9717
G1 X62.29 Y67.19 E9.4064
G1 X62.03 Y67.18 E9.415
; fan off
M107
;
; 'Solid', 55.6 [RPM], 34.8 [mm/s]
G1 F7840.1
G1 X61.35 Y66.26 E9.415
G1 F2090.7
G1 X60.95 Y66.43 E9.4293
G1 X61.06 Y66.54 E9.4346
G1 X60.54 Y66.58 E9.4521
G1 X60.38 Y66.42 E9.4596
G1 X59.93 Y66.54 E9.475
G1 X59.77 Y66.38 E9.4825
G1 X59.41 Y66.58 E9.4964
G1 X59.25 Y66.42 E9.5039
G1 X58.8 Y66.54 E9.5193
G1 X58.64 Y66.38 E9.5268
G1 X58.28 Y66.58 E9.5406
G1 X58.12 Y66.42 E9.5481
G1 X57.67 Y66.54 E9.5635
G1 X57.51 Y66.38 E9.571
G1 X57.15 Y66.58 E9.5849
G1 X56.99 Y66.42 E9.5924
G1 X56.54 Y66.54 E9.6078
G1 X56.38 Y66.38 E9.6153
G1 X56.02 Y66.58 E9.6291
G1 X55.86 Y66.42 E9.6366
G1 X55.41 Y66.54 E9.6521
G1 X55.25 Y66.38 E9.6596
G1 X54.88 Y66.58 E9.6734
G1 X54.72 Y66.42 E9.6809
G1 X54.28 Y66.54 E9.6963
G1 X54.12 Y66.38 E9.7038
G1 X53.75 Y66.58 E9.7177
G1 X53.59 Y66.42 E9.7252
G1 X53.14 Y66.54 E9.7406
G1 X52.99 Y66.38 E9.7481
G1 X52.62 Y66.58 E9.7619
G1 X52.46 Y66.42 E9.7694
G1 X52.01 Y66.54 E9.7848
G1 X51.85 Y66.38 E9.7923
G1 X51.49 Y66.58 E9.8062
G1 X51.33 Y66.42 E9.8137
G1 X50.88 Y66.54 E9.8291
G1 X50.72 Y66.38 E9.8366
G1 X50.36 Y66.58 E9.8504
G1 X50.2 Y66.42 E9.8579
G1 X49.75 Y66.54 E9.8734
G1 X49.59 Y66.38 E9.8809
G1 X49.23 Y66.58 E9.8947
G1 X49.07 Y66.42 E9.9022
G1 X48.62 Y66.54 E9.9176
G1 X48.46 Y66.38 E9.9251
G1 X48.1 Y66.58 E9.939
G1 X47.94 Y66.42 E9.9465
G1 X47.49 Y66.54 E9.9619
G1 X47.33 Y66.38 E9.9694
G1 X46.96 Y66.58 E9.9832
G1 X46.81 Y66.42 E9.9907
G1 X46.36 Y66.54 E10.0062
G1 X46.2 Y66.38 E10.0137
G1 X45.83 Y66.58 E10.0275
G1 X45.67 Y66.42 E10.035
G1 X45.23 Y66.54 E10.0504
G1 X45.07 Y66.38 E10.0579
G1 X44.7 Y66.58 E10.0718
G1 X44.54 Y66.42 E10.0793
G1 X44.09 Y66.54 E10.0947
G1 X43.93 Y66.38 E10.1022
G1 X43.57 Y66.58 E10.116
G1 X43.41 Y66.42 E10.1235
G1 X42.96 Y66.54 E10.1389
G1 X42.8 Y66.38 E10.1464
G1 X42.44 Y66.58 E10.1603
G1 X42.28 Y66.42 E10.1678
G1 X41.83 Y66.54 E10.1832
G1 X41.67 Y66.38 E10.1907
G1 X41.31 Y66.58 E10.2045
G1 X41.15 Y66.42 E10.212
G1 X40.7 Y66.54 E10.2275
G1 X40.54 Y66.38 E10.235
G1 X40.18 Y66.58 E10.2488
G1 X40.02 Y66.42 E10.2563
G1 X39.57 Y66.54 E10.2717
G1 X39.41 Y66.38 E10.2792
G1 X39.05 Y66.58 E10.2931
G1 X38.69 Y66.22 E10.31
;
; 'Wipe', 0.0 [RPM], 34.8 [mm/s]
G1 F210
G1 X38.69 Y66.22 Z1.65 E10.31
; END_LAYER_OBJECT z=1.20
; Reset extruder pos
G92 E0
; BEGIN_LAYER_OBJECT z=1.40
; *** Cooling...speed multiplier is 0.835470 ***
; fan on
M106
;
; 'Loop', 44.6 [RPM], 27.9 [mm/s]
G1 F9000
G1 X61.88 Y66.79 E0
G1 F210
G1 X61.88 Y66.79 Z1.4 E0
G1 F1674.8
G1 X61.78 Y66.88 E0.0044
G1 X38.22 Y66.88 E0.7884
G1 X38.12 Y66.79 E0.7928
G1 X38.12 Y54.16 E1.213
G1 X38.08 Y53.82 E1.2244
G1 X37.93 Y53.59 E1.2335
G1 X37.7 Y53.44 E1.2426
G1 X37.35 Y53.38 E1.2546
G1 X28.15 Y53.38 E1.5606
G1 X28.12 Y53.2 E1.5666
G1 X28.22 Y53.12 E1.5711
G1 X38.21 Y53.12 E1.9035
G1 X38.38 Y53.14 E1.9091
G1 X38.38 Y65.16 E2.309
G1 X38.42 Y65.36 E2.3157
G1 X38.56 Y65.59 E2.3248
G1 X38.79 Y65.74 E2.3339
G1 X39.09 Y65.82 E2.3441
G1 X60.91 Y65.82 E3.0697
G1 X61.21 Y65.74 E3.08
G1 X61.44 Y65.59 E3.0891
G1 X61.58 Y65.36 E3.0982
G1 X61.62 Y65.16 E3.1049
G1 X61.62 Y53.14 E3.5048
G1 X61.79 Y53.12 E3.5104
G1 X71.78 Y53.12 E3.8428
G1 X71.88 Y53.2 E3.8472
G1 X71.85 Y53.38 E3.8533
G1 X62.65 Y53.38 E4.1593
G1 X62.3 Y53.44 E4.1713
G1 X62.07 Y53.59 E4.1804
G1 X61.92 Y53.82 E4.1895
G1 X61.88 Y54.15 E4.2007
G1 X61.88 Y66.79 E4.6211
;
; 'Perimeter', 23.3 [RPM], 14.6 [mm/s]
G1 F7519.2
G1 X62.1 Y67.01 E4.6211
G1 F877.2
G1 X62.29 Y67.19 E4.6296
G1 X62.19 Y67.29 E4.634
G1 X37.81 Y67.29 E5.4448
G1 X37.71 Y67.19 E5.4492
G1 X37.71 Y54.18 E5.882
G1 X37.66 Y53.88 E5.8922
G1 X37.52 Y53.81 E5.8973
G1 X37.36 Y53.78 E5.9028
G1 X27.74 Y53.78 E6.2226
G1 X27.71 Y53.62 E6.228
G1 X27.71 Y52.8 E6.2555
G1 X27.82 Y52.71 E6.2599
G1 X38.62 Y52.71 E6.6191
G1 X38.78 Y52.74 E6.6247
G1 X38.78 Y65.18 E7.0386
G1 X38.84 Y65.31 E7.0433
G1 X39.12 Y65.41 E7.053
G1 X60.88 Y65.41 E7.7769
G1 X61.16 Y65.31 E7.7866
G1 X61.22 Y65.18 E7.7913
G1 X61.22 Y52.74 E8.2052
G1 X61.38 Y52.71 E8.2108
G1 X72.18 Y52.71 E8.57
G1 X72.29 Y52.8 E8.5744
G1 X72.29 Y53.62 E8.6019
G1 X72.26 Y53.78 E8.6073
G1 X62.64 Y53.78 E8.9271
G1 X62.48 Y53.81 E8.9326
G1 X62.35 Y53.87 E8.9373
G1 X62.29 Y54.13 E8.9461
G1 X62.29 Y67.19 E9.3808
G1 X62.03 Y67.18 E9.3893
; fan off
M107
;
; 'Wipe', 0.0 [RPM], 33.4 [mm/s]
;
; 'Solid', 53.4 [RPM], 33.4 [mm/s]
G1 F7519.2
G1 X39.31 Y66.16 E9.3893
G1 F2005.1
G1 X39.11 Y66.37 E9.3989
G1 X38.84 Y66.07 E9.4122
G1 X38.54 Y66.36 E9.4262
;
; 'Wipe', 0.0 [RPM], 33.4 [mm/s]
G1 F210
G1 X38.54 Y66.36 Z1.85 E9.4262
; END_LAYER_OBJECT z=1.40
; Reset extruder pos
G92 E0
; BEGIN_LAYER_OBJECT z=1.60
; *** Cooling...speed multiplier is 0.903926 ***
; fan on
M106
;
; 'Loop', 48.2 [RPM], 30.2 [mm/s]
G1 F9000
G1 X61.88 Y66.79 E0
G1 F210
G1 X61.88 Y66.79 Z1.6 E0
G1 F1812
G1 X61.78 Y66.88 E0.0044
G1 X38.22 Y66.88 E0.7884
G1 X38.12 Y66.79 E0.7928
G1 X38.12 Y54.16 E1.213
G1 X38.08 Y53.82 E1.2244
G1 X37.93 Y53.59 E1.2335
G1 X37.7 Y53.44 E1.2426
G1 X37.35 Y53.38 E1.2546
G1 X28.15 Y53.38 E1.5606
G1 X28.12 Y53.2 E1.5666
G1 X28.22 Y53.12 E1.5711
G1 X38.21 Y53.12 E1.9035
G1 X38.38 Y53.14 E1.9091
G1 X38.38 Y64.97 E2.3027
G1 X38.42 Y65.17 E2.3094
G1 X38.56 Y65.4 E2.3185
G1 X38.79 Y65.55 E2.3276
G1 X39.1 Y65.62 E2.3381
G1 X60.9 Y65.62 E3.063
G1 X61.21 Y65.55 E3.0735
G1 X61.44 Y65.4 E3.0826
G1 X61.58 Y65.17 E3.0917
G1 X61.62 Y64.97 E3.0984
G1 X61.62 Y53.14 E3.4921
G1 X61.79 Y53.12 E3.4976
G1 X71.78 Y53.12 E3.83
G1 X71.88 Y53.2 E3.8345
G1 X71.85 Y53.38 E3.8405
G1 X62.65 Y53.38 E4.1466
G1 X62.3 Y53.44 E4.1586
G1 X62.07 Y53.59 E4.1676
G1 X61.92 Y53.82 E4.1767
G1 X61.88 Y54.15 E4.1879
G1 X61.88 Y66.79 E4.6083
;
; 'Perimeter', 25.3 [RPM], 15.8 [mm/s]
G1 F8135.3
G1 X62.1 Y67.01 E4.6083
G1 F949.1
G1 X62.29 Y67.19 E4.6169
G1 X62.19 Y67.29 E4.6213
G1 X37.81 Y67.29 E5.4321
G1 X37.71 Y67.19 E5.4365
G1 X37.71 Y54.18 E5.8692
G1 X37.66 Y53.88 E5.8795
G1 X37.52 Y53.81 E5.8846
G1 X37.36 Y53.78 E5.89
G1 X27.74 Y53.78 E6.2099
G1 X27.71 Y53.62 E6.2153
G1 X27.71 Y52.8 E6.2427
G1 X27.82 Y52.71 E6.2472
G1 X38.62 Y52.71 E6.6064
G1 X38.78 Y52.74 E6.6119
G1 X38.78 Y65 E7.0196
G1 X38.84 Y65.12 E7.0242
G1 X38.97 Y65.18 E7.0289
G1 X39.13 Y65.22 E7.0343
G1 X60.87 Y65.22 E7.7575
G1 X61.03 Y65.18 E7.7628
G1 X61.16 Y65.12 E7.7675
G1 X61.22 Y65 E7.7722
G1 X61.22 Y52.74 E8.1798
G1 X61.38 Y52.71 E8.1854
G1 X72.18 Y52.71 E8.5446
G1 X72.29 Y52.8 E8.549
G1 X72.29 Y53.62 E8.5765
G1 X72.26 Y53.78 E8.5819
G1 X62.64 Y53.78 E8.9017
G1 X62.48 Y53.81 E8.9072
G1 X62.35 Y53.87 E8.9119
G1 X62.29 Y54.13 E8.9207
G1 X62.29 Y67.19 E9.3554
G1 X62.03 Y67.18 E9.3639
; fan off
M107
;
; 'Solid', 57.7 [RPM], 36.2 [mm/s]
G1 F8135.3
G1 X61.11 Y66.02 E9.3639
G1 F2169.4
G1 X61.04 Y65.95 E9.3671
G1 X60.91 Y66.39 E9.3824
G1 X61.06 Y66.54 E9.3896
G1 X60.54 Y66.58 E9.407
G1 X60.39 Y66.43 E9.4142
G1 X59.93 Y66.54 E9.4298
G1 X59.78 Y66.39 E9.437
G1 X59.41 Y66.58 E9.4509
G1 X59.26 Y66.43 E9.4581
G1 X58.8 Y66.54 E9.4737
G1 X58.65 Y66.39 E9.4809
G1 X58.28 Y66.58 E9.4948
G1 X58.13 Y66.43 E9.502
G1 X57.67 Y66.54 E9.5176
G1 X57.52 Y66.39 E9.5248
G1 X57.15 Y66.58 E9.5387
G1 X56.99 Y66.43 E9.5459
G1 X56.54 Y66.54 E9.5615
G1 X56.39 Y66.39 E9.5687
G1 X56.02 Y66.58 E9.5826
G1 X55.86 Y66.43 E9.5898
G1 X55.41 Y66.54 E9.6054
G1 X55.25 Y66.39 E9.6126
G1 X54.88 Y66.58 E9.6265
G1 X54.73 Y66.43 E9.6337
G1 X54.28 Y66.54 E9.6493
G1 X54.12 Y66.39 E9.6565
G1 X53.75 Y66.58 E9.6704
G1 X53.6 Y66.43 E9.6776
G1 X53.14 Y66.54 E9.6932
G1 X52.99 Y66.39 E9.7003
G1 X52.62 Y66.58 E9.7143
G1 X52.47 Y66.43 E9.7215
G1 X52.01 Y66.54 E9.737
G1 X51.86 Y66.39 E9.7442
G1 X51.49 Y66.58 E9.7582
G1 X51.34 Y66.43 E9.7654
G1 X50.88 Y66.54 E9.7809
G1 X50.73 Y66.39 E9.7881
G1 X50.36 Y66.58 E9.8021
G1 X50.21 Y66.43 E9.8093
G1 X49.75 Y66.54 E9.8248
G1 X49.6 Y66.39 E9.832
G1 X49.23 Y66.58 E9.846
G1 X49.07 Y66.43 E9.8531
G1 X48.62 Y66.54 E9.8687
G1 X48.47 Y66.39 E9.8759
G1 X48.1 Y66.58 E9.8898
G1 X47.94 Y66.43 E9.897
G1 X47.49 Y66.54 E9.9126
G1 X47.33 Y66.39 E9.9198
G1 X46.96 Y66.58 E9.9337
G1 X46.81 Y66.43 E9.9409
G1 X46.36 Y66.54 E9.9565
G1 X46.2 Y66.39 E9.9637
G1 X45.83 Y66.58 E9.9776
G1 X45.68 Y66.43 E9.9848
G1 X45.23 Y66.54 E10.0004
G1 X45.07 Y66.39 E10.0076
G1 X44.7 Y66.58 E10.0215
G1 X44.55 Y66.43 E10.0287
G1 X44.09 Y66.54 E10.0443
G1 X43.94 Y66.39 E10.0515
G1 X43.57 Y66.58 E10.0654
G1 X43.42 Y66.43 E10.0726
G1 X42.96 Y66.54 E10.0882
G1 X42.81 Y66.39 E10.0954
G1 X42.44 Y66.58 E10.1093
G1 X42.29 Y66.43 E10.1165
G1 X41.83 Y66.54 E10.1321
G1 X41.68 Y66.39 E10.1393
G1 X41.31 Y66.58 E10.1532
G1 X41.15 Y66.43 E10.1604
G1 X40.7 Y66.54 E10.176
G1 X40.55 Y66.39 E10.1832
G1 X40.18 Y66.58 E10.1971
G1 X40.02 Y66.43 E10.2043
G1 X39.57 Y66.54 E10.2199
G1 X39.42 Y66.39 E10.2271
G1 X39.05 Y66.58 E10.241
G1 X38.89 Y66.43 E10.2482
G1 X39 Y65.97 E10.2638
G1 X38.92 Y65.89 E10.2679
G1 X39.56 Y65.96 E10.2893
G1 X39.58 Y65.98 E10.2904
G1 X40.08 Y65.92 E10.3072
G1 X40.1 Y65.94 E10.3083
G1 X40.69 Y65.96 E10.3277
G1 X40.71 Y65.98 E10.3288
G1 X41.21 Y65.92 E10.3456
G1 X41.23 Y65.94 E10.3467
G1 X41.82 Y65.96 E10.3662
G1 X41.84 Y65.98 E10.3672
G1 X42.34 Y65.92 E10.384
G1 X42.37 Y65.94 E10.3851
G1 X42.95 Y65.96 E10.4046
G1 X42.97 Y65.98 E10.4056
G1 X43.47 Y65.92 E10.4224
G1 X43.5 Y65.94 E10.4235
G1 X44.08 Y65.96 E10.443
G1 X44.11 Y65.98 E10.444
G1 X44.61 Y65.92 E10.4608
G1 X44.63 Y65.94 E10.4619
G1 X45.21 Y65.96 E10.4814
G1 X45.24 Y65.98 E10.4824
G1 X45.74 Y65.92 E10.4992
G1 X45.76 Y65.94 E10.5003
G1 X46.35 Y65.96 E10.5198
G1 X46.37 Y65.98 E10.5208
G1 X46.87 Y65.92 E10.5376
G1 X46.89 Y65.94 E10.5387
G1 X47.48 Y65.96 E10.5582
G1 X47.5 Y65.98 E10.5592
G1 X48 Y65.92 E10.576
G1 X48.02 Y65.94 E10.5771
G1 X48.61 Y65.96 E10.5966
G1 X48.63 Y65.98 E10.5976
G1 X49.13 Y65.92 E10.6144
G1 X49.15 Y65.94 E10.6155
G1 X49.74 Y65.96 E10.635
G1 X49.76 Y65.98 E10.636
G1 X50.26 Y65.92 E10.6528
G1 X50.29 Y65.94 E10.6539
G1 X50.87 Y65.96 E10.6734
G1 X50.89 Y65.98 E10.6744
G1 X51.39 Y65.92 E10.6912
G1 X51.42 Y65.94 E10.6923
G1 X52 Y65.96 E10.7118
G1 X52.02 Y65.98 E10.7128
G1 X52.53 Y65.92 E10.7296
G1 X52.55 Y65.94 E10.7307
G1 X53.13 Y65.96 E10.7502
G1 X53.16 Y65.98 E10.7513
G1 X53.66 Y65.92 E10.768
G1 X53.68 Y65.94 E10.7691
G1 X54.26 Y65.96 E10.7886
G1 X54.29 Y65.98 E10.7897
G1 X54.79 Y65.92 E10.8064
G1 X54.81 Y65.94 E10.8075
G1 X55.4 Y65.96 E10.827
G1 X55.42 Y65.98 E10.8281
G1 X55.92 Y65.92 E10.8449
G1 X55.94 Y65.94 E10.8459
G1 X56.53 Y65.96 E10.8654
G1 X56.55 Y65.98 E10.8665
G1 X57.05 Y65.92 E10.8833
G1 X57.07 Y65.94 E10.8843
G1 X57.66 Y65.96 E10.9038
G1 X57.68 Y65.98 E10.9049
G1 X58.18 Y65.92 E10.9217
G1 X58.2 Y65.94 E10.9227
G1 X58.79 Y65.96 E10.9422
G1 X58.81 Y65.98 E10.9433
G1 X59.31 Y65.92 E10.9601
G1 X59.34 Y65.94 E10.9611
G1 X59.92 Y65.96 E10.9806
G1 X59.94 Y65.98 E10.9817
G1 X60.45 Y65.92 E10.9985
G1 X60.47 Y65.94 E10.9995
;
; 'Wipe', 0.0 [RPM], 36.2 [mm/s]
G1 F210
G1 X60.47 Y65.94 Z2.05 E10.9995
; END_LAYER_OBJECT z=1.60
; Reset extruder pos
G92 E0
; BEGIN_LAYER_OBJECT z=1.80
; *** Cooling...speed multiplier is 0.817768 ***
; fan on
M106
;
; 'Loop', 43.6 [RPM], 27.3 [mm/s]
G1 F9000
G1 X61.84 Y66.75 E0
G1 F210
G1 X61.84 Y66.75 Z1.8 E0
G1 F1639.3
G1 X38.16 Y66.75 E0.7877
G1 X38.12 Y66.6 E0.7928
G1 X38.12 Y54.16 E1.2067
G1 X38.08 Y53.82 E1.2181
G1 X37.93 Y53.59 E1.2272
G1 X37.7 Y53.44 E1.2363
G1 X37.35 Y53.38 E1.2482
G1 X28.15 Y53.38 E1.5543
G1 X28.12 Y53.2 E1.5603
G1 X28.22 Y53.12 E1.5648
G1 X38.21 Y53.12 E1.8972
G1 X38.38 Y53.14 E1.9027
G1 X38.38 Y64.6 E2.2838
G1 X38.42 Y64.98 E2.2967
G1 X38.56 Y65.21 E2.3058
G1 X38.79 Y65.36 E2.3149
G1 X39.11 Y65.42 E2.3257
G1 X60.8 Y65.42 E3.047
G1 X61.21 Y65.36 E3.0606
G1 X61.44 Y65.21 E3.0697
G1 X61.58 Y64.98 E3.0788
G1 X61.62 Y64.6 E3.0917
G1 X61.62 Y53.14 E3.4728
G1 X61.79 Y53.12 E3.4784
G1 X71.78 Y53.12 E3.8107
G1 X71.88 Y53.2 E3.8152
G1 X71.85 Y53.38 E3.8212
G1 X62.65 Y53.38 E4.1273
G1 X62.3 Y53.44 E4.1393
G1 X62.07 Y53.59 E4.1484
G1 X61.92 Y53.82 E4.1575
G1 X61.88 Y54.15 E4.1686
G1 X61.88 Y66.6 E4.5828
G1 X61.84 Y66.75 E4.5879
;
; 'Perimeter', 22.8 [RPM], 14.3 [mm/s]
G1 F7359.9
G1 X62.15 Y66.89 E4.5879
G1 F858.7
G1 X62.24 Y67.15 E4.5969
G1 X37.76 Y67.15 E5.4112
G1 X37.71 Y67.01 E5.4162
G1 X37.71 Y54.18 E5.8427
G1 X37.66 Y53.88 E5.8529
G1 X37.52 Y53.81 E5.858
G1 X37.36 Y53.78 E5.8635
G1 X27.74 Y53.78 E6.1833
G1 X27.71 Y53.62 E6.1887
G1 X27.71 Y52.8 E6.2161
G1 X27.82 Y52.71 E6.2206
G1 X38.62 Y52.71 E6.5798
G1 X38.78 Y52.74 E6.5853
G1 X38.78 Y64.62 E6.9806
G1 X38.85 Y64.93 E6.9911
G1 X38.97 Y64.99 E6.9958
G1 X39.14 Y65.02 E7.0013
G1 X60.82 Y65.02 E7.7226
G1 X61.03 Y64.99 E7.7294
G1 X61.15 Y64.93 E7.7341
G1 X61.22 Y64.62 E7.7447
G1 X61.22 Y52.74 E8.1399
G1 X61.38 Y52.71 E8.1454
G1 X72.18 Y52.71 E8.5046
G1 X72.29 Y52.8 E8.5091
G1 X72.29 Y53.62 E8.5365
G1 X72.26 Y53.78 E8.5419
G1 X62.64 Y53.78 E8.8618
G1 X62.48 Y53.81 E8.8672
G1 X62.35 Y53.87 E8.872
G1 X62.29 Y54.13 E8.8807
G1 X62.29 Y67.01 E9.3091
G1 X62.24 Y67.15 E9.3142
G1 X62.02 Y66.99 E9.3232
; fan off
M107
;
; 'Wipe', 0.0 [RPM], 32.7 [mm/s]
G1 F210
G1 X62.02 Y66.99 Z2.25 E9.3232
; END_LAYER_OBJECT z=1.80
; Reset extruder pos
G92 E0
; BEGIN_LAYER_OBJECT z=2.00
; *** Cooling...speed multiplier is 0.902700 ***
; fan on
M106
;
; 'Loop', 48.1 [RPM], 30.2 [mm/s]
G1 F9000
G1 X61.83 Y66.55 E0
G1 F210
G1 X61.83 Y66.55 Z2 E0
G1 F1809.5
G1 X38.17 Y66.55 E0.787
G1 X38.12 Y66.41 E0.7919
G1 X38.12 Y54.16 E1.1995
G1 X38.08 Y53.82 E1.2109
G1 X37.93 Y53.59 E1.22
G1 X37.7 Y53.44 E1.2291
G1 X37.35 Y53.38 E1.2411
G1 X28.15 Y53.38 E1.5471
G1 X28.12 Y53.2 E1.5532
G1 X28.22 Y53.12 E1.5576
G1 X38.21 Y53.12 E1.89
G1 X38.38 Y53.14 E1.8956
G1 X38.38 Y64.41 E2.2704
G1 X38.42 Y64.79 E2.2831
G1 X38.57 Y65.02 E2.2922
G1 X38.8 Y65.17 E2.3013
G1 X39.19 Y65.22 E2.3145
G1 X60.81 Y65.22 E3.0335
G1 X61.2 Y65.17 E3.0466
G1 X61.43 Y65.02 E3.0557
G1 X61.58 Y64.79 E3.0648
G1 X61.62 Y64.41 E3.0776
G1 X61.62 Y53.14 E3.4524
G1 X61.79 Y53.12 E3.458
G1 X71.78 Y53.12 E3.7903
G1 X71.88 Y53.2 E3.7948
G1 X71.85 Y53.38 E3.8008
G1 X62.65 Y53.38 E4.1069
G1 X62.3 Y53.44 E4.1189
G1 X62.07 Y53.59 E4.128
G1 X61.92 Y53.82 E4.1371
G1 X61.88 Y54.15 E4.1482
G1 X61.88 Y66.41 E4.5561
G1 X61.83 Y66.55 E4.561
;
; 'Perimeter', 25.2 [RPM], 15.8 [mm/s]
G1 F8124.3
G1 X62.16 Y66.69 E4.561
G1 F947.8
G1 X62.23 Y66.95 E4.5699
G1 X37.77 Y66.95 E5.3836
G1 X37.71 Y66.82 E5.3884
G1 X37.71 Y54.18 E5.8086
G1 X37.66 Y53.88 E5.8188
G1 X37.52 Y53.81 E5.8239
G1 X37.36 Y53.78 E5.8294
G1 X27.74 Y53.78 E6.1492
G1 X27.71 Y53.62 E6.1546
G1 X27.71 Y52.8 E6.182
G1 X27.82 Y52.71 E6.1865
G1 X38.62 Y52.71 E6.5457
G1 X38.78 Y52.74 E6.5512
G1 X38.78 Y64.43 E6.9401
G1 X38.79 Y64.61 E6.9461
G1 X38.85 Y64.74 E6.9508
G1 X39.15 Y64.82 E6.9611
G1 X39.17 Y64.82 E6.9617
G1 X60.83 Y64.82 E7.6823
G1 X61.02 Y64.8 E7.6886
G1 X61.15 Y64.74 E7.6933
G1 X61.22 Y64.43 E7.7037
G1 X61.22 Y64.43 E7.7038
G1 X61.22 Y52.74 E8.0927
G1 X61.38 Y52.71 E8.0982
G1 X72.18 Y52.71 E8.4574
G1 X72.29 Y52.8 E8.4619
G1 X72.29 Y53.62 E8.4893
G1 X72.26 Y53.78 E8.4947
G1 X62.64 Y53.78 E8.8146
G1 X62.48 Y53.81 E8.82
G1 X62.35 Y53.87 E8.8247
G1 X62.29 Y54.13 E8.8335
G1 X62.29 Y66.82 E9.2557
G1 X62.23 Y66.95 E9.2605
G1 X62.02 Y66.79 E9.2694
; fan off
M107
;
; 'Solid', 57.6 [RPM], 36.1 [mm/s]
G1 F8124.3
G1 X61.34 Y66.25 E9.2694
G1 F2166.5
G1 X60.65 Y65.56 E9.3018
G1 X60.3 Y65.78 E9.3154
G1 X60.04 Y65.52 E9.3276
G1 X59.78 Y65.82 E9.3409
G1 X59.52 Y65.56 E9.353
G1 X59.17 Y65.78 E9.3667
G1 X58.91 Y65.52 E9.3788
G1 X58.65 Y65.82 E9.3922
G1 X58.39 Y65.56 E9.4043
G1 X58.04 Y65.78 E9.418
G1 X57.78 Y65.52 E9.4301
G1 X57.52 Y65.82 E9.4434
G1 X57.26 Y65.56 E9.4556
G1 X56.91 Y65.78 E9.4692
G1 X56.65 Y65.52 E9.4814
G1 X56.38 Y65.82 E9.4947
G1 X56.13 Y65.56 E9.5068
G1 X55.78 Y65.78 E9.5205
G1 X55.52 Y65.52 E9.5326
G1 X55.25 Y65.82 E9.5459
G1 X55 Y65.56 E9.5581
G1 X54.65 Y65.78 E9.5718
G1 X54.39 Y65.52 E9.5839
G1 X54.12 Y65.82 E9.5972
G1 X53.86 Y65.56 E9.6093
G1 X53.51 Y65.78 E9.623
G1 X53.26 Y65.52 E9.6351
G1 X52.99 Y65.82 E9.6485
G1 X52.73 Y65.56 E9.6606
G1 X52.38 Y65.78 E9.6743
G1 X52.12 Y65.52 E9.6864
G1 X51.86 Y65.82 E9.6997
G1 X51.6 Y65.56 E9.7119
G1 X51.25 Y65.78 E9.7255
G1 X50.99 Y65.52 E9.7377
G1 X50.73 Y65.82 E9.751
G1 X50.47 Y65.56 E9.7631
G1 X50.12 Y65.78 E9.7768
G1 X49.86 Y65.52 E9.7889
G1 X49.6 Y65.82 E9.8023
G1 X49.34 Y65.56 E9.8144
G1 X48.99 Y65.78 E9.8281
G1 X48.73 Y65.52 E9.8402
G1 X48.46 Y65.82 E9.8535
G1 X48.21 Y65.56 E9.8657
G1 X47.86 Y65.78 E9.8793
G1 X47.6 Y65.52 E9.8915
G1 X47.33 Y65.82 E9.9048
G1 X47.08 Y65.56 E9.9169
G1 X46.73 Y65.78 E9.9306
G1 X46.47 Y65.52 E9.9427
G1 X46.2 Y65.82 E9.956
G1 X45.94 Y65.56 E9.9682
G1 X45.59 Y65.78 E9.9819
G1 X45.34 Y65.52 E9.994
G1 X45.07 Y65.82 E10.0073
G1 X44.81 Y65.56 E10.0194
G1 X44.46 Y65.78 E10.0331
G1 X44.2 Y65.52 E10.0452
G1 X43.94 Y65.82 E10.0586
G1 X43.68 Y65.56 E10.0707
G1 X43.33 Y65.78 E10.0844
G1 X43.07 Y65.52 E10.0965
G1 X42.81 Y65.82 E10.1098
G1 X42.55 Y65.56 E10.122
G1 X42.2 Y65.78 E10.1356
G1 X41.94 Y65.52 E10.1478
G1 X41.68 Y65.82 E10.1611
G1 X41.42 Y65.56 E10.1732
G1 X41.07 Y65.78 E10.1869
G1 X40.81 Y65.52 E10.199
G1 X40.55 Y65.82 E10.2124
G1 X40.29 Y65.56 E10.2245
G1 X39.94 Y65.78 E10.2382
G1 X39.68 Y65.52 E10.2503
G1 X39.41 Y65.82 E10.2636
G1 X39.15 Y65.55 E10.2762
G1 X39.2 Y66.17 E10.2967
G1 X39.24 Y66.21 E10.2985
G1 X38.71 Y66.25 E10.316
G1 X38.67 Y66.21 E10.3178
;
; 'Solid', 57.6 [RPM], 36.1 [mm/s]
G1 F8124.3
G1 X39.84 Y66.25 E10.3178
G1 F2166.5
G1 X39.8 Y66.21 E10.3197
G1 X40.33 Y66.17 E10.3371
G1 X40.37 Y66.21 E10.339
G1 X40.94 Y66.21 E10.3579
G1 X40.98 Y66.25 E10.3597
G1 X41.46 Y66.17 E10.3761
G1 X41.5 Y66.21 E10.3779
G1 X42.07 Y66.21 E10.3968
G1 X42.11 Y66.25 E10.3987
G1 X42.59 Y66.17 E10.415
G1 X42.63 Y66.21 E10.4168
G1 X43.2 Y66.21 E10.4358
G1 X43.24 Y66.25 E10.4376
G1 X43.72 Y66.17 E10.4539
G1 X43.76 Y66.21 E10.4558
G1 X44.33 Y66.21 E10.4747
G1 X44.37 Y66.25 E10.4765
G1 X44.85 Y66.17 E10.4929
G1 X44.89 Y66.21 E10.4947
G1 X45.46 Y66.21 E10.5136
G1 X45.5 Y66.25 E10.5155
G1 X45.98 Y66.17 E10.5318
G1 X46.02 Y66.21 E10.5336
G1 X46.59 Y66.21 E10.5526
G1 X46.63 Y66.25 E10.5544
G1 X47.12 Y66.17 E10.5707
G1 X47.16 Y66.21 E10.5726
G1 X47.72 Y66.21 E10.5915
G1 X47.76 Y66.25 E10.5933
G1 X48.25 Y66.17 E10.6097
G1 X48.29 Y66.21 E10.6115
G1 X48.86 Y66.21 E10.6304
G1 X48.89 Y66.25 E10.6323
G1 X49.38 Y66.17 E10.6486
G1 X49.42 Y66.21 E10.6504
G1 X49.99 Y66.21 E10.6694
G1 X50.03 Y66.25 E10.6712
G1 X50.51 Y66.17 E10.6875
G1 X50.55 Y66.21 E10.6894
G1 X51.12 Y66.21 E10.7083
G1 X51.16 Y66.25 E10.7101
G1 X51.64 Y66.17 E10.7265
G1 X51.68 Y66.21 E10.7283
G1 X52.25 Y66.21 E10.7472
G1 X52.29 Y66.25 E10.7491
G1 X52.77 Y66.17 E10.7654
G1 X52.81 Y66.21 E10.7672
G1 X53.38 Y66.21 E10.7862
G1 X53.42 Y66.25 E10.788
G1 X53.9 Y66.17 E10.8043
G1 X53.94 Y66.21 E10.8062
G1 X54.51 Y66.21 E10.8251
G1 X54.55 Y66.25 E10.8269
G1 X55.04 Y66.17 E10.8433
G1 X55.07 Y66.21 E10.8451
G1 X55.64 Y66.21 E10.864
G1 X55.68 Y66.25 E10.8659
G1 X56.17 Y66.17 E10.8822
G1 X56.21 Y66.21 E10.884
G1 X56.78 Y66.21 E10.903
G1 X56.81 Y66.25 E10.9048
G1 X57.3 Y66.17 E10.9211
G1 X57.34 Y66.21 E10.923
G1 X57.91 Y66.21 E10.9419
G1 X57.95 Y66.25 E10.9437
G1 X58.43 Y66.17 E10.9601
G1 X58.47 Y66.21 E10.9619
G1 X59.04 Y66.21 E10.9808
G1 X59.08 Y66.25 E10.9827
G1 X59.56 Y66.17 E10.999
G1 X59.6 Y66.21 E11.0008
G1 X60.17 Y66.21 E11.0198
G1 X60.21 Y66.25 E11.0216
G1 X60.69 Y66.17 E11.0379
G1 X60.73 Y66.21 E11.0398
;
; 'Wipe', 0.0 [RPM], 36.1 [mm/s]
G1 F210
G1 X60.73 Y66.21 Z2.45 E11.0398
; END_LAYER_OBJECT z=2.00
; Reset extruder pos
G92 E0
; BEGIN_LAYER_OBJECT z=2.20
; *** Cooling...speed multiplier is 0.808357 ***
; fan on
M106
;
; 'Loop', 43.1 [RPM], 27.0 [mm/s]
G1 F9000
G1 X61.82 Y66.35 E0
G1 F210
G1 X61.82 Y66.35 Z2.2 E0
G1 F1620.4
G1 X38.18 Y66.35 E0.7863
G1 X38.12 Y66.23 E0.7909
G1 X38.12 Y54.16 E1.1923
G1 X38.08 Y53.82 E1.2037
G1 X37.93 Y53.59 E1.2128
G1 X37.7 Y53.44 E1.2219
G1 X37.35 Y53.38 E1.2339
G1 X28.15 Y53.38 E1.5399
G1 X28.12 Y53.2 E1.5459
G1 X28.22 Y53.12 E1.5504
G1 X38.21 Y53.12 E1.8828
G1 X38.38 Y53.14 E1.8884
G1 X38.38 Y64.22 E2.2569
G1 X38.43 Y64.59 E2.2695
G1 X38.57 Y64.83 E2.2786
G1 X38.81 Y64.97 E2.2877
G1 X39.14 Y65.02 E2.2988
G1 X60.82 Y65.02 E3.02
G1 X61.19 Y64.97 E3.0325
G1 X61.43 Y64.83 E3.0416
G1 X61.57 Y64.59 E3.0507
G1 X61.62 Y64.22 E3.0633
G1 X61.62 Y53.14 E3.4318
G1 X61.79 Y53.12 E3.4374
G1 X71.78 Y53.12 E3.7698
G1 X71.88 Y53.2 E3.7742
G1 X71.85 Y53.38 E3.7803
G1 X62.65 Y53.38 E4.0863
G1 X62.3 Y53.44 E4.0983
G1 X62.07 Y53.59 E4.1074
G1 X61.92 Y53.82 E4.1165
G1 X61.88 Y54.15 E4.1277
G1 X61.88 Y66.23 E4.5293
G1 X61.82 Y66.35 E4.5339
;
; 'Perimeter', 22.6 [RPM], 14.1 [mm/s]
G1 F7275.2
G1 X62.16 Y66.49 E4.5339
G1 F848.8
G1 X62.22 Y66.75 E4.5428
G1 X37.78 Y66.75 E5.3557
G1 X37.71 Y66.63 E5.3604
G1 X37.71 Y54.18 E5.7743
G1 X37.66 Y53.88 E5.7845
G1 X37.52 Y53.81 E5.7897
G1 X37.36 Y53.78 E5.7951
G1 X27.74 Y53.78 E6.115
G1 X27.71 Y53.62 E6.1203
G1 X27.71 Y52.8 E6.1478
G1 X27.82 Y52.71 E6.1522
G1 X38.62 Y52.71 E6.5115
G1 X38.78 Y52.74 E6.517
G1 X38.78 Y64.24 E6.8996
G1 X38.8 Y64.41 E6.9053
G1 X38.86 Y64.54 E6.9101
G1 X39.16 Y64.62 E6.9203
G1 X60.84 Y64.62 E7.6415
G1 X61.01 Y64.6 E7.6473
G1 X61.07 Y64.58 E7.6492
G1 X61.14 Y64.54 E7.6521
G1 X61.22 Y64.24 E7.6623
G1 X61.22 Y64.24 E7.6625
G1 X61.22 Y52.74 E8.045
G1 X61.38 Y52.71 E8.0505
G1 X72.18 Y52.71 E8.4098
G1 X72.29 Y52.8 E8.4142
G1 X72.29 Y53.62 E8.4417
G1 X72.26 Y53.78 E8.447
G1 X62.64 Y53.78 E8.7669
G1 X62.48 Y53.81 E8.7723
G1 X62.35 Y53.87 E8.7771
G1 X62.29 Y54.13 E8.7859
G1 X62.29 Y66.63 E9.2017
G1 X62.22 Y66.75 E9.2064
G1 X62.02 Y66.58 E9.2152
; fan off
M107
;
; 'Wipe', 0.0 [RPM], 32.3 [mm/s]
G1 F210
G1 X62.02 Y66.58 Z2.65 E9.2152
; END_LAYER_OBJECT z=2.20
; Reset extruder pos
G92 E0
; BEGIN_LAYER_OBJECT z=2.40
; *** Cooling...speed multiplier is 0.866238 ***
; fan on
M106
;
; 'Loop', 46.2 [RPM], 28.9 [mm/s]
G1 F9000
G1 X61.81 Y66.15 E0
G1 F210
G1 X61.81 Y66.15 Z2.4 E0
G1 F1736.5
G1 X38.19 Y66.15 E0.7855
G1 X38.12 Y66.04 E0.79
G1 X38.12 Y54.16 E1.1851
G1 X38.08 Y53.82 E1.1965
G1 X37.93 Y53.59 E1.2056
G1 X37.7 Y53.44 E1.2147
G1 X37.35 Y53.38 E1.2267
G1 X28.15 Y53.38 E1.5327
G1 X28.12 Y53.2 E1.5388
G1 X28.22 Y53.12 E1.5432
G1 X38.21 Y53.12 E1.8756
G1 X38.38 Y53.14 E1.8812
G1 X38.38 Y64.03 E2.2435
G1 X38.44 Y64.4 E2.2558
G1 X38.58 Y64.63 E2.2649
G1 X38.81 Y64.78 E2.274
G1 X39.15 Y64.82 E2.2852
G1 X60.83 Y64.82 E3.0064
G1 X61.19 Y64.78 E3.0183
G1 X61.42 Y64.63 E3.0274
G1 X61.56 Y64.4 E3.0365
G1 X61.62 Y64.03 E3.0488
G1 X61.62 Y53.14 E3.4111
G1 X61.79 Y53.12 E3.4167
G1 X71.78 Y53.12 E3.7491
G1 X71.88 Y53.2 E3.7535
G1 X71.85 Y53.38 E3.7595
G1 X62.65 Y53.38 E4.0656
G1 X62.3 Y53.44 E4.0776
G1 X62.07 Y53.59 E4.0867
G1 X61.92 Y53.82 E4.0958
G1 X61.88 Y54.15 E4.1069
G1 X61.88 Y66.04 E4.5023
G1 X61.81 Y66.15 E4.5068
;
; 'Perimeter', 24.2 [RPM], 15.2 [mm/s]
G1 F7796.1
G1 X62.17 Y66.29 E4.5068
G1 F909.6
G1 X62.21 Y66.55 E4.5155
G1 X37.79 Y66.55 E5.3278
G1 X37.71 Y66.44 E5.3323
G1 X37.71 Y54.18 E5.7399
G1 X37.66 Y53.88 E5.7502
G1 X37.52 Y53.81 E5.7553
G1 X37.36 Y53.78 E5.7607
G1 X27.74 Y53.78 E6.0806
G1 X27.71 Y53.62 E6.086
G1 X27.71 Y52.8 E6.1134
G1 X27.82 Y52.71 E6.1179
G1 X38.62 Y52.71 E6.4771
G1 X38.78 Y52.74 E6.4826
G1 X38.78 Y64.05 E6.8589
G1 X38.81 Y64.22 E6.8645
G1 X38.86 Y64.35 E6.8692
G1 X39.14 Y64.42 E6.8787
G1 X60.83 Y64.42 E7.5999
G1 X60.86 Y64.41 E7.601
G1 X61.01 Y64.41 E7.6059
G1 X61.14 Y64.35 E7.6106
G1 X61.19 Y64.22 E7.6154
G1 X61.22 Y64.05 E7.6209
G1 X61.22 Y52.74 E7.9972
G1 X61.38 Y52.71 E8.0027
G1 X72.18 Y52.71 E8.3619
G1 X72.29 Y52.8 E8.3664
G1 X72.29 Y53.62 E8.3939
G1 X72.26 Y53.78 E8.3992
G1 X62.64 Y53.78 E8.7191
G1 X62.48 Y53.81 E8.7245
G1 X62.35 Y53.87 E8.7293
G1 X62.29 Y54.13 E8.738
G1 X62.29 Y66.44 E9.1476
G1 X62.21 Y66.55 E9.1522
G1 X62.02 Y66.38 E9.1609
; fan off
M107
;
; 'Wipe', 0.0 [RPM], 34.6 [mm/s]
;
; 'Solid', 55.3 [RPM], 34.6 [mm/s]
G1 F7796.1
G1 X61.46 Y65.81 E9.1609
G1 F2079
G1 X61.13 Y65.47 E9.1766
G1 X61.39 Y65.17 E9.19
G1 X61.32 Y65.1 E9.1932
G1 X60.94 Y65.85 E9.2211
G1 X60.61 Y65.52 E9.2369
G1 X60.33 Y65.81 E9.2502
G1 X60 Y65.47 E9.2659
G1 X59.81 Y65.85 E9.2799
G1 X59.48 Y65.52 E9.2956
G1 X59.2 Y65.81 E9.3089
G1 X58.87 Y65.47 E9.3246
G1 X58.68 Y65.85 E9.3387
G1 X58.34 Y65.52 E9.3544
G1 X58.07 Y65.81 E9.3677
G1 X57.74 Y65.47 E9.3834
G1 X57.55 Y65.85 E9.3974
G1 X57.21 Y65.52 E9.4131
G1 X56.94 Y65.81 E9.4265
G1 X56.61 Y65.47 E9.4422
G1 X56.42 Y65.85 E9.4562
G1 X56.08 Y65.52 E9.4719
G1 X55.81 Y65.81 E9.4852
G1 X55.47 Y65.47 E9.5009
G1 X55.28 Y65.85 E9.515
G1 X54.95 Y65.52 E9.5307
G1 X54.68 Y65.81 E9.544
G1 X54.34 Y65.47 E9.5597
G1 X54.15 Y65.85 E9.5737
G1 X53.82 Y65.52 E9.5894
G1 X53.55 Y65.81 E9.6027
G1 X53.21 Y65.47 E9.6185
G1 X53.02 Y65.85 E9.6325
G1 X52.69 Y65.52 E9.6482
G1 X52.41 Y65.81 E9.6615
G1 X52.08 Y65.47 E9.6772
G1 X51.89 Y65.85 E9.6912
G1 X51.56 Y65.52 E9.707
G1 X51.28 Y65.81 E9.7203
G1 X50.95 Y65.47 E9.736
G1 X50.76 Y65.85 E9.75
G1 X50.42 Y65.52 E9.7657
G1 X50.15 Y65.81 E9.779
G1 X49.82 Y65.47 E9.7948
G1 X49.63 Y65.85 E9.8088
G1 X49.29 Y65.52 E9.8245
G1 X49.02 Y65.81 E9.8378
G1 X48.69 Y65.47 E9.8535
G1 X48.5 Y65.85 E9.8675
G1 X48.16 Y65.52 E9.8832
G1 X47.89 Y65.81 E9.8966
G1 X47.55 Y65.47 E9.9123
G1 X47.36 Y65.85 E9.9263
G1 X47.03 Y65.52 E9.942
G1 X46.76 Y65.81 E9.9553
G1 X46.42 Y65.47 E9.971
G1 X46.23 Y65.85 E9.9851
G1 X45.9 Y65.52 E10.0008
G1 X45.63 Y65.81 E10.0141
G1 X45.29 Y65.47 E10.0298
G1 X45.1 Y65.85 E10.0438
G1 X44.77 Y65.52 E10.0595
G1 X44.49 Y65.81 E10.0728
G1 X44.16 Y65.47 E10.0886
G1 X43.97 Y65.85 E10.1026
G1 X43.64 Y65.52 E10.1183
G1 X43.36 Y65.81 E10.1316
G1 X43.03 Y65.47 E10.1473
G1 X42.84 Y65.85 E10.1613
G1 X42.51 Y65.52 E10.1771
G1 X42.23 Y65.81 E10.1904
G1 X41.9 Y65.47 E10.2061
G1 X41.71 Y65.85 E10.2201
G1 X41.37 Y65.52 E10.2358
G1 X41.1 Y65.81 E10.2491
G1 X40.77 Y65.47 E10.2649
G1 X40.58 Y65.85 E10.2789
G1 X40.24 Y65.52 E10.2946
G1 X39.97 Y65.81 E10.3079
G1 X39.63 Y65.47 E10.3236
G1 X39.45 Y65.85 E10.3376
G1 X39.11 Y65.52 E10.3534
G1 X38.84 Y65.81 E10.3667
G1 X38.5 Y65.47 E10.3824
G1 X38.76 Y65.17 E10.3957
G1 X38.6 Y65.01 E10.4034
;
; 'Wipe', 0.0 [RPM], 34.6 [mm/s]
G1 F210
G1 X38.6 Y65.01 Z2.85 E10.4034
; END_LAYER_OBJECT z=2.40
; Reset extruder pos
G92 E0
; BEGIN_LAYER_OBJECT z=2.60
; *** Cooling...speed multiplier is 0.853466 ***
; fan on
M106
;
; 'Loop', 45.5 [RPM], 28.5 [mm/s]
G1 F9000
G1 X61.8 Y65.95 E0
G1 F210
G1 X61.8 Y65.95 Z2.6 E0
G1 F1710.9
G1 X38.2 Y65.95 E0.7847
G1 X38.12 Y65.85 E0.7891
G1 X38.12 Y54.16 E1.178
G1 X38.08 Y53.82 E1.1893
G1 X37.93 Y53.59 E1.1984
G1 X37.7 Y53.44 E1.2075
G1 X37.35 Y53.38 E1.2195
G1 X28.15 Y53.38 E1.5256
G1 X28.12 Y53.2 E1.5316
G1 X28.22 Y53.12 E1.5361
G1 X38.21 Y53.12 E1.8684
G1 X38.38 Y53.14 E1.874
G1 X38.38 Y63.84 E2.23
G1 X38.44 Y64.2 E2.2421
G1 X38.59 Y64.43 E2.2512
G1 X38.82 Y64.58 E2.2603
G1 X39.16 Y64.62 E2.2715
G1 X60.84 Y64.62 E2.9927
G1 X61.18 Y64.58 E3.004
G1 X61.41 Y64.43 E3.0131
G1 X61.55 Y64.2 E3.0222
G1 X61.62 Y63.84 E3.0343
G1 X61.62 Y53.14 E3.3903
G1 X61.79 Y53.12 E3.3959
G1 X71.78 Y53.12 E3.7283
G1 X71.88 Y53.2 E3.7327
G1 X71.85 Y53.38 E3.7388
G1 X62.65 Y53.38 E4.0448
G1 X62.3 Y53.44 E4.0568
G1 X62.07 Y53.59 E4.0659
G1 X61.92 Y53.82 E4.075
G1 X61.88 Y54.15 E4.0862
G1 X61.88 Y65.85 E4.4752
G1 X61.8 Y65.95 E4.4797
;
; 'Perimeter', 23.8 [RPM], 14.9 [mm/s]
G1 F7681.2
G1 X62.18 Y66.1 E4.4797
G1 F896.1
G1 X62.2 Y66.35 E4.4883
G1 X37.8 Y66.35 E5.2998
G1 X37.71 Y66.25 E5.3042
G1 X37.71 Y54.18 E5.7056
G1 X37.66 Y53.88 E5.7158
G1 X37.52 Y53.81 E5.721
G1 X37.36 Y53.78 E5.7264
G1 X27.74 Y53.78 E6.0462
G1 X27.71 Y53.62 E6.0516
G1 X27.71 Y52.8 E6.0791
G1 X27.82 Y52.71 E6.0835
G1 X38.62 Y52.71 E6.4427
G1 X38.78 Y52.74 E6.4483
G1 X38.78 Y63.86 E6.8183
G1 X38.87 Y64.15 E6.8283
G1 X39.13 Y64.21 E6.8371
G1 X60.81 Y64.21 E7.5583
G1 X60.87 Y64.21 E7.5602
G1 X61 Y64.21 E7.5644
G1 X61.13 Y64.15 E7.5691
G1 X61.22 Y63.86 E7.5791
G1 X61.22 Y52.74 E7.9491
G1 X61.38 Y52.71 E7.9547
G1 X72.18 Y52.71 E8.3139
G1 X72.29 Y52.8 E8.3183
G1 X72.29 Y53.62 E8.3458
G1 X72.26 Y53.78 E8.3512
G1 X62.64 Y53.78 E8.671
G1 X62.48 Y53.81 E8.6765
G1 X62.35 Y53.87 E8.6812
G1 X62.29 Y54.13 E8.69
G1 X62.29 Y66.25 E9.0933
G1 X62.2 Y66.35 E9.0977
G1 X62.02 Y66.17 E9.1063
; fan off
M107
;
; 'Solid', 54.5 [RPM], 34.1 [mm/s]
G1 F7681.2
G1 X60.88 Y64.96 E9.1063
G1 F2048.3
G1 X60.57 Y65.27 E9.1209
G1 X60.35 Y64.92 E9.1346
G1 X60.05 Y65.22 E9.149
G1 X59.75 Y64.96 E9.1623
G1 X59.44 Y65.27 E9.1767
G1 X59.22 Y64.92 E9.1904
G1 X58.92 Y65.22 E9.2048
G1 X58.62 Y64.96 E9.2181
G1 X58.31 Y65.27 E9.2325
G1 X58.09 Y64.92 E9.2462
G1 X57.79 Y65.22 E9.2606
G1 X57.48 Y64.96 E9.2739
G1 X57.18 Y65.27 E9.2884
G1 X56.96 Y64.92 E9.302
G1 X56.65 Y65.22 E9.3164
G1 X56.35 Y64.96 E9.3298
G1 X56.05 Y65.27 E9.3442
G1 X55.83 Y64.92 E9.3578
G1 X55.52 Y65.22 E9.3722
G1 X55.22 Y64.96 E9.3856
G1 X54.91 Y65.27 E9.4
G1 X54.7 Y64.92 E9.4136
G1 X54.39 Y65.22 E9.428
G1 X54.09 Y64.96 E9.4414
G1 X53.78 Y65.27 E9.4558
G1 X53.57 Y64.92 E9.4694
G1 X53.26 Y65.22 E9.4838
G1 X52.96 Y64.96 E9.4972
G1 X52.65 Y65.27 E9.5116
G1 X52.44 Y64.92 E9.5252
G1 X52.13 Y65.22 E9.5397
G1 X51.83 Y64.96 E9.553
G1 X51.52 Y65.27 E9.5674
G1 X51.3 Y64.92 E9.5811
G1 X51 Y65.22 E9.5955
G1 X50.7 Y64.96 E9.6088
G1 X50.39 Y65.27 E9.6232
G1 X50.17 Y64.92 E9.6369
G1 X49.87 Y65.22 E9.6513
G1 X49.56 Y64.96 E9.6646
G1 X49.26 Y65.27 E9.679
G1 X49.04 Y64.92 E9.6927
G1 X48.73 Y65.22 E9.7071
G1 X48.43 Y64.96 E9.7204
G1 X48.13 Y65.27 E9.7348
G1 X47.91 Y64.92 E9.7485
G1 X47.6 Y65.22 E9.7629
G1 X47.3 Y64.96 E9.7762
G1 X47 Y65.27 E9.7906
G1 X46.78 Y64.92 E9.8043
G1 X46.47 Y65.22 E9.8187
G1 X46.17 Y64.96 E9.832
G1 X45.86 Y65.27 E9.8464
G1 X45.65 Y64.92 E9.8601
G1 X45.34 Y65.22 E9.8745
G1 X45.04 Y64.96 E9.8878
G1 X44.73 Y65.27 E9.9022
G1 X44.52 Y64.92 E9.9159
G1 X44.21 Y65.22 E9.9303
G1 X43.91 Y64.96 E9.9436
G1 X43.6 Y65.27 E9.958
G1 X43.38 Y64.92 E9.9717
G1 X43.08 Y65.22 E9.9861
G1 X42.78 Y64.96 E9.9994
G1 X42.47 Y65.27 E10.0139
G1 X42.25 Y64.92 E10.0275
G1 X41.95 Y65.22 E10.0419
G1 X41.64 Y64.96 E10.0553
G1 X41.34 Y65.27 E10.0697
G1 X41.12 Y64.92 E10.0833
G1 X40.82 Y65.22 E10.0977
G1 X40.51 Y64.96 E10.1111
G1 X40.21 Y65.27 E10.1255
G1 X39.99 Y64.92 E10.1391
G1 X39.68 Y65.22 E10.1535
G1 X39.38 Y64.96 E10.1669
G1 X39.08 Y65.27 E10.1813
;
; 'Wipe', 0.0 [RPM], 34.1 [mm/s]
G1 F210
G1 X39.08 Y65.27 Z3.05 E10.1813
; END_LAYER_OBJECT z=2.60
; Reset extruder pos
G92 E0
; BEGIN_LAYER_OBJECT z=2.80
; *** Cooling...speed multiplier is 0.907934 ***
; fan on
M106
;
; 'Loop', 48.4 [RPM], 30.3 [mm/s]
G1 F9000
G1 X61.88 Y65.66 E0
G1 F210
G1 X61.88 Y65.66 Z2.8 E0
G1 F1820
G1 X61.78 Y65.75 E0.0044
G1 X38.22 Y65.75 E0.7883
G1 X38.12 Y65.66 E0.7928
G1 X38.12 Y54.16 E1.1753
G1 X38.08 Y53.82 E1.1867
G1 X37.93 Y53.59 E1.1958
G1 X37.7 Y53.44 E1.2049
G1 X37.35 Y53.38 E1.2169
G1 X28.15 Y53.38 E1.5229
G1 X28.12 Y53.2 E1.529
G1 X28.22 Y53.12 E1.5334
G1 X38.21 Y53.12 E1.8658
G1 X38.38 Y53.14 E1.8714
G1 X38.38 Y63.65 E2.2211
G1 X38.45 Y64 E2.233
G1 X38.6 Y64.23 E2.2421
G1 X38.83 Y64.38 E2.2512
G1 X39.14 Y64.42 E2.2616
G1 X60.86 Y64.42 E2.9838
G1 X61.17 Y64.38 E2.9942
G1 X61.4 Y64.23 E3.0033
G1 X61.55 Y64 E3.0124
G1 X61.62 Y63.65 E3.0243
G1 X61.62 Y53.14 E3.374
G1 X61.79 Y53.12 E3.3796
G1 X71.78 Y53.12 E3.712
G1 X71.88 Y53.2 E3.7164
G1 X71.85 Y53.38 E3.7225
G1 X62.65 Y53.38 E4.0285
G1 X62.3 Y53.44 E4.0405
G1 X62.07 Y53.59 E4.0496
G1 X61.92 Y53.82 E4.0587
G1 X61.88 Y54.15 E4.0699
G1 X61.88 Y65.66 E4.4526
;
; 'Perimeter', 25.4 [RPM], 15.9 [mm/s]
G1 F8171.4
G1 X62.1 Y65.88 E4.4526
G1 F953.3
G1 X62.29 Y66.06 E4.4612
G1 X62.19 Y66.15 E4.4656
G1 X37.81 Y66.15 E5.2763
G1 X37.71 Y66.06 E5.2808
G1 X37.71 Y54.18 E5.6759
G1 X37.66 Y53.88 E5.6861
G1 X37.52 Y53.81 E5.6912
G1 X37.36 Y53.78 E5.6967
G1 X27.74 Y53.78 E6.0165
G1 X27.71 Y53.62 E6.0219
G1 X27.71 Y52.8 E6.0494
G1 X27.82 Y52.71 E6.0538
G1 X38.62 Y52.71 E6.413
G1 X38.78 Y52.74 E6.4186
G1 X38.78 Y63.68 E6.7823
G1 X38.88 Y63.95 E6.7921
G1 X39.12 Y64.01 E6.8002
G1 X60.88 Y64.01 E7.5241
G1 X60.99 Y64.01 E7.5276
G1 X61.12 Y63.95 E7.5323
G1 X61.22 Y63.68 E7.5421
G1 X61.22 Y52.74 E7.9059
G1 X61.38 Y52.71 E7.9114
G1 X72.18 Y52.71 E8.2706
G1 X72.29 Y52.8 E8.2751
G1 X72.29 Y53.62 E8.3025
G1 X72.26 Y53.78 E8.3079
G1 X62.64 Y53.78 E8.6278
G1 X62.48 Y53.81 E8.6332
G1 X62.35 Y53.87 E8.638
G1 X62.29 Y54.13 E8.6467
G1 X62.29 Y66.06 E9.0438
G1 X62.03 Y66.05 E9.0523
; fan off
M107
;
; 'Solid', 58.0 [RPM], 36.3 [mm/s]
G1 F8171.4
G1 X61.17 Y64.94 E9.0523
G1 F2179
G1 X60.98 Y64.76 E9.061
G1 X60.91 Y65.26 E9.0777
G1 X61.06 Y65.41 E9.0848
G1 X60.54 Y65.45 E9.1023
G1 X59.85 Y64.76 E9.1347
G1 X59.78 Y65.26 E9.1513
G1 X59.93 Y65.41 E9.1584
G1 X59.41 Y65.45 E9.1759
G1 X58.72 Y64.76 E9.2082
G1 X58.65 Y65.26 E9.2249
G1 X58.8 Y65.41 E9.232
G1 X58.28 Y65.45 E9.2494
G1 X57.59 Y64.76 E9.2818
G1 X57.52 Y65.26 E9.2984
G1 X57.67 Y65.41 E9.3056
G1 X57.15 Y65.45 E9.323
G1 X56.46 Y64.76 E9.3554
G1 X56.39 Y65.26 E9.372
G1 X56.54 Y65.41 E9.3792
G1 X56.01 Y65.45 E9.3966
G1 X55.33 Y64.76 E9.429
G1 X55.26 Y65.26 E9.4456
G1 X55.41 Y65.41 E9.4527
G1 X54.88 Y65.45 E9.4702
G1 X54.2 Y64.76 E9.5026
G1 X54.12 Y65.26 E9.5192
G1 X54.28 Y65.41 E9.5263
G1 X53.75 Y65.45 E9.5438
G1 X53.06 Y64.76 E9.5762
G1 X52.99 Y65.26 E9.5928
G1 X53.14 Y65.41 E9.5999
G1 X52.62 Y65.45 E9.6174
G1 X51.93 Y64.76 E9.6497
G1 X51.86 Y65.26 E9.6664
G1 X52.01 Y65.41 E9.6735
G1 X51.49 Y65.45 E9.6909
G1 X50.8 Y64.76 E9.7233
G1 X50.73 Y65.26 E9.7399
G1 X50.88 Y65.41 E9.7471
G1 X50.36 Y65.45 E9.7645
G1 X49.67 Y64.76 E9.7969
G1 X49.6 Y65.26 E9.8135
G1 X49.75 Y65.41 E9.8206
G1 X49.23 Y65.45 E9.8381
G1 X48.54 Y64.76 E9.8705
G1 X48.47 Y65.26 E9.8871
G1 X48.62 Y65.41 E9.8942
G1 X48.1 Y65.45 E9.9117
G1 X47.41 Y64.76 E9.9441
G1 X47.34 Y65.26 E9.9607
G1 X47.49 Y65.41 E9.9678
G1 X46.96 Y65.45 E9.9853
G1 X46.28 Y64.76 E10.0176
G1 X46.2 Y65.26 E10.0343
G1 X46.36 Y65.41 E10.0414
G1 X45.83 Y65.45 E10.0589
G1 X45.14 Y64.76 E10.0912
G1 X45.07 Y65.26 E10.1078
G1 X45.22 Y65.41 E10.115
G1 X44.7 Y65.45 E10.1324
G1 X44.01 Y64.76 E10.1648
G1 X43.94 Y65.26 E10.1814
G1 X44.09 Y65.41 E10.1886
G1 X43.57 Y65.45 E10.206
G1 X42.88 Y64.76 E10.2384
G1 X42.81 Y65.26 E10.255
G1 X42.96 Y65.41 E10.2621
G1 X42.44 Y65.45 E10.2796
G1 X41.75 Y64.76 E10.312
G1 X41.68 Y65.26 E10.3286
G1 X41.83 Y65.41 E10.3357
G1 X41.31 Y65.45 E10.3532
G1 X40.62 Y64.76 E10.3856
G1 X40.55 Y65.26 E10.4022
G1 X40.7 Y65.41 E10.4093
G1 X40.18 Y65.45 E10.4268
G1 X39.49 Y64.76 E10.4591
G1 X39.42 Y65.26 E10.4758
G1 X39.57 Y65.41 E10.4829
G1 X39.04 Y65.45 E10.5003
G1 X38.89 Y65.3 E10.5075
G1 X39.06 Y64.9 E10.5218
G1 X38.84 Y64.68 E10.5323
G1 X40.01 Y64.72 E10.5713
G1 X40.19 Y64.9 E10.5797
G1 X41.14 Y64.72 E10.6119
G1 X41.32 Y64.9 E10.6203
G1 X42.27 Y64.72 E10.6526
G1 X42.45 Y64.9 E10.661
G1 X43.4 Y64.72 E10.6932
G1 X43.58 Y64.9 E10.7016
G1 X44.54 Y64.72 E10.7339
G1 X44.72 Y64.9 E10.7423
G1 X45.67 Y64.72 E10.7745
G1 X45.85 Y64.9 E10.7829
G1 X46.8 Y64.72 E10.8152
G1 X46.98 Y64.9 E10.8236
G1 X47.93 Y64.72 E10.8558
G1 X48.11 Y64.9 E10.8642
G1 X49.06 Y64.72 E10.8965
G1 X49.24 Y64.9 E10.9049
G1 X50.19 Y64.72 E10.9371
G1 X50.37 Y64.9 E10.9455
G1 X51.32 Y64.72 E10.9778
G1 X51.5 Y64.9 E10.9862
G1 X52.46 Y64.72 E11.0184
G1 X52.63 Y64.9 E11.0268
G1 X53.59 Y64.72 E11.0591
G1 X53.77 Y64.9 E11.0675
G1 X54.72 Y64.72 E11.0997
G1 X54.9 Y64.9 E11.1081
G1 X55.85 Y64.72 E11.1404
G1 X56.03 Y64.9 E11.1488
G1 X56.98 Y64.72 E11.181
G1 X57.16 Y64.9 E11.1894
G1 X58.11 Y64.72 E11.2217
G1 X58.29 Y64.9 E11.2301
G1 X59.24 Y64.72 E11.2623
G1 X59.42 Y64.9 E11.2707
G1 X60.38 Y64.72 E11.303
G1 X60.55 Y64.9 E11.3114
;
; 'Wipe', 0.0 [RPM], 36.3 [mm/s]
G1 F210
G1 X60.55 Y64.9 Z3.25 E11.3114
; END_LAYER_OBJECT z=2.80
; Reset extruder pos
G92 E0
; BEGIN_LAYER_OBJECT z=3.00
; *** Cooling...speed multiplier is 0.847979 ***
; fan on
M106
;
; 'Loop', 45.2 [RPM], 28.3 [mm/s]
G1 F9000
G1 X61.88 Y65.47 E0
G1 F210
G1 X61.88 Y65.47 Z3 E0
G1 F1699.9
G1 X61.77 Y65.55 E0.0045
G1 X38.23 Y65.55 E0.7876
G1 X38.12 Y65.47 E0.7921
G1 X38.12 Y54.16 E1.1684
G1 X38.08 Y53.82 E1.1797
G1 X37.93 Y53.59 E1.1888
G1 X37.7 Y53.44 E1.1979
G1 X37.35 Y53.38 E1.2099
G1 X28.15 Y53.38 E1.516
G1 X28.12 Y53.2 E1.522
G1 X28.22 Y53.12 E1.5265
G1 X38.21 Y53.12 E1.8588
G1 X38.38 Y53.14 E1.8644
G1 X38.38 Y63.47 E2.2079
G1 X38.46 Y63.8 E2.2195
G1 X38.61 Y64.04 E2.2286
G1 X38.84 Y64.18 E2.2377
G1 X39.13 Y64.22 E2.2474
G1 X60.82 Y64.22 E2.9686
G1 X61.16 Y64.18 E2.9801
G1 X61.39 Y64.04 E2.9892
G1 X61.54 Y63.8 E2.9983
G1 X61.62 Y63.47 E3.0099
G1 X61.62 Y53.14 E3.3533
G1 X61.79 Y53.12 E3.3589
G1 X71.78 Y53.12 E3.6913
G1 X71.88 Y53.2 E3.6958
G1 X71.85 Y53.38 E3.7018
G1 X62.65 Y53.38 E4.0078
G1 X62.3 Y53.44 E4.0198
G1 X62.07 Y53.59 E4.0289
G1 X61.92 Y53.82 E4.038
G1 X61.88 Y54.15 E4.0492
G1 X61.88 Y65.47 E4.4257
;
; 'Perimeter', 23.7 [RPM], 14.8 [mm/s]
G1 F7631.8
G1 X62.11 Y65.68 E4.4257
G1 F890.4
G1 X62.29 Y65.87 E4.4344
G1 X62.17 Y65.95 E4.4389
G1 X37.83 Y65.95 E5.2488
G1 X37.71 Y65.87 E5.2533
G1 X37.71 Y54.18 E5.6421
G1 X37.66 Y53.88 E5.6524
G1 X37.52 Y53.81 E5.6575
G1 X37.36 Y53.78 E5.6629
G1 X27.74 Y53.78 E5.9828
G1 X27.71 Y53.62 E5.9881
G1 X27.71 Y52.8 E6.0156
G1 X27.82 Y52.71 E6.0201
G1 X38.62 Y52.71 E6.3793
G1 X38.78 Y52.74 E6.3848
G1 X38.78 Y63.49 E6.7423
G1 X38.89 Y63.75 E6.7519
G1 X39.11 Y63.81 E6.7593
G1 X60.79 Y63.81 E7.4805
G1 X61.11 Y63.75 E7.4912
G1 X61.22 Y63.49 E7.5009
G1 X61.22 Y52.74 E7.8583
G1 X61.38 Y52.71 E7.8639
G1 X72.18 Y52.71 E8.2231
G1 X72.29 Y52.8 E8.2275
G1 X72.29 Y53.62 E8.255
G1 X72.26 Y53.78 E8.2604
G1 X62.64 Y53.78 E8.5802
G1 X62.48 Y53.81 E8.5857
G1 X62.35 Y53.87 E8.5904
G1 X62.29 Y54.13 E8.5992
G1 X62.29 Y65.87 E8.99
G1 X62.03 Y65.84 E8.9987
; fan off
M107
;
; 'Wipe', 0.0 [RPM], 33.9 [mm/s]
;
; 'Solid', 54.2 [RPM], 33.9 [mm/s]
G1 F7631.8
G1 X61.2 Y65.21 E8.9987
G1 F2035.1
G1 X61.48 Y64.92 E9.0121
G1 X61.19 Y64.64 E9.0254
G1 X61.51 Y64.33 E9.04
G1 X60.59 Y65.25 E9.0831
G1 X60.35 Y64.92 E9.0966
G1 X60.07 Y65.21 E9.11
G1 X59.74 Y64.96 E9.1234
G1 X59.46 Y65.25 E9.1369
G1 X59.22 Y64.92 E9.1504
G1 X58.94 Y65.21 E9.1638
G1 X58.61 Y64.96 E9.1773
G1 X58.33 Y65.25 E9.1907
G1 X58.09 Y64.92 E9.2042
G1 X57.8 Y65.21 E9.2177
G1 X57.48 Y64.96 E9.2311
G1 X57.2 Y65.25 E9.2445
G1 X56.96 Y64.92 E9.258
G1 X56.67 Y65.21 E9.2715
G1 X56.35 Y64.96 E9.2849
G1 X56.06 Y65.25 E9.2984
G1 X55.83 Y64.92 E9.3118
G1 X55.54 Y65.21 E9.3253
G1 X55.22 Y64.96 E9.3387
G1 X54.93 Y65.25 E9.3522
G1 X54.7 Y64.92 E9.3657
G1 X54.41 Y65.21 E9.3791
G1 X54.09 Y64.96 E9.3926
G1 X53.8 Y65.25 E9.406
G1 X53.56 Y64.92 E9.4195
G1 X53.28 Y65.21 E9.433
G1 X52.96 Y64.96 E9.4464
G1 X52.67 Y65.25 E9.4598
G1 X52.43 Y64.92 E9.4733
G1 X52.15 Y65.21 E9.4868
G1 X51.83 Y64.96 E9.5002
G1 X51.54 Y65.25 E9.5137
G1 X51.3 Y64.92 E9.5271
G1 X51.02 Y65.21 E9.5406
G1 X50.69 Y64.96 E9.554
G1 X50.41 Y65.25 E9.5675
G1 X50.17 Y64.92 E9.581
G1 X49.88 Y65.21 E9.5944
G1 X49.56 Y64.96 E9.6079
G1 X49.28 Y65.25 E9.6213
G1 X49.04 Y64.92 E9.6348
G1 X48.75 Y65.21 E9.6482
G1 X48.43 Y64.96 E9.6617
G1 X48.15 Y65.25 E9.6751
G1 X47.91 Y64.92 E9.6886
G1 X47.62 Y65.21 E9.7021
G1 X47.3 Y64.96 E9.7155
G1 X47.01 Y65.25 E9.729
G1 X46.78 Y64.92 E9.7424
G1 X46.49 Y65.21 E9.7559
G1 X46.17 Y64.96 E9.7693
G1 X45.88 Y65.25 E9.7828
G1 X45.65 Y64.92 E9.7963
G1 X45.36 Y65.21 E9.8097
G1 X45.04 Y64.96 E9.8231
G1 X44.75 Y65.25 E9.8366
G1 X44.51 Y64.92 E9.8501
G1 X44.23 Y65.21 E9.8635
G1 X43.91 Y64.96 E9.877
G1 X43.62 Y65.25 E9.8904
G1 X43.38 Y64.92 E9.9039
G1 X43.1 Y65.21 E9.9174
G1 X42.77 Y64.96 E9.9308
G1 X42.49 Y65.25 E9.9443
G1 X42.25 Y64.92 E9.9577
G1 X41.96 Y65.21 E9.9712
G1 X41.64 Y64.96 E9.9846
G1 X41.36 Y65.25 E9.9981
G1 X41.12 Y64.92 E10.0116
G1 X40.83 Y65.21 E10.025
G1 X40.51 Y64.96 E10.0384
G1 X40.23 Y65.25 E10.0519
G1 X39.99 Y64.92 E10.0654
G1 X39.7 Y65.21 E10.0788
G1 X39.38 Y64.96 E10.0923
G1 X39.09 Y65.25 E10.1057
G1 X38.86 Y64.92 E10.1192
G1 X38.57 Y65.21 E10.1327
G1 X38.57 Y64.64 E10.1514
G1 X38.71 Y64.51 E10.1579
;
; 'Wipe', 0.0 [RPM], 33.9 [mm/s]
G1 F210
G1 X38.71 Y64.51 Z3.45 E10.1579
; END_LAYER_OBJECT z=3.00
; Reset extruder pos
G92 E0
; BEGIN_LAYER_OBJECT z=3.20
; *** Cooling...speed multiplier is 0.844394 ***
; fan on
M106
;
; 'Loop', 45.0 [RPM], 28.2 [mm/s]
G1 F9000
G1 X61.88 Y65.28 E0
G1 F210
G1 X61.88 Y65.28 Z3.2 E0
G1 F1692.7
G1 X61.76 Y65.35 E0.0046
G1 X38.24 Y65.35 E0.7869
G1 X38.12 Y65.28 E0.7915
G1 X38.12 Y54.16 E1.1616
G1 X38.08 Y53.82 E1.1729
G1 X37.93 Y53.59 E1.182
G1 X37.7 Y53.44 E1.1911
G1 X37.35 Y53.38 E1.2031
G1 X28.15 Y53.38 E1.5092
G1 X28.12 Y53.2 E1.5152
G1 X28.22 Y53.12 E1.5197
G1 X38.21 Y53.12 E1.852
G1 X38.38 Y53.14 E1.8576
G1 X38.38 Y63.28 E2.1948
G1 X38.42 Y63.48 E2.2015
G1 X38.62 Y63.84 E2.2153
G1 X38.85 Y63.98 E2.2244
G1 X39.12 Y64.02 E2.2334
G1 X60.8 Y64.02 E2.9547
G1 X61.15 Y63.98 E2.9662
G1 X61.38 Y63.84 E2.9753
G1 X61.53 Y63.61 E2.9844
G1 X61.62 Y63.28 E2.9957
G1 X61.62 Y53.14 E3.3329
G1 X61.79 Y53.12 E3.3385
G1 X71.78 Y53.12 E3.6709
G1 X71.88 Y53.2 E3.6753
G1 X71.85 Y53.38 E3.6814
G1 X62.65 Y53.38 E3.9874
G1 X62.3 Y53.44 E3.9994
G1 X62.07 Y53.59 E4.0085
G1 X61.92 Y53.82 E4.0176
G1 X61.88 Y54.15 E4.0288
G1 X61.88 Y65.28 E4.399
;
; 'Perimeter', 23.6 [RPM], 14.8 [mm/s]
G1 F7599.5
G1 X62.12 Y65.48 E4.399
G1 F886.6
G1 X62.29 Y65.69 E4.4079
G1 X62.16 Y65.75 E4.4125
G1 X37.84 Y65.75 E5.2215
G1 X37.71 Y65.69 E5.2261
G1 X37.71 Y54.18 E5.6087
G1 X37.66 Y53.88 E5.6189
G1 X37.52 Y53.81 E5.624
G1 X37.36 Y53.78 E5.6295
G1 X27.74 Y53.78 E5.9493
G1 X27.71 Y53.62 E5.9547
G1 X27.71 Y52.8 E5.9822
G1 X27.82 Y52.71 E5.9866
G1 X38.62 Y52.71 E6.3458
G1 X38.78 Y52.74 E6.3514
G1 X38.78 Y63.3 E6.7026
G1 X38.9 Y63.56 E6.712
G1 X39.1 Y63.62 E6.7188
G1 X60.9 Y63.61 E7.4441
G1 X61.1 Y63.56 E7.4508
G1 X61.22 Y63.3 E7.4603
G1 X61.22 Y52.74 E7.8115
G1 X61.38 Y52.71 E7.817
G1 X72.18 Y52.71 E8.1762
G1 X72.29 Y52.8 E8.1807
G1 X72.29 Y53.62 E8.2081
G1 X72.26 Y53.78 E8.2135
G1 X62.64 Y53.78 E8.5333
G1 X62.48 Y53.81 E8.5388
G1 X62.35 Y53.87 E8.5435
G1 X62.29 Y54.13 E8.5523
G1 X62.29 Y65.69 E8.9368
G1 X62.03 Y65.63 E8.9457
; fan off
M107
;
; 'Solid', 53.9 [RPM], 33.8 [mm/s]
G1 F7599.5
G1 X60.94 Y64.71 E8.9457
G1 F2026.5
G1 X60.58 Y64.36 E8.9623
G1 X60.33 Y64.67 E8.9757
G1 X59.97 Y64.32 E8.9924
G1 X59.8 Y64.71 E9.0067
G1 X59.45 Y64.36 E9.0234
G1 X59.2 Y64.67 E9.0367
G1 X58.84 Y64.32 E9.0534
G1 X58.67 Y64.71 E9.0677
G1 X58.32 Y64.36 E9.0844
G1 X58.06 Y64.67 E9.0978
G1 X57.71 Y64.32 E9.1144
G1 X57.54 Y64.71 E9.1288
G1 X57.19 Y64.36 E9.1454
G1 X56.93 Y64.67 E9.1588
G1 X56.58 Y64.32 E9.1755
G1 X56.41 Y64.71 E9.1898
G1 X56.06 Y64.36 E9.2065
G1 X55.8 Y64.67 E9.2199
G1 X55.45 Y64.32 E9.2365
G1 X55.28 Y64.71 E9.2509
G1 X54.92 Y64.36 E9.2675
G1 X54.67 Y64.67 E9.2809
G1 X54.32 Y64.32 E9.2975
G1 X54.15 Y64.71 E9.3119
G1 X53.79 Y64.36 E9.3286
G1 X53.54 Y64.67 E9.3419
G1 X53.19 Y64.32 E9.3586
G1 X53.02 Y64.71 E9.3729
G1 X52.66 Y64.36 E9.3896
G1 X52.41 Y64.67 E9.403
G1 X52.05 Y64.32 E9.4196
G1 X51.88 Y64.71 E9.434
G1 X51.53 Y64.36 E9.4506
G1 X51.28 Y64.67 E9.464
G1 X50.92 Y64.32 E9.4807
G1 X50.75 Y64.71 E9.495
G1 X50.4 Y64.36 E9.5117
G1 X50.15 Y64.67 E9.525
G1 X49.79 Y64.32 E9.5417
G1 X49.62 Y64.71 E9.556
G1 X49.27 Y64.36 E9.5727
G1 X49.01 Y64.67 E9.5861
G1 X48.66 Y64.32 E9.6027
G1 X48.49 Y64.71 E9.6171
G1 X48.14 Y64.36 E9.6337
G1 X47.88 Y64.67 E9.6471
G1 X47.53 Y64.32 E9.6638
G1 X47.36 Y64.71 E9.6781
G1 X47.01 Y64.36 E9.6948
G1 X46.75 Y64.67 E9.7081
G1 X46.4 Y64.32 E9.7248
G1 X46.23 Y64.71 E9.7391
G1 X45.87 Y64.36 E9.7558
G1 X45.62 Y64.67 E9.7692
G1 X45.27 Y64.32 E9.7858
G1 X45.1 Y64.71 E9.8002
G1 X44.74 Y64.36 E9.8168
G1 X44.49 Y64.67 E9.8302
G1 X44.13 Y64.32 E9.8469
G1 X43.97 Y64.71 E9.8612
G1 X43.61 Y64.36 E9.8779
G1 X43.36 Y64.67 E9.8912
G1 X43 Y64.32 E9.9079
G1 X42.83 Y64.71 E9.9222
G1 X42.48 Y64.36 E9.9389
G1 X42.23 Y64.67 E9.9523
G1 X41.87 Y64.32 E9.9689
G1 X41.7 Y64.71 E9.9833
G1 X41.35 Y64.36 E9.9999
G1 X41.09 Y64.67 E10.0133
G1 X40.74 Y64.32 E10.03
G1 X40.57 Y64.71 E10.0443
G1 X40.22 Y64.36 E10.061
G1 X39.96 Y64.67 E10.0743
G1 X39.61 Y64.32 E10.091
G1 X39.44 Y64.71 E10.1053
G1 X39.09 Y64.36 E10.122
;
; 'Wipe', 0.0 [RPM], 33.8 [mm/s]
G1 F210
G1 X39.09 Y64.36 Z3.65 E10.122
; END_LAYER_OBJECT z=3.20
; Reset extruder pos
G92 E0
; BEGIN_LAYER_OBJECT z=3.40
; *** Cooling...speed multiplier is 0.816835 ***
; fan on
M106
;
; 'Loop', 43.6 [RPM], 27.3 [mm/s]
G1 F9000
G1 X61.88 Y65.09 E0
G1 F210
G1 X61.88 Y65.09 Z3.4 E0
G1 F1637.4
G1 X61.75 Y65.15 E0.0048
G1 X38.25 Y65.15 E0.7864
G1 X38.12 Y65.09 E0.7912
G1 X38.12 Y54.16 E1.1549
G1 X38.08 Y53.82 E1.1663
G1 X37.93 Y53.59 E1.1754
G1 X37.7 Y53.44 E1.1845
G1 X37.35 Y53.38 E1.1965
G1 X28.15 Y53.38 E1.5025
G1 X28.12 Y53.2 E1.5085
G1 X28.22 Y53.12 E1.513
G1 X38.21 Y53.12 E1.8454
G1 X38.38 Y53.14 E1.851
G1 X38.38 Y63.09 E2.1819
G1 X38.42 Y63.29 E2.1886
G1 X38.63 Y63.64 E2.2023
G1 X38.86 Y63.78 E2.2114
G1 X39.11 Y63.82 E2.2197
G1 X60.89 Y63.82 E2.9441
G1 X61.14 Y63.78 E2.9524
G1 X61.37 Y63.64 E2.9615
G1 X61.58 Y63.29 E2.9752
G1 X61.62 Y63.09 E2.9819
G1 X61.62 Y53.14 E3.3128
G1 X61.79 Y53.12 E3.3184
G1 X71.78 Y53.12 E3.6508
G1 X71.88 Y53.2 E3.6552
G1 X71.85 Y53.38 E3.6613
G1 X62.65 Y53.38 E3.9673
G1 X62.3 Y53.44 E3.9793
G1 X62.07 Y53.59 E3.9884
G1 X61.92 Y53.82 E3.9975
G1 X61.88 Y54.15 E4.0087
G1 X61.88 Y65.09 E4.3726
;
; 'Perimeter', 22.8 [RPM], 14.3 [mm/s]
G1 F7351.5
G1 X62.12 Y65.28 E4.3726
G1 F857.7
G1 X62.29 Y65.5 E4.3816
G1 X62.15 Y65.55 E4.3865
G1 X37.85 Y65.55 E5.1946
G1 X37.71 Y65.5 E5.1995
G1 X37.71 Y54.18 E5.5758
G1 X37.66 Y53.88 E5.586
G1 X37.52 Y53.81 E5.5912
G1 X37.36 Y53.78 E5.5966
G1 X27.74 Y53.78 E5.9164
G1 X27.71 Y53.62 E5.9218
G1 X27.71 Y52.8 E5.9493
G1 X27.82 Y52.71 E5.9537
G1 X38.62 Y52.71 E6.3129
G1 X38.78 Y52.74 E6.3185
G1 X38.78 Y63.11 E6.6634
G1 X38.91 Y63.36 E6.6727
G1 X39.09 Y63.42 E6.6788
G1 X60.91 Y63.42 E7.4048
G1 X61.09 Y63.36 E7.4109
G1 X61.22 Y63.11 E7.4201
G1 X61.22 Y52.74 E7.7651
G1 X61.38 Y52.71 E7.7706
G1 X72.18 Y52.71 E8.1298
G1 X72.29 Y52.8 E8.1343
G1 X72.29 Y53.62 E8.1617
G1 X72.26 Y53.78 E8.1671
G1 X62.64 Y53.78 E8.487
G1 X62.48 Y53.81 E8.4924
G1 X62.35 Y53.87 E8.4971
G1 X62.29 Y54.13 E8.5059
G1 X62.29 Y65.5 E8.8842
G1 X62.03 Y65.42 E8.8931
; fan off
M107
;
; 'Solid', 52.2 [RPM], 32.7 [mm/s]
G1 F7351.5
G1 X59.42 Y64.16 E8.8931
G1 F1960.4
G1 X59.18 Y64.4 E8.9043
G1 X58.89 Y64.12 E8.9176
G1 X58.66 Y64.36 E8.9288
;
; 'Solid', 52.2 [RPM], 32.7 [mm/s]
G1 F7351.5
G1 X58.28 Y64.16 E8.9288
G1 F1960.4
G1 X58.05 Y64.4 E8.9399
G1 X57.76 Y64.12 E8.9532
G1 X57.52 Y64.36 E8.9644
;
; 'Solid', 52.2 [RPM], 32.7 [mm/s]
G1 F7351.5
G1 X57.15 Y64.16 E8.9644
G1 F1960.4
G1 X56.92 Y64.4 E8.9756
G1 X56.63 Y64.12 E8.9889
G1 X56.39 Y64.36 E9.0001
;
; 'Solid', 52.2 [RPM], 32.7 [mm/s]
G1 F7351.5
G1 X56.02 Y64.16 E9.0001
G1 F1960.4
G1 X55.78 Y64.4 E9.0112
G1 X55.5 Y64.12 E9.0245
G1 X55.26 Y64.36 E9.0357
;
; 'Solid', 52.2 [RPM], 32.7 [mm/s]
G1 F7351.5
G1 X54.89 Y64.16 E9.0357
G1 F1960.4
G1 X54.65 Y64.4 E9.0469
G1 X54.37 Y64.12 E9.0602
G1 X54.13 Y64.36 E9.0713
;
; 'Solid', 52.2 [RPM], 32.7 [mm/s]
G1 F7351.5
G1 X53.76 Y64.16 E9.0713
G1 F1960.4
G1 X53.52 Y64.4 E9.0825
G1 X53.24 Y64.12 E9.0958
G1 X53 Y64.36 E9.107
;
; 'Solid', 52.2 [RPM], 32.7 [mm/s]
G1 F7351.5
G1 X52.63 Y64.16 E9.107
G1 F1960.4
G1 X52.39 Y64.4 E9.1181
G1 X52.1 Y64.12 E9.1315
G1 X51.87 Y64.36 E9.1426
;
; 'Solid', 52.2 [RPM], 32.7 [mm/s]
G1 F7351.5
G1 X51.5 Y64.16 E9.1426
G1 F1960.4
G1 X51.26 Y64.4 E9.1538
G1 X50.97 Y64.12 E9.1671
G1 X50.74 Y64.36 E9.1783
;
; 'Solid', 52.2 [RPM], 32.7 [mm/s]
G1 F7351.5
G1 X50.37 Y64.16 E9.1783
G1 F1960.4
G1 X50.13 Y64.4 E9.1894
G1 X49.84 Y64.12 E9.2027
G1 X49.6 Y64.36 E9.2139
;
; 'Solid', 52.2 [RPM], 32.7 [mm/s]
G1 F7351.5
G1 X49.23 Y64.16 E9.2139
G1 F1960.4
G1 X49 Y64.4 E9.2251
G1 X48.71 Y64.12 E9.2384
G1 X48.47 Y64.36 E9.2495
;
; 'Solid', 52.2 [RPM], 32.7 [mm/s]
G1 F7351.5
G1 X48.1 Y64.16 E9.2495
G1 F1960.4
G1 X47.86 Y64.4 E9.2607
G1 X47.58 Y64.12 E9.274
G1 X47.34 Y64.36 E9.2852
;
; 'Solid', 52.2 [RPM], 32.7 [mm/s]
G1 F7351.5
G1 X46.97 Y64.16 E9.2852
G1 F1960.4
G1 X46.73 Y64.4 E9.2964
G1 X46.45 Y64.12 E9.3097
G1 X46.21 Y64.36 E9.3208
;
; 'Solid', 52.2 [RPM], 32.7 [mm/s]
G1 F7351.5
G1 X45.84 Y64.16 E9.3208
G1 F1960.4
G1 X45.6 Y64.4 E9.332
G1 X45.32 Y64.12 E9.3453
G1 X45.08 Y64.36 E9.3565
;
; 'Solid', 52.2 [RPM], 32.7 [mm/s]
G1 F7351.5
G1 X44.71 Y64.16 E9.3565
G1 F1960.4
G1 X44.47 Y64.4 E9.3676
G1 X44.19 Y64.12 E9.3809
G1 X43.95 Y64.36 E9.3921
;
; 'Solid', 52.2 [RPM], 32.7 [mm/s]
G1 F7351.5
G1 X43.58 Y64.16 E9.3921
G1 F1960.4
G1 X43.34 Y64.4 E9.4033
G1 X43.05 Y64.12 E9.4166
G1 X42.82 Y64.36 E9.4278
;
; 'Solid', 52.2 [RPM], 32.7 [mm/s]
G1 F7351.5
G1 X42.45 Y64.16 E9.4278
G1 F1960.4
G1 X42.21 Y64.4 E9.4389
G1 X41.92 Y64.12 E9.4522
G1 X41.68 Y64.36 E9.4634
;
; 'Solid', 52.2 [RPM], 32.7 [mm/s]
G1 F7351.5
G1 X41.31 Y64.16 E9.4634
G1 F1960.4
G1 X41.08 Y64.4 E9.4746
G1 X40.79 Y64.12 E9.4879
G1 X40.55 Y64.36 E9.499
;
; 'Solid', 52.2 [RPM], 32.7 [mm/s]
G1 F7351.5
G1 X40.18 Y64.16 E9.499
G1 F1960.4
G1 X39.95 Y64.4 E9.5102
G1 X39.66 Y64.12 E9.5235
G1 X39.42 Y64.36 E9.5347
;
; 'Wipe', 0.0 [RPM], 32.7 [mm/s]
G1 F210
G1 X39.42 Y64.36 Z3.85 E9.5347
; END_LAYER_OBJECT z=3.40
; Reset extruder pos
G92 E0
; BEGIN_LAYER_OBJECT z=3.60
; *** Cooling...speed multiplier is 0.869816 ***
; fan on
M106
;
; 'Loop', 46.4 [RPM], 29.1 [mm/s]
G1 F9000
G1 X61.88 Y64.91 E0
G1 F210
G1 X61.88 Y64.91 Z3.6 E0
G1 F1743.6
G1 X61.74 Y64.95 E0.005
G1 X38.26 Y64.95 E0.7859
G1 X38.12 Y64.91 E0.7909
G1 X38.12 Y54.16 E1.1484
G1 X38.08 Y53.82 E1.1597
G1 X37.93 Y53.59 E1.1688
G1 X37.7 Y53.44 E1.1779
G1 X37.35 Y53.38 E1.1899
G1 X28.15 Y53.38 E1.496
G1 X28.12 Y53.2 E1.502
G1 X28.22 Y53.12 E1.5065
G1 X38.21 Y53.12 E1.8388
G1 X38.38 Y53.14 E1.8444
G1 X38.38 Y62.9 E2.1691
G1 X38.44 Y63.15 E2.1774
G1 X38.64 Y63.44 E2.1893
G1 X38.87 Y63.58 E2.1984
G1 X39.1 Y63.62 E2.206
G1 X60.9 Y63.62 E2.9311
G1 X61.13 Y63.58 E2.9387
G1 X61.36 Y63.44 E2.9478
G1 X61.56 Y63.15 E2.9597
G1 X61.62 Y62.9 E2.9681
G1 X61.62 Y53.14 E3.2927
G1 X61.79 Y53.12 E3.2983
G1 X71.78 Y53.12 E3.6307
G1 X71.88 Y53.2 E3.6351
G1 X71.85 Y53.38 E3.6412
G1 X62.65 Y53.38 E3.9472
G1 X62.3 Y53.44 E3.9592
G1 X62.07 Y53.59 E3.9683
G1 X61.92 Y53.82 E3.9774
G1 X61.88 Y54.15 E3.9886
G1 X61.88 Y64.91 E4.3463
;
; 'Perimeter', 24.3 [RPM], 15.2 [mm/s]
G1 F7828.3
G1 X62.13 Y65.09 E4.3463
G1 F913.3
G1 X62.29 Y65.31 E4.3553
G1 X62.14 Y65.35 E4.3604
G1 X37.86 Y65.35 E5.1679
G1 X37.71 Y65.31 E5.173
G1 X37.71 Y54.18 E5.543
G1 X37.66 Y53.88 E5.5532
G1 X37.52 Y53.81 E5.5584
G1 X37.36 Y53.78 E5.5638
G1 X27.74 Y53.78 E5.8837
G1 X27.71 Y53.62 E5.889
G1 X27.71 Y52.8 E5.9165
G1 X27.82 Y52.71 E5.9209
G1 X38.62 Y52.71 E6.2802
G1 X38.78 Y52.74 E6.2857
G1 X38.78 Y62.92 E6.6243
G1 X38.92 Y63.16 E6.6335
G1 X39.08 Y63.22 E6.6389
G1 X60.92 Y63.22 E7.3656
G1 X61.08 Y63.16 E7.371
G1 X61.22 Y62.92 E7.3802
G1 X61.22 Y52.74 E7.7188
G1 X61.38 Y52.71 E7.7244
G1 X72.18 Y52.71 E8.0836
G1 X72.29 Y52.8 E8.088
G1 X72.29 Y53.62 E8.1155
G1 X72.26 Y53.78 E8.1208
G1 X62.64 Y53.78 E8.4407
G1 X62.48 Y53.81 E8.4461
G1 X62.35 Y53.87 E8.4509
G1 X62.29 Y54.13 E8.4597
G1 X62.29 Y65.31 E8.8316
G1 X62.03 Y65.21 E8.8407
; fan off
M107
;
; 'Solid', 55.5 [RPM], 34.8 [mm/s]
G1 F7828.3
G1 X61.46 Y64.11 E8.8407
G1 F2087.6
G1 X61.26 Y63.91 E8.8502
G1 X61.16 Y64.37 E8.866
G1 X61.4 Y64.61 E8.8771
G1 X60.87 Y64.65 E8.8946
G1 X60.64 Y64.41 E8.9058
G1 X60.26 Y64.61 E8.9197
G1 X60.03 Y64.37 E8.9308
G1 X59.74 Y64.65 E8.9441
G1 X59.5 Y64.41 E8.9553
G1 X59.13 Y64.61 E8.9692
G1 X58.9 Y64.37 E8.9804
G1 X58.61 Y64.65 E8.9937
G1 X58.37 Y64.41 E9.0049
G1 X58 Y64.61 E9.0188
G1 X57.76 Y64.37 E9.03
G1 X57.48 Y64.65 E9.0433
G1 X57.24 Y64.41 E9.0544
G1 X56.87 Y64.61 E9.0683
G1 X56.63 Y64.37 E9.0795
G1 X56.35 Y64.65 E9.0928
G1 X56.11 Y64.41 E9.104
G1 X55.74 Y64.61 E9.1179
G1 X55.5 Y64.37 E9.1291
G1 X55.22 Y64.65 E9.1424
G1 X54.98 Y64.41 E9.1535
G1 X54.61 Y64.61 E9.1675
G1 X54.37 Y64.37 E9.1786
G1 X54.08 Y64.65 E9.1919
G1 X53.85 Y64.41 E9.2031
G1 X53.48 Y64.61 E9.217
G1 X53.24 Y64.37 E9.2282
G1 X52.95 Y64.65 E9.2415
G1 X52.72 Y64.41 E9.2526
G1 X52.34 Y64.61 E9.2666
G1 X52.11 Y64.37 E9.2777
G1 X51.82 Y64.65 E9.291
G1 X51.58 Y64.41 E9.3022
G1 X51.21 Y64.61 E9.3161
G1 X50.98 Y64.37 E9.3273
G1 X50.69 Y64.65 E9.3406
G1 X50.45 Y64.41 E9.3517
G1 X50.08 Y64.61 E9.3657
G1 X49.84 Y64.37 E9.3768
G1 X49.56 Y64.65 E9.3901
G1 X49.32 Y64.41 E9.4013
G1 X48.95 Y64.61 E9.4152
G1 X48.71 Y64.37 E9.4264
G1 X48.43 Y64.65 E9.4397
G1 X48.19 Y64.41 E9.4508
G1 X47.82 Y64.61 E9.4648
G1 X47.58 Y64.37 E9.4759
G1 X47.3 Y64.65 E9.4892
G1 X47.06 Y64.41 E9.5004
G1 X46.69 Y64.61 E9.5143
G1 X46.45 Y64.37 E9.5255
G1 X46.16 Y64.65 E9.5388
G1 X45.93 Y64.41 E9.55
G1 X45.56 Y64.61 E9.5639
G1 X45.32 Y64.37 E9.575
G1 X45.03 Y64.65 E9.5884
G1 X44.8 Y64.41 E9.5995
G1 X44.43 Y64.61 E9.6134
G1 X44.19 Y64.37 E9.6246
G1 X43.9 Y64.65 E9.6379
G1 X43.66 Y64.41 E9.6491
G1 X43.29 Y64.61 E9.663
G1 X43.06 Y64.37 E9.6742
G1 X42.77 Y64.65 E9.6875
G1 X42.53 Y64.41 E9.6986
G1 X42.16 Y64.61 E9.7126
G1 X41.93 Y64.37 E9.7237
G1 X41.64 Y64.65 E9.737
G1 X41.4 Y64.41 E9.7482
G1 X41.03 Y64.61 E9.7621
G1 X40.79 Y64.37 E9.7733
G1 X40.51 Y64.65 E9.7866
G1 X40.27 Y64.41 E9.7977
G1 X39.9 Y64.61 E9.8117
G1 X39.66 Y64.37 E9.8228
G1 X39.38 Y64.65 E9.8361
G1 X38.48 Y63.75 E9.8783
G1 X38.53 Y64.37 E9.8989
G1 X38.77 Y64.61 E9.9101
G1 X39.29 Y64 E9.9368
G1 X39.21 Y63.92 E9.9404
G1 X39.82 Y63.96 E9.9607
G1 X39.9 Y64.04 E9.9643
G1 X40.34 Y63.92 E9.9797
G1 X40.42 Y64 E9.9833
G1 X40.95 Y63.96 E10.001
G1 X41.03 Y64.04 E10.0046
G1 X41.47 Y63.92 E10.02
G1 X41.55 Y64 E10.0236
G1 X42.08 Y63.96 E10.0413
G1 X42.16 Y64.04 E10.0449
G1 X42.61 Y63.92 E10.0603
G1 X42.68 Y64 E10.0639
G1 X43.21 Y63.96 E10.0816
G1 X43.29 Y64.04 E10.0852
G1 X43.74 Y63.92 E10.1006
G1 X43.81 Y64 E10.1042
G1 X44.35 Y63.96 E10.1219
G1 X44.42 Y64.04 E10.1255
G1 X44.87 Y63.92 E10.1409
G1 X44.94 Y64 E10.1445
G1 X45.48 Y63.96 E10.1622
G1 X45.55 Y64.04 E10.1658
G1 X46 Y63.92 E10.1812
G1 X46.08 Y64 E10.1848
G1 X46.61 Y63.96 E10.2025
G1 X46.68 Y64.04 E10.2061
G1 X47.13 Y63.92 E10.2215
G1 X47.21 Y64 E10.2251
G1 X47.74 Y63.96 E10.2428
G1 X47.82 Y64.04 E10.2464
G1 X48.26 Y63.92 E10.2617
G1 X48.34 Y64 E10.2653
G1 X48.87 Y63.96 E10.2831
G1 X48.95 Y64.04 E10.2867
G1 X49.39 Y63.92 E10.302
G1 X49.47 Y64 E10.3056
G1 X50 Y63.96 E10.3234
G1 X50.08 Y64.04 E10.327
G1 X50.53 Y63.92 E10.3423
G1 X50.6 Y64 E10.3459
G1 X51.13 Y63.96 E10.3636
G1 X51.21 Y64.04 E10.3672
G1 X51.66 Y63.92 E10.3826
G1 X51.73 Y64 E10.3862
G1 X52.26 Y63.96 E10.4039
G1 X52.34 Y64.04 E10.4075
G1 X52.79 Y63.92 E10.4229
G1 X52.86 Y64 E10.4265
G1 X53.4 Y63.96 E10.4442
G1 X53.47 Y64.04 E10.4478
G1 X53.92 Y63.92 E10.4632
G1 X54 Y64 E10.4668
G1 X54.53 Y63.96 E10.4845
G1 X54.6 Y64.04 E10.4881
G1 X55.05 Y63.92 E10.5035
G1 X55.13 Y64 E10.5071
G1 X55.66 Y63.96 E10.5248
G1 X55.74 Y64.04 E10.5284
G1 X56.18 Y63.92 E10.5438
G1 X56.26 Y64 E10.5474
G1 X56.79 Y63.96 E10.5651
G1 X56.87 Y64.04 E10.5687
G1 X57.31 Y63.92 E10.5841
G1 X57.39 Y64 E10.5877
G1 X57.92 Y63.96 E10.6054
G1 X58 Y64.04 E10.609
G1 X58.44 Y63.92 E10.6244
G1 X58.52 Y64 E10.628
G1 X59.05 Y63.96 E10.6457
G1 X59.13 Y64.04 E10.6493
G1 X59.58 Y63.92 E10.6647
G1 X59.65 Y64 E10.6683
G1 X60.18 Y63.96 E10.686
G1 X60.26 Y64.04 E10.6896
G1 X60.71 Y63.92 E10.705
G1 X60.78 Y64 E10.7086
;
; 'Wipe', 0.0 [RPM], 34.8 [mm/s]
G1 F210
G1 X60.78 Y64 Z4.05 E10.7086
; END_LAYER_OBJECT z=3.60
; Reset extruder pos
G92 E0
; BEGIN_LAYER_OBJECT z=3.80
; *** Cooling...speed multiplier is 0.832143 ***
; fan on
M106
;
; 'Loop', 44.4 [RPM], 27.8 [mm/s]
G1 F9000
G1 X61.88 Y64.72 E0
G1 F210
G1 X61.88 Y64.72 Z3.8 E0
G1 F1668.1
G1 X61.73 Y64.75 E0.0053
G1 X38.27 Y64.75 E0.7854
G1 X38.12 Y64.72 E0.7907
G1 X38.12 Y54.16 E1.1419
G1 X38.08 Y53.82 E1.1532
G1 X37.93 Y53.59 E1.1623
G1 X37.7 Y53.44 E1.1714
G1 X37.35 Y53.38 E1.1834
G1 X28.15 Y53.38 E1.4895
G1 X28.12 Y53.2 E1.4955
G1 X28.22 Y53.12 E1.5
G1 X38.21 Y53.12 E1.8323
G1 X38.38 Y53.14 E1.8379
G1 X38.38 Y62.71 E2.1563
G1 X38.42 Y62.91 E2.163
G1 X38.56 Y63.14 E2.1721
G1 X38.76 Y63.32 E2.181
G1 X38.88 Y63.38 E2.1857
G1 X39.09 Y63.42 E2.1925
G1 X60.91 Y63.42 E2.9184
G1 X61.12 Y63.38 E2.9253
G1 X61.35 Y63.24 E2.9344
G1 X61.52 Y63.04 E2.9432
G1 X61.58 Y62.91 E2.9479
G1 X61.62 Y62.71 E2.9546
G1 X61.62 Y53.14 E3.273
G1 X61.79 Y53.12 E3.2786
G1 X71.78 Y53.12 E3.611
G1 X71.88 Y53.2 E3.6154
G1 X71.85 Y53.38 E3.6215
G1 X62.65 Y53.38 E3.9275
G1 X62.3 Y53.44 E3.9395
G1 X62.07 Y53.59 E3.9486
G1 X61.92 Y53.82 E3.9577
G1 X61.88 Y54.15 E3.9689
G1 X61.88 Y64.72 E4.3203
; fan off
M107
;
; 'Wipe', 0.0 [RPM], 33.3 [mm/s]
; fan on
M106
;
; 'Perimeter', 23.2 [RPM], 14.6 [mm/s]
G1 F7489.3
G1 X62.13 Y64.89 E4.3203
G1 F873.8
G1 X62.29 Y65.12 E4.3294
G1 X62.13 Y65.15 E4.3347
G1 X37.87 Y65.15 E5.1416
G1 X37.71 Y65.12 E5.1469
G1 X37.71 Y54.18 E5.5107
G1 X37.66 Y53.88 E5.5209
G1 X37.52 Y53.81 E5.526
G1 X37.36 Y53.78 E5.5315
G1 X27.74 Y53.78 E5.8513
G1 X27.71 Y53.62 E5.8567
G1 X27.71 Y52.8 E5.8841
G1 X27.82 Y52.71 E5.8886
G1 X38.62 Y52.71 E6.2478
G1 X38.78 Y52.74 E6.2533
G1 X38.78 Y62.73 E6.5857
G1 X38.84 Y62.86 E6.5904
G1 X38.94 Y62.96 E6.5948
G1 X39.06 Y63.02 E6.5996
G1 X60.94 Y63.02 E7.327
G1 X61.06 Y62.96 E7.3318
G1 X61.16 Y62.86 E7.3362
G1 X61.22 Y62.73 E7.3409
G1 X61.22 Y52.74 E7.6733
G1 X61.38 Y52.71 E7.6788
G1 X72.18 Y52.71 E8.038
G1 X72.29 Y52.8 E8.0425
G1 X72.29 Y53.62 E8.0699
G1 X72.26 Y53.78 E8.0753
G1 X62.64 Y53.78 E8.3952
G1 X62.48 Y53.81 E8.4006
G1 X62.35 Y53.87 E8.4053
G1 X62.29 Y54.13 E8.4141
G1 X62.29 Y65.12 E8.7798
G1 X62.03 Y65.01 E8.789
; fan off
M107
;
; 'Solid', 53.1 [RPM], 33.3 [mm/s]
G1 F7489.3
G1 X61.22 Y64.05 E8.789
G1 F1997.1
G1 X60.86 Y64.41 E8.8056
G1 X60.61 Y64.1 E8.819
G1 X60.26 Y64.45 E8.8356
G1 X60.09 Y64.05 E8.85
G1 X59.73 Y64.41 E8.8666
G1 X59.48 Y64.1 E8.88
G1 X59.13 Y64.45 E8.8967
G1 X58.96 Y64.05 E8.911
G1 X58.6 Y64.41 E8.9276
G1 X58.35 Y64.1 E8.941
G1 X57.99 Y64.45 E8.9577
G1 X57.82 Y64.05 E8.972
G1 X57.47 Y64.41 E8.9886
G1 X57.22 Y64.1 E9.002
G1 X56.86 Y64.45 E9.0187
G1 X56.69 Y64.05 E9.033
G1 X56.34 Y64.41 E9.0497
G1 X56.09 Y64.1 E9.063
G1 X55.73 Y64.45 E9.0797
G1 X55.56 Y64.05 E9.094
G1 X55.21 Y64.41 E9.1107
G1 X54.95 Y64.1 E9.124
G1 X54.6 Y64.45 E9.1407
G1 X54.43 Y64.05 E9.155
G1 X54.08 Y64.41 E9.1717
G1 X53.82 Y64.1 E9.185
G1 X53.47 Y64.45 E9.2017
G1 X53.3 Y64.05 E9.216
G1 X52.95 Y64.41 E9.2327
G1 X52.69 Y64.1 E9.2461
G1 X52.34 Y64.45 E9.2627
G1 X52.17 Y64.05 E9.277
G1 X51.81 Y64.41 E9.2937
G1 X51.56 Y64.1 E9.3071
G1 X51.21 Y64.45 E9.3237
G1 X51.04 Y64.05 E9.3381
G1 X50.68 Y64.41 E9.3547
G1 X50.43 Y64.1 E9.3681
G1 X50.07 Y64.45 E9.3847
G1 X49.9 Y64.05 E9.3991
G1 X49.55 Y64.41 E9.4157
G1 X49.3 Y64.1 E9.4291
G1 X48.94 Y64.45 E9.4457
G1 X48.77 Y64.05 E9.4601
G1 X48.42 Y64.41 E9.4767
G1 X48.17 Y64.1 E9.4901
G1 X47.81 Y64.45 E9.5068
G1 X47.64 Y64.05 E9.5211
G1 X47.29 Y64.41 E9.5377
G1 X47.03 Y64.1 E9.5511
G1 X46.68 Y64.45 E9.5678
G1 X46.51 Y64.05 E9.5821
G1 X46.16 Y64.41 E9.5987
G1 X45.9 Y64.1 E9.6121
G1 X45.55 Y64.45 E9.6288
G1 X45.38 Y64.05 E9.6431
G1 X45.03 Y64.41 E9.6598
G1 X44.77 Y64.1 E9.6731
G1 X44.42 Y64.45 E9.6898
G1 X44.25 Y64.05 E9.7041
G1 X43.89 Y64.41 E9.7208
G1 X43.64 Y64.1 E9.7341
G1 X43.29 Y64.45 E9.7508
G1 X43.12 Y64.05 E9.7651
G1 X42.76 Y64.41 E9.7818
G1 X42.51 Y64.1 E9.7952
G1 X42.15 Y64.45 E9.8118
G1 X41.99 Y64.05 E9.8261
G1 X41.63 Y64.41 E9.8428
G1 X41.38 Y64.1 E9.8562
G1 X41.02 Y64.45 E9.8728
G1 X40.85 Y64.05 E9.8872
G1 X40.5 Y64.41 E9.9038
G1 X40.25 Y64.1 E9.9172
G1 X39.89 Y64.45 E9.9338
G1 X39.72 Y64.05 E9.9482
G1 X39.37 Y64.41 E9.9648
G1 X39.11 Y64.1 E9.9782
G1 X38.76 Y64.45 E9.9948
;
; 'Wipe', 0.0 [RPM], 33.3 [mm/s]
G1 F210
G1 X38.76 Y64.45 Z4.25 E9.9948
; END_LAYER_OBJECT z=3.80
; Reset extruder pos
G92 E0
; BEGIN_LAYER_OBJECT z=4.00
; *** Cooling...speed multiplier is 0.820710 ***
; fan on
M106
;
; 'Loop', 43.8 [RPM], 27.4 [mm/s]
G1 F9000
G1 X61.88 Y64.53 E0
G1 F210
G1 X61.88 Y64.53 Z4 E0
G1 F1645.2
G1 X61.72 Y64.55 E0.0056
G1 X38.28 Y64.55 E0.785
G1 X38.12 Y64.53 E0.7905
G1 X38.12 Y54.16 E1.1355
G1 X38.08 Y53.82 E1.1468
G1 X37.93 Y53.59 E1.1559
G1 X37.7 Y53.44 E1.165
G1 X37.35 Y53.38 E1.177
G1 X28.15 Y53.38 E1.4831
G1 X28.12 Y53.2 E1.4891
G1 X28.22 Y53.12 E1.4936
G1 X38.21 Y53.12 E1.8259
G1 X38.38 Y53.14 E1.8315
G1 X38.38 Y62.52 E2.1436
G1 X38.42 Y62.72 E2.1503
G1 X38.56 Y62.95 E2.1594
G1 X38.77 Y63.12 E2.1683
G1 X39.08 Y63.22 E2.179
G1 X60.92 Y63.22 E2.9057
G1 X61.1 Y63.18 E2.9118
G1 X61.23 Y63.12 E2.9165
G1 X61.44 Y62.95 E2.9254
G1 X61.58 Y62.72 E2.9345
G1 X61.62 Y62.52 E2.9412
G1 X61.62 Y53.14 E3.2533
G1 X61.79 Y53.12 E3.2589
G1 X71.78 Y53.12 E3.5912
G1 X71.88 Y53.2 E3.5957
G1 X71.85 Y53.38 E3.6017
G1 X62.65 Y53.38 E3.9078
G1 X62.3 Y53.44 E3.9198
G1 X62.07 Y53.59 E3.9289
G1 X61.92 Y53.82 E3.938
G1 X61.88 Y54.15 E3.9491
G1 X61.88 Y64.53 E4.2943
;
; 'Perimeter', 22.9 [RPM], 14.4 [mm/s]
G1 F7386.4
G1 X62.14 Y64.7 E4.2943
G1 F861.7
G1 X62.29 Y64.93 E4.3035
G1 X62.12 Y64.95 E4.3091
G1 X37.88 Y64.95 E5.1152
G1 X37.71 Y64.93 E5.1208
G1 X37.71 Y54.18 E5.4783
G1 X37.66 Y53.88 E5.4885
G1 X37.52 Y53.81 E5.4937
G1 X37.36 Y53.78 E5.4991
G1 X27.74 Y53.78 E5.819
G1 X27.71 Y53.62 E5.8243
G1 X27.71 Y52.8 E5.8518
G1 X27.82 Y52.71 E5.8563
G1 X38.62 Y52.71 E6.2155
G1 X38.78 Y52.74 E6.221
G1 X38.78 Y62.54 E6.5471
G1 X38.84 Y62.67 E6.5518
G1 X39.08 Y62.82 E6.5609
G1 X57.72 Y62.82 E7.1809
G1 X60.92 Y62.82 E7.2875
G1 X61.05 Y62.76 E7.2923
G1 X61.16 Y62.67 E7.2967
G1 X61.22 Y62.54 E7.3014
G1 X61.22 Y52.74 E7.6275
G1 X61.38 Y52.71 E7.6331
G1 X72.18 Y52.71 E7.9923
G1 X72.29 Y52.8 E7.9967
G1 X72.29 Y53.62 E8.0242
G1 X72.26 Y53.78 E8.0296
G1 X62.64 Y53.78 E8.3494
G1 X62.48 Y53.81 E8.3548
G1 X62.35 Y53.87 E8.3596
G1 X62.29 Y54.13 E8.3684
G1 X62.29 Y64.93 E8.7278
G1 X62.04 Y64.81 E8.737
; fan off
M107
;
; 'Solid', 52.4 [RPM], 32.8 [mm/s]
G1 F7386.4
G1 X61.2 Y63.85 E8.737
G1 F1969.7
G1 X60.91 Y63.56 E8.7508
G1 X60.59 Y63.81 E8.7642
G1 X60.31 Y63.52 E8.7776
G1 X60.07 Y63.85 E8.7911
G1 X59.78 Y63.56 E8.8046
G1 X59.46 Y63.81 E8.818
G1 X59.18 Y63.52 E8.8315
G1 X58.94 Y63.85 E8.845
G1 X58.65 Y63.56 E8.8584
G1 X58.33 Y63.81 E8.8719
G1 X58.04 Y63.52 E8.8853
G1 X57.81 Y63.85 E8.8988
G1 X57.52 Y63.56 E8.9123
G1 X57.2 Y63.81 E8.9257
G1 X56.91 Y63.52 E8.9392
G1 X56.68 Y63.85 E8.9527
G1 X56.39 Y63.56 E8.9661
G1 X56.07 Y63.81 E8.9795
G1 X55.78 Y63.52 E8.993
G1 X55.54 Y63.85 E9.0065
G1 X55.26 Y63.56 E9.02
G1 X54.94 Y63.81 E9.0334
G1 X54.65 Y63.52 E9.0469
G1 X54.41 Y63.85 E9.0603
G1 X54.13 Y63.56 E9.0738
G1 X53.81 Y63.81 E9.0872
G1 X53.52 Y63.52 E9.1007
G1 X53.28 Y63.85 E9.1142
G1 X53 Y63.56 E9.1277
G1 X52.67 Y63.81 E9.1411
G1 X52.39 Y63.52 E9.1546
G1 X52.15 Y63.85 E9.168
G1 X51.86 Y63.56 E9.1815
G1 X51.54 Y63.81 E9.1949
G1 X51.26 Y63.52 E9.2084
G1 X51.02 Y63.85 E9.2219
G1 X50.73 Y63.56 E9.2353
G1 X50.41 Y63.81 E9.2488
G1 X50.12 Y63.52 E9.2622
G1 X49.89 Y63.85 E9.2757
G1 X49.6 Y63.56 E9.2892
G1 X49.28 Y63.81 E9.3026
G1 X48.99 Y63.52 E9.3161
G1 X48.76 Y63.85 E9.3296
G1 X48.47 Y63.56 E9.343
G1 X48.15 Y63.81 E9.3565
G1 X47.86 Y63.52 E9.3699
G1 X47.63 Y63.85 E9.3834
G1 X47.34 Y63.56 E9.3969
G1 X47.02 Y63.81 E9.4103
G1 X46.73 Y63.52 E9.4238
G1 X46.49 Y63.85 E9.4373
G1 X46.21 Y63.56 E9.4507
G1 X45.89 Y63.81 E9.4641
G1 X45.6 Y63.52 E9.4776
G1 X45.36 Y63.85 E9.4911
G1 X45.08 Y63.56 E9.5046
G1 X44.75 Y63.81 E9.518
G1 X44.47 Y63.52 E9.5315
G1 X44.23 Y63.85 E9.5449
G1 X43.94 Y63.56 E9.5584
G1 X43.62 Y63.81 E9.5718
G1 X43.34 Y63.52 E9.5853
G1 X43.1 Y63.85 E9.5988
G1 X42.81 Y63.56 E9.6123
G1 X42.49 Y63.81 E9.6257
G1 X42.21 Y63.52 E9.6391
G1 X41.97 Y63.85 E9.6526
G1 X41.68 Y63.56 E9.6661
G1 X41.36 Y63.81 E9.6795
G1 X41.07 Y63.52 E9.693
G1 X40.84 Y63.85 E9.7065
G1 X40.55 Y63.56 E9.7199
G1 X40.23 Y63.81 E9.7334
G1 X39.94 Y63.52 E9.7468
G1 X39.71 Y63.85 E9.7603
G1 X39.42 Y63.56 E9.7738
G1 X39.1 Y63.81 E9.7872
G1 X38.72 Y63.43 E9.805
;
; 'Wipe', 0.0 [RPM], 32.8 [mm/s]
G1 F210
G1 X38.72 Y63.43 Z4.45 E9.805
; END_LAYER_OBJECT z=4.00
; Reset extruder pos
G92 E0
; BEGIN_LAYER_OBJECT z=4.20
; *** Cooling...speed multiplier is 0.762147 ***
; fan on
M106
;
; 'Loop', 40.7 [RPM], 25.5 [mm/s]
G1 F9000
G1 X61.88 Y64.34 E0
G1 F210
G1 X61.88 Y64.34 Z4.2 E0
G1 F1527.8
G1 X61.7 Y64.35 E0.0059
G1 X38.3 Y64.35 E0.7845
G1 X38.12 Y64.34 E0.7904
G1 X38.12 Y54.16 E1.1291
G1 X38.08 Y53.82 E1.1405
G1 X37.93 Y53.59 E1.1496
G1 X37.7 Y53.44 E1.1587
G1 X37.35 Y53.38 E1.1707
G1 X28.15 Y53.38 E1.4767
G1 X28.12 Y53.2 E1.4827
G1 X28.22 Y53.12 E1.4872
G1 X38.21 Y53.12 E1.8196
G1 X38.38 Y53.14 E1.8252
G1 X38.38 Y62.33 E2.131
G1 X38.42 Y62.53 E2.1377
G1 X38.56 Y62.76 E2.1468
G1 X38.78 Y62.92 E2.1558
G1 X38.91 Y62.98 E2.1605
G1 X39.06 Y63.02 E2.1658
G1 X60.94 Y63.02 E2.8932
G1 X61.09 Y62.98 E2.8986
G1 X61.33 Y62.85 E2.9078
G1 X61.52 Y62.66 E2.9166
G1 X61.58 Y62.53 E2.9213
G1 X61.62 Y62.33 E2.928
G1 X61.62 Y53.14 E3.2339
G1 X61.79 Y53.12 E3.2395
G1 X71.78 Y53.12 E3.5718
G1 X71.88 Y53.2 E3.5763
G1 X71.85 Y53.38 E3.5823
G1 X62.65 Y53.38 E3.8884
G1 X62.3 Y53.44 E3.9004
G1 X62.07 Y53.59 E3.9095
G1 X61.92 Y53.82 E3.9186
G1 X61.88 Y54.15 E3.9297
G1 X61.88 Y64.34 E4.2686
;
; 'Perimeter', 21.3 [RPM], 13.3 [mm/s]
G1 F6859.3
G1 X62.14 Y64.5 E4.2686
G1 F800.3
G1 X62.29 Y64.74 E4.2779
G1 X62.11 Y64.75 E4.2838
G1 X37.89 Y64.75 E5.0892
G1 X37.71 Y64.74 E5.0951
G1 X37.71 Y54.18 E5.4463
G1 X37.66 Y53.88 E5.4566
G1 X37.52 Y53.81 E5.4617
G1 X37.36 Y53.78 E5.4671
G1 X27.74 Y53.78 E5.787
G1 X27.71 Y53.62 E5.7924
G1 X27.71 Y52.8 E5.8198
G1 X27.82 Y52.71 E5.8243
G1 X38.62 Y52.71 E6.1835
G1 X38.78 Y52.74 E6.189
G1 X38.78 Y62.36 E6.5089
G1 X38.84 Y62.48 E6.5136
G1 X39.09 Y62.61 E6.5228
G1 X60.91 Y62.61 E7.2486
G1 X61.16 Y62.48 E7.2579
G1 X61.22 Y62.36 E7.2626
G1 X61.22 Y52.74 E7.5824
G1 X61.38 Y52.71 E7.5879
G1 X72.18 Y52.71 E7.9471
G1 X72.29 Y52.8 E7.9516
G1 X72.29 Y53.62 E7.9791
G1 X72.26 Y53.78 E7.9844
G1 X62.64 Y53.78 E8.3043
G1 X62.48 Y53.81 E8.3097
G1 X62.35 Y53.87 E8.3145
G1 X62.29 Y54.13 E8.3232
G1 X62.29 Y64.74 E8.6764
G1 X62.04 Y64.61 E8.6857
; fan off
M107
;
; 'Wipe', 0.0 [RPM], 30.5 [mm/s]
G1 F210
G1 X62.04 Y64.61 Z4.65 E8.6857
; END_LAYER_OBJECT z=4.20
; Reset extruder pos
G92 E0
; BEGIN_LAYER_OBJECT z=4.40
; *** Cooling...speed multiplier is 0.813337 ***
; fan on
M106
;
; 'Loop', 43.4 [RPM], 27.2 [mm/s]
G1 F9000
G1 X61.88 Y64.15 E0
G1 F210
G1 X61.88 Y64.15 Z4.4 E0
G1 F1630.4
G1 X38.12 Y64.15 E0.7903
G1 X38.12 Y54.16 E1.1227
G1 X38.08 Y53.82 E1.1341
G1 X37.93 Y53.59 E1.1432
G1 X37.7 Y53.44 E1.1523
G1 X37.35 Y53.38 E1.1643
G1 X28.15 Y53.38 E1.4703
G1 X28.12 Y53.2 E1.4763
G1 X28.22 Y53.12 E1.4808
G1 X38.21 Y53.12 E1.8132
G1 X38.38 Y53.14 E1.8188
G1 X38.38 Y62.15 E2.1183
G1 X38.42 Y62.34 E2.125
G1 X38.56 Y62.58 E2.1341
G1 X38.79 Y62.72 E2.1432
G1 X39.07 Y62.82 E2.1531
G1 X58.47 Y62.82 E2.7983
G1 X60.93 Y62.82 E2.8799
G1 X61.08 Y62.78 E2.8851
G1 X61.33 Y62.66 E2.8945
G1 X61.52 Y62.47 E2.9034
G1 X61.58 Y62.34 E2.9081
G1 X61.62 Y62.15 E2.9148
G1 X61.62 Y53.14 E3.2143
G1 X61.79 Y53.12 E3.2199
G1 X71.78 Y53.12 E3.5523
G1 X71.88 Y53.2 E3.5568
G1 X71.85 Y53.38 E3.5628
G1 X62.65 Y53.38 E3.8688
G1 X62.3 Y53.44 E3.8808
G1 X62.07 Y53.59 E3.8899
G1 X61.92 Y53.82 E3.899
G1 X61.88 Y54.15 E3.9102
G1 X61.88 Y64.15 E4.2428
; fan off
M107
;
; 'Wipe', 0.0 [RPM], 32.5 [mm/s]
; fan on
M106
;
; 'Perimeter', 22.7 [RPM], 14.2 [mm/s]
G1 F7320
G1 X62.14 Y64.31 E4.2428
G1 F854
G1 X62.28 Y64.55 E4.2521
G1 X37.72 Y64.55 E5.0692
G1 X37.71 Y54.18 E5.4141
G1 X37.66 Y53.88 E5.4244
G1 X37.52 Y53.81 E5.4295
G1 X37.36 Y53.78 E5.4349
G1 X27.74 Y53.78 E5.7548
G1 X27.71 Y53.62 E5.7602
G1 X27.71 Y52.8 E5.7876
G1 X27.82 Y52.71 E5.7921
G1 X38.62 Y52.71 E6.1513
G1 X38.78 Y52.74 E6.1568
G1 X38.78 Y62.17 E6.4704
G1 X38.84 Y62.29 E6.4751
G1 X39.1 Y62.41 E6.4845
G1 X60.9 Y62.41 E7.2095
G1 X61.16 Y62.29 E7.219
G1 X61.22 Y62.17 E7.2236
G1 X61.22 Y52.74 E7.5372
G1 X61.38 Y52.71 E7.5428
G1 X72.18 Y52.71 E7.902
G1 X72.29 Y52.8 E7.9064
G1 X72.29 Y53.62 E7.9339
G1 X72.26 Y53.78 E7.9393
G1 X62.64 Y53.78 E8.2591
G1 X62.48 Y53.81 E8.2645
G1 X62.35 Y53.87 E8.2693
G1 X62.29 Y54.13 E8.2781
G1 X62.28 Y64.55 E8.6249
G1 X62.04 Y64.41 E8.6342
; fan off
M107
;
; 'Solid', 51.9 [RPM], 32.5 [mm/s]
G1 F7320
G1 X61.2 Y63.85 E8.6342
G1 F1952
G1 X60.9 Y63.54 E8.6486
G1 X60.6 Y63.81 E8.6619
G1 X60.29 Y63.5 E8.6763
G1 X60.07 Y63.85 E8.69
G1 X59.77 Y63.54 E8.7044
G1 X59.46 Y63.81 E8.7177
G1 X59.16 Y63.5 E8.7321
G1 X58.94 Y63.85 E8.7458
G1 X58.63 Y63.54 E8.7602
G1 X58.33 Y63.81 E8.7735
G1 X58.03 Y63.5 E8.7879
G1 X57.81 Y63.85 E8.8016
G1 X57.5 Y63.54 E8.816
G1 X57.2 Y63.81 E8.8293
G1 X56.89 Y63.5 E8.8437
G1 X56.68 Y63.85 E8.8574
G1 X56.37 Y63.54 E8.8717
G1 X56.07 Y63.81 E8.8851
G1 X55.76 Y63.5 E8.8995
G1 X55.55 Y63.85 E8.9131
G1 X55.24 Y63.54 E8.9275
G1 X54.94 Y63.81 E8.9409
G1 X54.63 Y63.5 E8.9553
G1 X54.41 Y63.85 E8.9689
G1 X54.11 Y63.54 E8.9833
G1 X53.81 Y63.81 E8.9967
G1 X53.5 Y63.5 E9.0111
G1 X53.28 Y63.85 E9.0247
G1 X52.98 Y63.54 E9.0391
G1 X52.68 Y63.81 E9.0524
G1 X52.37 Y63.5 E9.0668
G1 X52.15 Y63.85 E9.0805
G1 X51.85 Y63.54 E9.0949
G1 X51.54 Y63.81 E9.1082
G1 X51.24 Y63.5 E9.1226
G1 X51.02 Y63.85 E9.1363
G1 X50.71 Y63.54 E9.1507
G1 X50.41 Y63.81 E9.164
G1 X50.11 Y63.5 E9.1784
G1 X49.89 Y63.85 E9.1921
G1 X49.58 Y63.54 E9.2065
G1 X49.28 Y63.81 E9.2198
G1 X48.98 Y63.5 E9.2342
G1 X48.76 Y63.85 E9.2479
G1 X48.45 Y63.54 E9.2622
G1 X48.15 Y63.81 E9.2756
G1 X47.84 Y63.5 E9.29
G1 X47.63 Y63.85 E9.3036
G1 X47.32 Y63.54 E9.318
G1 X47.02 Y63.81 E9.3314
G1 X46.71 Y63.5 E9.3458
G1 X46.5 Y63.85 E9.3594
G1 X46.19 Y63.54 E9.3738
G1 X45.89 Y63.81 E9.3872
G1 X45.58 Y63.5 E9.4016
G1 X45.36 Y63.85 E9.4152
G1 X45.06 Y63.54 E9.4296
G1 X44.76 Y63.81 E9.4429
G1 X44.45 Y63.5 E9.4573
G1 X44.23 Y63.85 E9.471
G1 X43.93 Y63.54 E9.4854
G1 X43.62 Y63.81 E9.4987
G1 X43.32 Y63.5 E9.5131
G1 X43.1 Y63.85 E9.5268
G1 X42.8 Y63.54 E9.5412
G1 X42.49 Y63.81 E9.5545
G1 X42.19 Y63.5 E9.5689
G1 X41.97 Y63.85 E9.5826
G1 X41.66 Y63.54 E9.597
G1 X41.36 Y63.81 E9.6103
G1 X41.06 Y63.5 E9.6247
G1 X40.84 Y63.85 E9.6384
G1 X40.53 Y63.54 E9.6528
G1 X40.23 Y63.81 E9.6661
G1 X39.92 Y63.5 E9.6805
G1 X39.71 Y63.85 E9.6941
G1 X39.4 Y63.54 E9.7085
G1 X39.1 Y63.81 E9.7219
G1 X38.79 Y63.5 E9.7363
;
; 'Wipe', 0.0 [RPM], 32.5 [mm/s]
G1 F210
G1 X38.79 Y63.5 Z4.85 E9.7363
; END_LAYER_OBJECT z=4.40
; Reset extruder pos
G92 E0
; BEGIN_LAYER_OBJECT z=4.60
; *** Cooling...speed multiplier is 0.811625 ***
; fan on
M106
;
; 'Loop', 43.3 [RPM], 27.1 [mm/s]
G1 F9000
G1 X61.87 Y63.95 E0
G1 F210
G1 X61.87 Y63.95 Z4.6 E0
G1 F1627
G1 X38.13 Y63.95 E0.7895
G1 X38.12 Y63.77 E0.7954
G1 X38.12 Y54.16 E1.1152
G1 X38.08 Y53.82 E1.1266
G1 X37.93 Y53.59 E1.1357
G1 X37.7 Y53.44 E1.1448
G1 X37.35 Y53.38 E1.1568
G1 X28.15 Y53.38 E1.4628
G1 X28.12 Y53.2 E1.4689
G1 X28.22 Y53.12 E1.4733
G1 X38.21 Y53.12 E1.8057
G1 X38.38 Y53.14 E1.8113
G1 X38.38 Y61.96 E2.1046
G1 X38.42 Y62.16 E2.1113
G1 X38.56 Y62.39 E2.1204
G1 X38.79 Y62.53 E2.1295
G1 X39.09 Y62.62 E2.1396
G1 X60.91 Y62.62 E2.8656
G1 X61.21 Y62.53 E2.8757
G1 X61.44 Y62.39 E2.8848
G1 X61.58 Y62.16 E2.8939
G1 X61.62 Y61.96 E2.9006
G1 X61.62 Y53.14 E3.1939
G1 X61.79 Y53.12 E3.1995
G1 X71.78 Y53.12 E3.5319
G1 X71.88 Y53.2 E3.5363
G1 X71.85 Y53.38 E3.5424
G1 X62.65 Y53.38 E3.8484
G1 X62.3 Y53.44 E3.8604
G1 X62.07 Y53.59 E3.8695
G1 X61.92 Y53.82 E3.8786
G1 X61.88 Y54.15 E3.8898
G1 X61.88 Y63.77 E4.2098
G1 X61.87 Y63.95 E4.2157
;
; 'Perimeter', 22.7 [RPM], 14.2 [mm/s]
G1 F7304.6
G1 X62.14 Y64.11 E4.2157
G1 F852.2
G1 X62.27 Y64.35 E4.2249
G1 X37.73 Y64.35 E5.0413
G1 X37.71 Y64.18 E5.0471
G1 X37.71 Y54.18 E5.3795
G1 X37.66 Y53.88 E5.3898
G1 X37.52 Y53.81 E5.3949
G1 X37.36 Y53.78 E5.4003
G1 X27.74 Y53.78 E5.7202
G1 X27.71 Y53.62 E5.7255
G1 X27.71 Y52.8 E5.753
G1 X27.82 Y52.71 E5.7575
G1 X38.62 Y52.71 E6.1167
G1 X38.78 Y52.74 E6.1222
G1 X38.78 Y61.98 E6.4295
G1 X38.84 Y62.1 E6.4342
G1 X39.11 Y62.21 E6.4438
G1 X60.89 Y62.21 E7.1681
G1 X61.16 Y62.1 E7.1777
G1 X61.22 Y61.98 E7.1824
G1 X61.22 Y52.74 E7.4897
G1 X61.38 Y52.71 E7.4952
G1 X72.18 Y52.71 E7.8544
G1 X72.29 Y52.8 E7.8589
G1 X72.29 Y53.62 E7.8863
G1 X72.26 Y53.78 E7.8917
G1 X62.64 Y53.78 E8.2116
G1 X62.48 Y53.81 E8.217
G1 X62.35 Y53.87 E8.2218
G1 X62.29 Y54.13 E8.2305
G1 X62.29 Y64.18 E8.5649
G1 X62.27 Y64.35 E8.5707
G1 X62.03 Y64.21 E8.58
; fan off
M107
;
; 'Solid', 51.8 [RPM], 32.5 [mm/s]
G1 F7304.6
G1 X60.62 Y62.96 E8.58
G1 F1947.9
G1 X60.28 Y63.29 E8.5957
G1 X60.09 Y62.92 E8.6097
G1 X59.76 Y63.25 E8.6255
G1 X59.48 Y62.96 E8.6388
G1 X59.15 Y63.29 E8.6545
G1 X58.96 Y62.92 E8.6685
G1 X58.63 Y63.25 E8.6842
G1 X58.35 Y62.96 E8.6975
G1 X58.02 Y63.29 E8.7133
G1 X57.83 Y62.92 E8.7273
G1 X57.5 Y63.25 E8.743
G1 X57.22 Y62.96 E8.7563
G1 X56.89 Y63.29 E8.7721
G1 X56.7 Y62.92 E8.7861
G1 X56.36 Y63.25 E8.8018
G1 X56.09 Y62.96 E8.8151
G1 X55.76 Y63.29 E8.8309
G1 X55.57 Y62.92 E8.8449
G1 X55.23 Y63.25 E8.8606
G1 X54.96 Y62.96 E8.8739
G1 X54.63 Y63.29 E8.8896
G1 X54.44 Y62.92 E8.9037
G1 X54.1 Y63.25 E8.9194
G1 X53.83 Y62.96 E8.9327
G1 X53.49 Y63.29 E8.9484
G1 X53.3 Y62.92 E8.9624
G1 X52.97 Y63.25 E8.9782
G1 X52.7 Y62.96 E8.9915
G1 X52.36 Y63.29 E9.0072
G1 X52.17 Y62.92 E9.0212
G1 X51.84 Y63.25 E9.037
G1 X51.57 Y62.96 E9.0503
G1 X51.23 Y63.29 E9.066
G1 X51.04 Y62.92 E9.08
G1 X50.71 Y63.25 E9.0957
G1 X50.43 Y62.96 E9.1091
G1 X50.1 Y63.29 E9.1248
G1 X49.91 Y62.92 E9.1388
G1 X49.58 Y63.25 E9.1545
G1 X49.3 Y62.96 E9.1678
G1 X48.97 Y63.29 E9.1836
G1 X48.78 Y62.92 E9.1976
G1 X48.44 Y63.25 E9.2133
G1 X48.17 Y62.96 E9.2266
G1 X47.84 Y63.29 E9.2424
G1 X47.65 Y62.92 E9.2564
G1 X47.31 Y63.25 E9.2721
G1 X47.04 Y62.96 E9.2854
G1 X46.71 Y63.29 E9.3011
G1 X46.52 Y62.92 E9.3152
G1 X46.18 Y63.25 E9.3309
G1 X45.91 Y62.96 E9.3442
G1 X45.57 Y63.29 E9.3599
G1 X45.39 Y62.92 E9.374
G1 X45.05 Y63.25 E9.3897
G1 X44.78 Y62.96 E9.403
G1 X44.44 Y63.29 E9.4187
G1 X44.25 Y62.92 E9.4327
G1 X43.92 Y63.25 E9.4485
G1 X43.65 Y62.96 E9.4618
G1 X43.31 Y63.29 E9.4775
G1 X43.12 Y62.92 E9.4915
G1 X42.79 Y63.25 E9.5073
G1 X42.51 Y62.96 E9.5206
G1 X42.18 Y63.29 E9.5363
G1 X41.99 Y62.92 E9.5503
G1 X41.66 Y63.25 E9.566
G1 X41.38 Y62.96 E9.5794
G1 X41.05 Y63.29 E9.5951
G1 X40.86 Y62.92 E9.6091
G1 X40.53 Y63.25 E9.6248
G1 X40.25 Y62.96 E9.6381
G1 X39.92 Y63.29 E9.6539
G1 X39.73 Y62.92 E9.6679
G1 X39.39 Y63.25 E9.6836
G1 X38.78 Y63.3 E9.704
G1 X39.12 Y62.96 E9.7197
G1 X38.7 Y62.82 E9.7345
;
; 'Wipe', 0.0 [RPM], 32.5 [mm/s]
G1 F210
G1 X38.7 Y62.82 Z5.05 E9.7345
; END_LAYER_OBJECT z=4.60
; Reset extruder pos
G92 E0
; BEGIN_LAYER_OBJECT z=4.80
; *** Cooling...speed multiplier is 0.840999 ***
; fan on
M106
;
; 'Loop', 44.9 [RPM], 28.1 [mm/s]
G1 F9000
G1 X61.86 Y63.75 E0
G1 F210
G1 X61.86 Y63.75 Z4.8 E0
G1 F1685.9
G1 X38.14 Y63.75 E0.7888
G1 X38.12 Y63.59 E0.7943
G1 X38.12 Y54.16 E1.1078
G1 X38.08 Y53.82 E1.1192
G1 X37.93 Y53.59 E1.1283
G1 X37.7 Y53.44 E1.1374
G1 X37.35 Y53.38 E1.1494
G1 X28.15 Y53.38 E1.4554
G1 X28.12 Y53.2 E1.4615
G1 X28.22 Y53.12 E1.4659
G1 X38.21 Y53.12 E1.7983
G1 X38.38 Y53.14 E1.8039
G1 X38.38 Y61.77 E2.0909
G1 X38.42 Y61.97 E2.0976
G1 X38.56 Y62.2 E2.1067
G1 X38.79 Y62.34 E2.1158
G1 X39.1 Y62.42 E2.1262
G1 X60.9 Y62.42 E2.8514
G1 X61.21 Y62.34 E2.8618
G1 X61.44 Y62.2 E2.8709
G1 X61.58 Y61.97 E2.88
G1 X61.62 Y61.77 E2.8867
G1 X61.62 Y53.14 E3.1738
G1 X61.79 Y53.12 E3.1793
G1 X71.78 Y53.12 E3.5117
G1 X71.88 Y53.2 E3.5162
G1 X71.85 Y53.38 E3.5222
G1 X62.65 Y53.38 E3.8283
G1 X62.3 Y53.44 E3.8402
G1 X62.07 Y53.59 E3.8493
G1 X61.92 Y53.82 E3.8584
G1 X61.88 Y54.15 E3.8696
G1 X61.88 Y63.59 E4.1834
G1 X61.86 Y63.75 E4.1889
;
; 'Perimeter', 23.5 [RPM], 14.7 [mm/s]
G1 F7569
G1 X62.13 Y63.9 E4.1889
G1 F883
G1 X62.26 Y64.15 E4.1981
G1 X37.74 Y64.15 E5.0136
G1 X37.71 Y63.99 E5.019
G1 X37.71 Y54.18 E5.3451
G1 X37.66 Y53.88 E5.3554
G1 X37.52 Y53.81 E5.3605
G1 X37.36 Y53.78 E5.3659
G1 X27.74 Y53.78 E5.6858
G1 X27.71 Y53.62 E5.6911
G1 X27.71 Y52.8 E5.7186
G1 X27.82 Y52.71 E5.7231
G1 X38.62 Y52.71 E6.0823
G1 X38.78 Y52.74 E6.0878
G1 X38.78 Y61.79 E6.3888
G1 X38.84 Y61.92 E6.3935
G1 X39.12 Y62.02 E6.4033
G1 X60.88 Y62.02 E7.1269
G1 X61.16 Y61.92 E7.1367
G1 X61.22 Y61.79 E7.1414
G1 X61.22 Y52.74 E7.4425
G1 X61.38 Y52.71 E7.448
G1 X72.18 Y52.71 E7.8072
G1 X72.29 Y52.8 E7.8116
G1 X72.29 Y53.62 E7.8391
G1 X72.26 Y53.78 E7.8445
G1 X62.64 Y53.78 E8.1643
G1 X62.48 Y53.81 E8.1698
G1 X62.35 Y53.87 E8.1745
G1 X62.29 Y54.13 E8.1833
G1 X62.29 Y63.99 E8.5114
G1 X62.26 Y64.15 E8.5168
G1 X62.02 Y64 E8.526
; fan off
M107
;
; 'Solid', 53.7 [RPM], 33.6 [mm/s]
G1 F7569
G1 X61.5 Y63.01 E8.526
G1 F2018.4
G1 X61.2 Y62.71 E8.5401
G1 X60.85 Y62.93 E8.5537
G1 X60.64 Y62.72 E8.5638
G1 X60.33 Y62.98 E8.5772
G1 X60.11 Y62.76 E8.5873
G1 X59.72 Y62.93 E8.6016
G1 X59.51 Y62.72 E8.6117
G1 X59.2 Y62.98 E8.625
G1 X58.98 Y62.76 E8.6351
G1 X58.59 Y62.93 E8.6494
G1 X58.37 Y62.72 E8.6595
G1 X58.07 Y62.98 E8.6729
G1 X57.85 Y62.76 E8.683
G1 X57.46 Y62.93 E8.6973
G1 X57.24 Y62.72 E8.7074
G1 X56.93 Y62.98 E8.7207
G1 X56.72 Y62.76 E8.7308
G1 X56.33 Y62.93 E8.7451
G1 X56.11 Y62.72 E8.7552
G1 X55.8 Y62.98 E8.7686
G1 X55.59 Y62.76 E8.7787
G1 X55.2 Y62.93 E8.793
G1 X54.98 Y62.72 E8.8031
G1 X54.67 Y62.98 E8.8164
G1 X54.46 Y62.76 E8.8265
G1 X54.06 Y62.93 E8.8408
G1 X53.85 Y62.72 E8.8509
G1 X53.54 Y62.98 E8.8643
G1 X53.33 Y62.76 E8.8744
G1 X52.93 Y62.93 E8.8886
G1 X52.72 Y62.72 E8.8987
G1 X52.41 Y62.98 E8.9121
G1 X52.19 Y62.76 E8.9222
G1 X51.8 Y62.93 E8.9365
G1 X51.59 Y62.72 E8.9466
G1 X51.28 Y62.98 E8.9599
G1 X51.06 Y62.76 E8.9701
G1 X50.67 Y62.93 E8.9843
G1 X50.46 Y62.72 E8.9944
G1 X50.15 Y62.98 E9.0078
G1 X49.93 Y62.76 E9.0179
G1 X49.54 Y62.93 E9.0322
G1 X49.32 Y62.72 E9.0423
G1 X49.02 Y62.98 E9.0556
G1 X48.8 Y62.76 E9.0657
G1 X48.41 Y62.93 E9.08
G1 X48.19 Y62.72 E9.0901
G1 X47.88 Y62.98 E9.1035
G1 X47.67 Y62.76 E9.1136
G1 X47.28 Y62.93 E9.1279
G1 X47.06 Y62.72 E9.138
G1 X46.75 Y62.98 E9.1513
G1 X46.54 Y62.76 E9.1614
G1 X46.14 Y62.93 E9.1757
G1 X45.93 Y62.72 E9.1858
G1 X45.62 Y62.98 E9.1992
G1 X45.41 Y62.76 E9.2093
G1 X45.01 Y62.93 E9.2236
G1 X44.8 Y62.72 E9.2337
G1 X44.49 Y62.98 E9.247
G1 X44.28 Y62.76 E9.2571
G1 X43.88 Y62.93 E9.2714
G1 X43.67 Y62.72 E9.2815
G1 X43.36 Y62.98 E9.2949
G1 X43.14 Y62.76 E9.305
G1 X42.75 Y62.93 E9.3192
G1 X42.54 Y62.72 E9.3294
G1 X42.23 Y62.98 E9.3427
G1 X42.01 Y62.76 E9.3528
G1 X41.62 Y62.93 E9.3671
G1 X41.4 Y62.72 E9.3772
G1 X41.1 Y62.98 E9.3906
G1 X40.88 Y62.76 E9.4007
G1 X40.49 Y62.93 E9.4149
G1 X40.27 Y62.72 E9.425
G1 X39.96 Y62.98 E9.4384
G1 X39.75 Y62.76 E9.4485
G1 X39.36 Y62.93 E9.4628
G1 X39.13 Y62.71 E9.4733
G1 X38.87 Y63.01 E9.4866
G1 X38.47 Y62.61 E9.5056
G1 X38.59 Y63.3 E9.5288
G1 X38.7 Y63.41 E9.534
G1 X39.2 Y63.34 E9.5507
G1 X39.31 Y63.45 E9.5559
G1 X39.72 Y63.3 E9.5705
G1 X39.83 Y63.41 E9.5757
G1 X40.33 Y63.34 E9.5924
G1 X40.44 Y63.45 E9.5975
G1 X40.85 Y63.3 E9.6122
G1 X40.96 Y63.41 E9.6174
G1 X41.46 Y63.34 E9.6341
G1 X41.57 Y63.45 E9.6392
G1 X41.98 Y63.3 E9.6539
G1 X42.09 Y63.41 E9.659
G1 X42.59 Y63.34 E9.6758
G1 X42.7 Y63.45 E9.6809
G1 X43.11 Y63.3 E9.6956
G1 X43.22 Y63.41 E9.7007
G1 X43.72 Y63.34 E9.7175
G1 X43.83 Y63.45 E9.7226
G1 X44.25 Y63.3 E9.7373
G1 X44.36 Y63.41 E9.7424
G1 X44.85 Y63.34 E9.7592
G1 X44.96 Y63.45 E9.7643
G1 X45.38 Y63.3 E9.779
G1 X45.49 Y63.41 E9.7841
G1 X45.99 Y63.34 E9.8008
G1 X46.09 Y63.45 E9.806
G1 X46.51 Y63.3 E9.8206
G1 X46.62 Y63.41 E9.8258
G1 X47.12 Y63.34 E9.8425
G1 X47.23 Y63.45 E9.8477
G1 X47.64 Y63.3 E9.8623
G1 X47.75 Y63.41 E9.8675
G1 X48.25 Y63.34 E9.8842
G1 X48.36 Y63.45 E9.8894
G1 X48.77 Y63.3 E9.904
G1 X48.88 Y63.41 E9.9092
G1 X49.38 Y63.34 E9.9259
G1 X49.49 Y63.45 E9.931
G1 X49.9 Y63.3 E9.9457
G1 X50.01 Y63.41 E9.9509
G1 X50.51 Y63.34 E9.9676
G1 X50.62 Y63.45 E9.9727
G1 X51.03 Y63.3 E9.9874
G1 X51.14 Y63.41 E9.9925
G1 X51.64 Y63.34 E10.0093
G1 X51.75 Y63.45 E10.0144
G1 X52.17 Y63.3 E10.0291
G1 X52.28 Y63.41 E10.0342
G1 X52.77 Y63.34 E10.051
G1 X52.88 Y63.45 E10.0561
G1 X53.3 Y63.3 E10.0708
G1 X53.41 Y63.41 E10.0759
G1 X53.91 Y63.34 E10.0927
G1 X54.01 Y63.45 E10.0978
G1 X54.43 Y63.3 E10.1125
G1 X54.54 Y63.41 E10.1176
G1 X55.04 Y63.34 E10.1343
G1 X55.15 Y63.45 E10.1395
G1 X55.56 Y63.3 E10.1542
G1 X55.67 Y63.41 E10.1593
G1 X56.17 Y63.34 E10.176
G1 X56.28 Y63.45 E10.1812
G1 X56.69 Y63.3 E10.1958
G1 X56.8 Y63.41 E10.201
G1 X57.3 Y63.34 E10.2177
G1 X57.41 Y63.45 E10.2229
G1 X57.82 Y63.3 E10.2375
G1 X57.93 Y63.41 E10.2427
G1 X58.43 Y63.34 E10.2594
G1 X58.54 Y63.45 E10.2645
G1 X58.95 Y63.3 E10.2792
G1 X59.06 Y63.41 E10.2844
G1 X59.56 Y63.34 E10.3011
G1 X59.67 Y63.45 E10.3062
G1 X60.09 Y63.3 E10.3209
G1 X60.19 Y63.41 E10.326
G1 X60.69 Y63.34 E10.3428
G1 X60.8 Y63.45 E10.3479
G1 X61.22 Y63.3 E10.3626
G1 X61.33 Y63.41 E10.3677
;
; 'Wipe', 0.0 [RPM], 33.6 [mm/s]
G1 F210
G1 X61.33 Y63.41 Z5.25 E10.3677
; END_LAYER_OBJECT z=4.80
; Reset extruder pos
G92 E0
; BEGIN_LAYER_OBJECT z=5.00
; *** Cooling...speed multiplier is 0.783328 ***
; fan on
M106
;
; 'Loop', 41.8 [RPM], 26.2 [mm/s]
G1 F9000
G1 X61.85 Y63.55 E0
G1 F210
G1 X61.85 Y63.55 Z5 E0
G1 F1570.3
G1 X38.15 Y63.55 E0.788
G1 X38.12 Y63.4 E0.7932
G1 X38.12 Y54.16 E1.1005
G1 X38.08 Y53.82 E1.1119
G1 X37.93 Y53.59 E1.121
G1 X37.7 Y53.44 E1.1301
G1 X37.35 Y53.38 E1.1421
G1 X28.15 Y53.38 E1.4481
G1 X28.12 Y53.2 E1.4542
G1 X28.22 Y53.12 E1.4586
G1 X38.21 Y53.12 E1.791
G1 X38.38 Y53.14 E1.7966
G1 X38.38 Y61.58 E2.0773
G1 X38.42 Y61.78 E2.084
G1 X38.56 Y62.01 E2.0931
G1 X38.79 Y62.16 E2.1022
G1 X39.21 Y62.22 E2.1161
G1 X60.79 Y62.22 E2.8341
G1 X61.21 Y62.16 E2.848
G1 X61.44 Y62.01 E2.8571
G1 X61.58 Y61.78 E2.8662
G1 X61.62 Y61.58 E2.8729
G1 X61.62 Y53.14 E3.1536
G1 X61.79 Y53.12 E3.1592
G1 X71.78 Y53.12 E3.4916
G1 X71.88 Y53.2 E3.4961
G1 X71.85 Y53.38 E3.5021
G1 X62.65 Y53.38 E3.8081
G1 X62.3 Y53.44 E3.8201
G1 X62.07 Y53.59 E3.8292
G1 X61.92 Y53.82 E3.8383
G1 X61.88 Y54.15 E3.8495
G1 X61.88 Y63.4 E4.157
G1 X61.85 Y63.55 E4.1622
; fan off
M107
;
; 'Wipe', 0.0 [RPM], 31.3 [mm/s]
; fan on
M106
;
; 'Perimeter', 21.9 [RPM], 13.7 [mm/s]
G1 F7050
G1 X62.15 Y63.69 E4.1622
G1 F822.5
G1 X62.25 Y63.95 E4.1713
G1 X37.75 Y63.95 E4.9859
G1 X37.71 Y63.8 E4.9911
G1 X37.71 Y54.18 E5.3109
G1 X37.66 Y53.88 E5.3211
G1 X37.52 Y53.81 E5.3263
G1 X37.36 Y53.78 E5.3317
G1 X27.74 Y53.78 E5.6516
G1 X27.71 Y53.62 E5.6569
G1 X27.71 Y52.8 E5.6844
G1 X27.82 Y52.71 E5.6888
G1 X38.62 Y52.71 E6.0481
G1 X38.78 Y52.74 E6.0536
G1 X38.78 Y61.6 E6.3483
G1 X38.84 Y61.73 E6.353
G1 X38.97 Y61.79 E6.3577
G1 X39.18 Y61.82 E6.3648
G1 X60.82 Y61.82 E7.0844
G1 X61.03 Y61.79 E7.0915
G1 X61.16 Y61.73 E7.0962
G1 X61.22 Y61.6 E7.1009
G1 X61.22 Y52.74 E7.3956
G1 X61.38 Y52.71 E7.4012
G1 X72.18 Y52.71 E7.7604
G1 X72.29 Y52.8 E7.7648
G1 X72.29 Y53.62 E7.7923
G1 X72.26 Y53.78 E7.7976
G1 X62.64 Y53.78 E8.1175
G1 X62.48 Y53.81 E8.1229
G1 X62.35 Y53.87 E8.1277
G1 X62.29 Y54.13 E8.1365
G1 X62.29 Y63.8 E8.4583
G1 X62.25 Y63.95 E8.4634
G1 X62.02 Y63.79 E8.4725
; fan off
M107
;
; 'Solid', 50.0 [RPM], 31.3 [mm/s]
G1 F7050
G1 X60.58 Y62.99 E8.4725
G1 F1880
G1 X60.33 Y63.25 E8.4846
G1 X60.06 Y62.95 E8.4979
G1 X59.8 Y63.21 E8.51
;
; 'Solid', 50.0 [RPM], 31.3 [mm/s]
G1 F7050
G1 X59.45 Y62.99 E8.51
G1 F1880
G1 X59.2 Y63.25 E8.5221
G1 X58.93 Y62.95 E8.5355
G1 X58.67 Y63.21 E8.5476
;
; 'Solid', 50.0 [RPM], 31.3 [mm/s]
G1 F7050
G1 X58.32 Y62.99 E8.5476
G1 F1880
G1 X58.06 Y63.25 E8.5597
G1 X57.8 Y62.95 E8.573
G1 X57.54 Y63.21 E8.5852
;
; 'Solid', 50.0 [RPM], 31.3 [mm/s]
G1 F7050
G1 X57.19 Y62.99 E8.5852
G1 F1880
G1 X56.93 Y63.25 E8.5973
G1 X56.67 Y62.95 E8.6106
G1 X56.41 Y63.21 E8.6227
;
; 'Solid', 50.0 [RPM], 31.3 [mm/s]
G1 F7050
G1 X56.06 Y62.99 E8.6227
G1 F1880
G1 X55.8 Y63.25 E8.6348
G1 X55.54 Y62.95 E8.6482
G1 X55.28 Y63.21 E8.6603
;
; 'Solid', 50.0 [RPM], 31.3 [mm/s]
G1 F7050
G1 X54.93 Y62.99 E8.6603
G1 F1880
G1 X54.67 Y63.25 E8.6724
G1 X54.4 Y62.95 E8.6857
G1 X54.15 Y63.21 E8.6978
;
; 'Solid', 50.0 [RPM], 31.3 [mm/s]
G1 F7050
G1 X53.8 Y62.99 E8.6978
G1 F1880
G1 X53.54 Y63.25 E8.71
G1 X53.27 Y62.95 E8.7233
G1 X53.02 Y63.21 E8.7354
;
; 'Solid', 50.0 [RPM], 31.3 [mm/s]
G1 F7050
G1 X52.67 Y62.99 E8.7354
G1 F1880
G1 X52.41 Y63.25 E8.7475
G1 X52.14 Y62.95 E8.7609
G1 X51.88 Y63.21 E8.773
;
; 'Solid', 50.0 [RPM], 31.3 [mm/s]
G1 F7050
G1 X51.53 Y62.99 E8.773
G1 F1880
G1 X51.28 Y63.25 E8.7851
G1 X51.01 Y62.95 E8.7984
G1 X50.75 Y63.21 E8.8105
;
; 'Solid', 50.0 [RPM], 31.3 [mm/s]
G1 F7050
G1 X50.4 Y62.99 E8.8105
G1 F1880
G1 X50.14 Y63.25 E8.8227
G1 X49.88 Y62.95 E8.836
G1 X49.62 Y63.21 E8.8481
;
; 'Solid', 50.0 [RPM], 31.3 [mm/s]
G1 F7050
G1 X49.27 Y62.99 E8.8481
G1 F1880
G1 X49.01 Y63.25 E8.8602
G1 X48.75 Y62.95 E8.8735
G1 X48.49 Y63.21 E8.8857
;
; 'Solid', 50.0 [RPM], 31.3 [mm/s]
G1 F7050
G1 X48.14 Y62.99 E8.8857
G1 F1880
G1 X47.88 Y63.25 E8.8978
G1 X47.62 Y62.95 E8.9111
G1 X47.36 Y63.21 E8.9232
;
; 'Solid', 50.0 [RPM], 31.3 [mm/s]
G1 F7050
G1 X47.01 Y62.99 E8.9232
G1 F1880
G1 X46.75 Y63.25 E8.9353
G1 X46.48 Y62.95 E8.9487
G1 X46.23 Y63.21 E8.9608
;
; 'Solid', 50.0 [RPM], 31.3 [mm/s]
G1 F7050
G1 X45.88 Y62.99 E8.9608
G1 F1880
G1 X45.62 Y63.25 E8.9729
G1 X45.35 Y62.95 E8.9862
G1 X45.1 Y63.21 E8.9984
;
; 'Solid', 50.0 [RPM], 31.3 [mm/s]
G1 F7050
G1 X44.75 Y62.99 E8.9984
G1 F1880
G1 X44.49 Y63.25 E9.0105
G1 X44.22 Y62.95 E9.0238
G1 X43.96 Y63.21 E9.0359
;
; 'Solid', 50.0 [RPM], 31.3 [mm/s]
G1 F7050
G1 X43.61 Y62.99 E9.0359
G1 F1880
G1 X43.36 Y63.25 E9.048
G1 X43.09 Y62.95 E9.0614
G1 X42.83 Y63.21 E9.0735
;
; 'Solid', 50.0 [RPM], 31.3 [mm/s]
G1 F7050
G1 X42.48 Y62.99 E9.0735
G1 F1880
G1 X42.23 Y63.25 E9.0856
G1 X41.96 Y62.95 E9.0989
G1 X41.7 Y63.21 E9.1111
;
; 'Solid', 50.0 [RPM], 31.3 [mm/s]
G1 F7050
G1 X41.35 Y62.99 E9.1111
G1 F1880
G1 X41.09 Y63.25 E9.1232
G1 X40.83 Y62.95 E9.1365
G1 X40.57 Y63.21 E9.1486
;
; 'Solid', 50.0 [RPM], 31.3 [mm/s]
G1 F7050
