; KISSlicer - PRO
; Linux
; version 1.0.9.7
; Built: Jun 12 2012, 22:57:28
;
; Saved: Sat May  4 13:01:16 2013
; 'ServoGuides.gcode'
;
; *** Printer Settings ***
;
; printer_name = Blade-1
; extension = gcode
; cost_per_hour = 2.5
; g_code_prefix = 473238
; g_code_postfix = 0A4D313430205330203B207475726E206F6666206265640A4730205938302046353030303B2050726573656E7420506172740A4D383420202020203B2064697361626C65206D6F746F72730A
; g_code_ext_change = NULL
; post_process = NULL
; num_extruders = 1
; firmware_type = 2
; M104_M109 = 1
; add_comments = 1
; z_speed_mm_per_s = 3.5
; z_settle_mm = 0.25
; bed_size_x_mm = 100
; bed_size_y_mm = 100
; bed_size_z_mm = 150
; bed_offset_x_mm = 50
; bed_offset_y_mm = 60
; bed_offset_z_mm = 0
; bed_roughness_mm = 0.4
; travel_speed_mm_per_s = 150
; first_layer_speed_mm_per_s = 10
; lo_speed_perim_mm_per_s = 10
; lo_speed_solid_mm_per_s = 20
; lo_speed_sparse_mm_per_s = 30
; hi_speed_perim_mm_per_s = 25
; hi_speed_solid_mm_per_s = 60
; hi_speed_sparse_mm_per_s = 75
; ext_mm_per_rev_1 = 1.25
; ext_material_1 = 0
; ext_axis_1 = 0
; ext_mm_per_rev_2 = 1.25
; ext_material_2 = 0
; ext_axis_2 = 0
; ext_mm_per_rev_3 = 1.25
; ext_material_3 = 0
; ext_axis_3 = 0
; model_ext = 0
; support_ext = 0
; support_body_ext = 0
; raft_ext = 0
; solid_loop_overlap_fraction = 0.5
;
; *** Material Settings for Extruder 1 ***
;
; material_name = ABS
; fan_off_ISOs_all = 1
; temperature_C = 250
; keep_warm_C = 150
; first_layer_C = 250
; bed_C = 110
; sec_per_C_per_C = 0
; RPM_min = 3
; RPM_max = 75
; destring_suck = 0.4
; destring_prime = 0.2
; destring_min_mm = 0
; destring_speed_mm_per_s = 15
; min_layer_time_s = 15
; wipe_mm = 0
; cost_per_cm3 = 0.062
; flowrate_tweak = 1
; fiber_dia_mm = 1.75
; color = 0
;
; *** Style Settings ***
;
; style_name = High
; layer_thickness_mm = 0.2
; extrusion_width_mm = 0.4
; num_loops = 2
; skin_thickness_mm = 0.8
; infill_extrusion_width = 0.4
; infill_density_denominator = 4
; stacked_layers = 1
; use_destring = 0
; loops_insideout = 1
; round_infill = 1
;
; *** Actual Slicing Settings As Used ***
;
; layer_thickness_mm = 0.2
; extrusion_width = 0.4
; num_ISOs = 2
; wall_thickness = 0.8
; infill_style = 5
; support_style = 0
; support_angle = 90
; destring_min_mm = 0
; stacked_infill_layers = 1
; ISO_wipe_mm = 0
; raft_style = 0
; extra_raft_depth = 0.4
; oversample_res_mm = 0.125
; crowning_threshold_mm = 1
; loops_insideout = 1
; sheathed_support = 0
; solid_loop_overlap_fraction = 0.5
; inflate_raft_mm = 0
; inflate_support_mm = 1
; model_support_gap_mm = 0.5
; round_infill = 1
; Speed vs Quality = 0.50
;
; *** Header ***
;
; fan off
M107
; [mm] mode
G21
; absolute mode
G90
; *** User-Supplied G-code Prefix ***
;
G28
;
; *** Main G-code ***
;
; Reset extruder pos
G92 E0
; BEGIN_LAYER_OBJECT z=0.20
;
; *** Warming Extruder 1 to 250 C ***
M109 S250
G92 E0
;
;
; 'Loop', 16.0 [RPM], 10.0 [mm/s]
G1 F9000
G1 X31.03 Y45.17 Z0.45 E0
G1 F210
G1 X31.03 Y45.17 Z0.2 E0
G1 F600
G1 X30.71 Y45.41 E0.0135
G1 X30.45 Y45.52 E0.0229
G1 X29.98 Y45.62 E0.0389
G1 X29.7 Y45.6 E0.0482
G1 X29.39 Y45.53 E0.0587
G1 X29.01 Y45.35 E0.0728
G1 X28.8 Y45.18 E0.0817
G1 X28.54 Y44.87 E0.0951
G1 X28.36 Y44.49 E0.1093
G1 X28.3 Y44.13 E0.1213
G1 X28.31 Y43.77 E0.1334
G1 X28.39 Y43.46 E0.1438
G1 X28.51 Y43.2 E0.1532
G1 X28.75 Y42.88 E0.1667
G1 X29.06 Y42.63 E0.1801
G1 X29.45 Y42.45 E0.1943
G1 X29.78 Y42.4 E0.2052
G1 X30.07 Y42.4 E0.215
G1 X30.39 Y42.47 E0.2257
G1 X30.77 Y42.64 E0.2399
G1 X31.08 Y42.9 E0.2533
G1 X31.25 Y43.11 E0.2622
G1 X31.44 Y43.49 E0.2763
G1 X31.52 Y43.97 E0.2926
G1 X31.46 Y44.46 E0.3089
G1 X31.28 Y44.85 E0.3232
G1 X31.03 Y45.17 E0.3365
;
; 'Perimeter', 16.0 [RPM], 10.0 [mm/s]
G1 F9000
G1 X30.95 Y44.95 E0.3365
G1 F600
G1 X30.75 Y44.89 E0.3436
G1 X30.4 Y45.1 E0.3573
G1 X30.12 Y45.2 E0.3672
G1 X29.89 Y45.22 E0.3748
G1 X29.57 Y45.17 E0.3857
G1 X29.19 Y44.98 E0.3998
G1 X28.99 Y44.8 E0.4086
G1 X28.84 Y44.57 E0.4177
G1 X28.73 Y44.31 E0.4273
G1 X28.69 Y43.97 E0.4386
G1 X28.76 Y43.64 E0.4496
G1 X28.87 Y43.38 E0.4591
G1 X29.03 Y43.16 E0.4681
G1 X29.24 Y42.99 E0.477
G1 X29.63 Y42.82 E0.4913
G1 X29.86 Y42.8 E0.499
G1 X30.21 Y42.83 E0.5106
G1 X30.6 Y43.01 E0.5248
G1 X30.8 Y43.18 E0.5337
G1 X31.02 Y43.53 E0.5473
G1 X31.1 Y43.83 E0.5574
G1 X31.1 Y44.2 E0.57
G1 X31.04 Y44.42 E0.5775
G1 X30.92 Y44.67 E0.5869
G1 X30.75 Y44.89 E0.5958
G1 X30.81 Y45.09 E0.6029
;
; 'Wipe', 0.0 [RPM], 10.0 [mm/s]
;
; 'Loop', 16.0 [RPM], 10.0 [mm/s]
G1 F9000
G1 X40.41 Y73.41 E0.6029
G1 F600
G1 X39.44 Y74.33 E0.6473
G1 X38.61 Y75.01 E0.6829
G1 X37.95 Y75.48 E0.7099
G1 X37.13 Y75.98 E0.7418
G1 X35.75 Y76.68 E0.7932
G1 X34.95 Y77 E0.8221
G1 X34.1 Y77.29 E0.8519
G1 X32.74 Y77.62 E0.8985
G1 X31.76 Y77.78 E0.9313
G1 X30.72 Y77.87 E0.9661
G1 X29.29 Y77.87 E1.0138
G1 X28.24 Y77.78 E1.0486
G1 X26.8 Y77.53 E1.0972
G1 X25.9 Y77.29 E1.1282
G1 X25.05 Y77.01 E1.158
G1 X23.73 Y76.45 E1.2059
G1 X22.86 Y76 E1.2384
G1 X21.6 Y75.18 E1.2883
G1 X20.85 Y74.61 E1.3196
G1 X20.25 Y74.09 E1.3463
G1 X19.58 Y73.43 E1.3774
G1 X18.54 Y72.21 E1.4307
G1 X17.7 Y70.97 E1.4804
G1 X17.22 Y70.13 E1.5126
G1 X16.86 Y69.37 E1.5408
G1 X16.28 Y67.87 E1.5942
G1 X16.03 Y66.99 E1.6247
G1 X15.81 Y65.89 E1.6619
G1 X15.64 Y64.55 E1.7069
G1 X15.61 Y63.69 E1.7356
G1 X15.67 Y62.23 E1.7839
G1 X15.79 Y61.22 E1.8177
G1 X15.94 Y60.43 E1.8446
G1 X16.35 Y58.95 E1.8955
G1 X16.71 Y57.99 E1.9297
G1 X17.19 Y56.96 E1.9674
G1 X17.79 Y55.87 E2.009
G1 X18.25 Y55.2 E2.036
G1 X18.73 Y54.55 E2.0629
G1 X19.25 Y53.94 E2.0896
G1 X19.9 Y53.26 E2.1207
G1 X20.58 Y52.63 E2.1517
G1 X21.75 Y51.72 E2.2009
G1 X22.55 Y51.2 E2.2326
G1 X23.48 Y50.69 E2.2681
G1 X24.69 Y50.14 E2.3122
G1 X25.52 Y49.84 E2.3416
G1 X26.24 Y49.62 E2.3667
G1 X27.01 Y49.44 E2.3928
G1 X27.26 Y49.31 E2.4021
G1 X27.45 Y49.12 E2.411
G1 X27.54 Y48.84 E2.4209
G1 X27.54 Y48.7 E2.4256
G1 X27.52 Y42.21 E2.6413
G1 X27.62 Y42.13 E2.6458
G1 X32.25 Y42.11 E2.7996
G1 X32.28 Y42.27 E2.8048
G1 X32.31 Y48.65 E3.017
G1 X32.34 Y48.99 E3.0285
G1 X32.49 Y49.22 E3.0376
G1 X32.72 Y49.37 E3.0467
G1 X33.63 Y49.59 E3.0777
G1 X34.5 Y49.85 E3.108
G1 X35.87 Y50.39 E3.1569
G1 X36.62 Y50.75 E3.1846
G1 X37.47 Y51.23 E3.2169
G1 X38.16 Y51.67 E3.2441
G1 X39.32 Y52.57 E3.2933
G1 X40.02 Y53.2 E3.3244
G1 X40.66 Y53.87 E3.3554
G1 X41.68 Y55.12 E3.4089
G1 X42.21 Y55.91 E3.4405
G1 X42.56 Y56.5 E3.4634
G1 X43 Y57.38 E3.4962
G1 X43.35 Y58.17 E3.5247
G1 X43.56 Y58.71 E3.5441
G1 X43.79 Y59.42 E3.569
G1 X44.01 Y60.33 E3.6
G1 X44.17 Y61.15 E3.6278
G1 X44.3 Y62.12 E3.6603
G1 X44.37 Y63.56 E3.7082
G1 X44.33 Y64.51 E3.74
G1 X44.24 Y65.37 E3.7687
G1 X44.05 Y66.5 E3.8067
G1 X43.74 Y67.7 E3.8479
G1 X43.46 Y68.54 E3.8776
G1 X42.83 Y69.99 E3.93
G1 X42.36 Y70.84 E3.9623
G1 X41.84 Y71.64 E3.9941
G1 X41.03 Y72.72 E4.0389
G1 X40.41 Y73.41 E4.07
;
; 'Perimeter', 16.0 [RPM], 10.0 [mm/s]
G1 F9000
G1 X40.61 Y73.48 E4.07
G1 F600
G1 X40.69 Y73.7 E4.0775
G1 X39.52 Y74.79 E4.1308
G1 X38.68 Y75.46 E4.1665
G1 X37.78 Y76.06 E4.2026
G1 X36.7 Y76.68 E4.244
G1 X35.93 Y77.05 E4.2722
G1 X34.99 Y77.42 E4.3061
G1 X34.28 Y77.65 E4.3309
G1 X33.23 Y77.93 E4.3669
G1 X32.11 Y78.13 E4.4046
G1 X30.92 Y78.26 E4.4444
G1 X30 Y78.29 E4.4752
G1 X28.56 Y78.22 E4.5231
G1 X27.4 Y78.06 E4.5621
G1 X26.77 Y77.93 E4.5834
G1 X25.72 Y77.66 E4.6195
G1 X24.87 Y77.38 E4.6492
G1 X23.81 Y76.94 E4.6876
G1 X22.93 Y76.5 E4.7203
G1 X21.98 Y75.93 E4.7569
G1 X20.67 Y74.98 E4.8108
G1 X19.96 Y74.37 E4.8419
G1 X19.3 Y73.71 E4.873
G1 X18.25 Y72.49 E4.9264
G1 X17.7 Y71.73 E4.9578
G1 X17.21 Y70.95 E4.9883
G1 X16.55 Y69.67 E5.0362
G1 X16.16 Y68.74 E5.0697
G1 X15.83 Y67.76 E5.1044
G1 X15.56 Y66.71 E5.1404
G1 X15.35 Y65.59 E5.1781
G1 X15.24 Y64.57 E5.2123
G1 X15.21 Y63.66 E5.2425
G1 X15.26 Y62.21 E5.2909
G1 X15.39 Y61.2 E5.3247
G1 X15.53 Y60.4 E5.3517
G1 X15.76 Y59.5 E5.3827
G1 X16.08 Y58.5 E5.4176
G1 X16.45 Y57.55 E5.4514
G1 X17.01 Y56.41 E5.4936
G1 X17.43 Y55.7 E5.5211
G1 X17.96 Y54.91 E5.5528
G1 X18.88 Y53.76 E5.6019
G1 X19.61 Y52.98 E5.6373
G1 X20.3 Y52.35 E5.6684
G1 X21.57 Y51.35 E5.722
G1 X22.37 Y50.83 E5.7538
G1 X23.26 Y50.34 E5.7875
G1 X24.38 Y49.82 E5.8285
G1 X25.34 Y49.47 E5.8627
G1 X26.22 Y49.21 E5.893
G1 X26.83 Y49.07 E5.9139
G1 X27.08 Y48.94 E5.9233
G1 X27.14 Y48.72 E5.9308
G1 X27.12 Y41.81 E6.1608
G1 X27.22 Y41.73 E6.1652
G1 X32.65 Y41.71 E6.3457
G1 X32.68 Y41.87 E6.3509
G1 X32.71 Y48.63 E6.5757
G1 X32.77 Y48.94 E6.5864
G1 X33.04 Y49.05 E6.596
G1 X33.81 Y49.23 E6.6221
G1 X34.68 Y49.49 E6.6524
G1 X35.37 Y49.73 E6.6769
G1 X36.42 Y50.2 E6.715
G1 X37.52 Y50.79 E6.7567
G1 X38.33 Y51.3 E6.7885
G1 X39.19 Y51.95 E6.8243
G1 X40.3 Y52.92 E6.8732
G1 X40.95 Y53.59 E6.9042
G1 X41.55 Y54.31 E6.9354
G1 X42.42 Y55.51 E6.9848
G1 X42.92 Y56.33 E7.0168
G1 X43.3 Y57.08 E7.0447
G1 X43.65 Y57.86 E7.0732
G1 X44.01 Y58.82 E7.1073
G1 X44.19 Y59.4 E7.1274
G1 X44.42 Y60.3 E7.1583
G1 X44.57 Y61.09 E7.1851
G1 X44.75 Y62.79 E7.242
G1 X44.77 Y63.63 E7.2699
G1 X44.73 Y64.54 E7.3001
G1 X44.65 Y65.4 E7.3288
G1 X44.49 Y66.37 E7.3615
G1 X44.32 Y67.14 E7.3878
G1 X44.11 Y67.88 E7.4133
G1 X43.82 Y68.72 E7.4429
G1 X43.5 Y69.51 E7.4713
G1 X42.93 Y70.65 E7.5138
G1 X42.36 Y71.59 E7.5504
G1 X41.73 Y72.48 E7.5864
G1 X41.31 Y73 E7.6087
G1 X40.69 Y73.7 E7.6398
G1 X40.47 Y73.63 E7.6473
;
; 'Perimeter', 16.0 [RPM], 10.0 [mm/s]
G1 F9000
G1 X35.02 Y68.25 E7.6473
G1 F600
G1 X34.81 Y68.19 E7.6547
G1 X34.42 Y68.56 E7.6724
G1 X33.67 Y69.12 E7.7038
G1 X32.82 Y69.59 E7.736
G1 X32.29 Y69.81 E7.7552
G1 X31.71 Y70 E7.7752
G1 X31.2 Y70.11 E7.7926
G1 X30.59 Y70.2 E7.813
G1 X29.42 Y70.2 E7.8522
G1 X28.76 Y70.11 E7.8744
G1 X28.29 Y70 E7.8902
G1 X27.58 Y69.77 E7.9151
G1 X27.06 Y69.54 E7.9341
G1 X26.45 Y69.21 E7.9572
G1 X25.78 Y68.74 E7.9843
G1 X25.19 Y68.21 E8.0109
G1 X24.74 Y67.71 E8.0331
G1 X24.21 Y66.92 E8.0647
G1 X23.83 Y66.17 E8.0927
G1 X23.62 Y65.63 E8.1121
G1 X23.37 Y64.67 E8.1451
G1 X23.28 Y63.89 E8.1711
G1 X23.28 Y63.25 E8.1924
G1 X23.31 Y62.72 E8.21
G1 X23.5 Y61.79 E8.2416
G1 X23.74 Y61.07 E8.2669
G1 X24.03 Y60.42 E8.2906
G1 X24.37 Y59.82 E8.3135
G1 X25.03 Y58.97 E8.3493
G1 X25.51 Y58.5 E8.3715
G1 X25.92 Y58.16 E8.3893
G1 X26.25 Y57.93 E8.4028
G1 X26.26 Y57.34 E8.4225
G1 X26.34 Y56.69 E8.4441
G1 X26.47 Y56.26 E8.4592
G1 X26.7 Y55.74 E8.4782
G1 X26.91 Y55.38 E8.4919
G1 X27.44 Y54.77 E8.5186
G1 X27.86 Y54.44 E8.5365
G1 X28.34 Y54.17 E8.5549
G1 X28.89 Y53.96 E8.5743
G1 X29.5 Y53.82 E8.5952
G1 X30.04 Y53.8 E8.6133
G1 X30.68 Y53.86 E8.6345
G1 X31.26 Y54.03 E8.6547
G1 X31.78 Y54.27 E8.6736
G1 X32.13 Y54.49 E8.6873
G1 X32.44 Y54.73 E8.7007
G1 X32.81 Y55.12 E8.7185
G1 X33.19 Y55.68 E8.741
G1 X33.46 Y56.28 E8.7627
G1 X33.61 Y56.8 E8.7807
G1 X33.67 Y57.43 E8.8018
G1 X33.66 Y57.86 E8.816
G1 X33.75 Y57.95 E8.8205
G1 X34.5 Y58.53 E8.8518
G1 X34.97 Y59 E8.8739
G1 X35.47 Y59.63 E8.9007
G1 X35.9 Y60.33 E8.9281
G1 X36.2 Y60.97 E8.9516
G1 X36.44 Y61.67 E8.9763
G1 X36.62 Y62.45 E9.0029
G1 X36.7 Y63.29 E9.0308
G1 X36.69 Y63.87 E9.0503
G1 X36.62 Y64.53 E9.0723
G1 X36.41 Y65.45 E9.1037
G1 X36.1 Y66.27 E9.1329
G1 X35.85 Y66.77 E9.1516
G1 X35.49 Y67.36 E9.1744
G1 X35.16 Y67.79 E9.1923
G1 X34.81 Y68.19 E9.21
G1 X34.88 Y68.4 E9.2174
;
; 'Loop', 16.0 [RPM], 10.0 [mm/s]
G1 F9000
G1 X31.13 Y73.18 E9.2174
G1 F600
G1 X30.92 Y73.35 E9.2263
G1 X30.54 Y73.53 E9.2404
G1 X30.06 Y73.62 E9.2566
G1 X29.79 Y73.6 E9.2657
G1 X29.48 Y73.53 E9.2761
G1 X29.22 Y73.41 E9.2856
G1 X28.9 Y73.17 E9.299
G1 X28.73 Y72.96 E9.3079
G1 X28.67 Y72.83 E9.3127
G1 X28.59 Y72.73 E9.3171
G1 X28.45 Y72.39 E9.3292
G1 X28.41 Y71.97 E9.3432
G1 X28.49 Y71.49 E9.3595
G1 X28.61 Y71.23 E9.369
G1 X28.85 Y70.9 E9.3825
G1 X28.82 Y70.8 E9.3859
G1 X28.71 Y70.57 E9.3942
G1 X28.73 Y70.51 E9.3964
G1 X28.11 Y70.37 E9.4175
G1 X27.54 Y70.19 E9.4375
G1 X26.88 Y69.91 E9.4614
G1 X25.93 Y69.35 E9.4981
G1 X25.29 Y68.86 E9.5249
G1 X24.9 Y68.49 E9.5426
G1 X24.46 Y67.99 E9.5648
G1 X23.91 Y67.22 E9.5963
G1 X23.86 Y67.08 E9.6011
G1 X23.75 Y66.93 E9.6075
G1 X23.52 Y66.48 E9.6242
G1 X23.25 Y65.8 E9.6484
G1 X23.08 Y65.22 E9.6685
G1 X22.96 Y64.63 E9.6886
G1 X22.88 Y63.91 E9.7126
G1 X22.88 Y63.22 E9.7355
G1 X22.94 Y62.54 E9.7585
G1 X23.1 Y61.75 E9.7852
G1 X23.37 Y60.89 E9.8152
G1 X23.66 Y60.24 E9.8389
G1 X24.01 Y59.64 E9.8618
G1 X24.41 Y59.1 E9.8843
G1 X24.75 Y58.68 E9.9021
G1 X25.22 Y58.22 E9.9243
G1 X25.85 Y57.71 E9.951
G1 X25.86 Y57.16 E9.9695
G1 X25.97 Y56.51 E9.9913
G1 X26.21 Y55.81 E10.0159
G1 X26.55 Y55.2 E10.039
G1 X26.88 Y54.78 E10.0569
G1 X27.16 Y54.49 E10.0702
G1 X27.68 Y54.08 E10.0925
G1 X28.17 Y53.81 E10.1109
G1 X28.85 Y53.54 E10.1352
G1 X29.41 Y53.43 E10.1544
G1 X29.83 Y53.39 E10.1682
G1 X30.37 Y53.41 E10.1864
G1 X31.01 Y53.53 E10.208
G1 X31.44 Y53.66 E10.223
G1 X31.96 Y53.9 E10.2418
G1 X32.31 Y54.12 E10.2555
G1 X32.73 Y54.45 E10.2734
G1 X33.09 Y54.84 E10.2911
G1 X33.42 Y55.27 E10.309
G1 X33.69 Y55.76 E10.3275
G1 X33.94 Y56.45 E10.352
G1 X34.06 Y57.08 E10.3734
G1 X34.08 Y57.63 E10.3916
G1 X34.15 Y57.74 E10.3961
G1 X34.78 Y58.24 E10.4229
G1 X35.25 Y58.72 E10.4451
G1 X35.83 Y59.45 E10.4763
G1 X36.26 Y60.15 E10.5037
G1 X36.57 Y60.79 E10.5272
G1 X36.77 Y61.35 E10.5468
G1 X36.96 Y62.1 E10.5725
G1 X37.09 Y63.1 E10.6061
G1 X37.09 Y63.87 E10.6319
G1 X37.02 Y64.56 E10.6547
G1 X36.9 Y65.19 E10.6761
G1 X36.58 Y66.18 E10.711
G1 X36.21 Y66.95 E10.7393
G1 X35.85 Y67.53 E10.762
G1 X35.27 Y68.27 E10.7933
G1 X34.71 Y68.84 E10.8199
G1 X34.07 Y69.33 E10.8467
G1 X33.37 Y69.76 E10.8741
G1 X32.46 Y70.18 E10.9072
G1 X31.89 Y70.36 E10.9271
G1 X31.28 Y70.5 E10.9481
G1 X31.11 Y70.71 E10.957
G1 X31.08 Y70.8 E10.96
G1 X31.18 Y70.88 E10.9644
G1 X31.42 Y71.21 E10.9779
G1 X31.54 Y71.47 E10.9873
G1 X31.63 Y71.94 E11.0034
G1 X31.59 Y72.36 E11.0173
G1 X31.51 Y72.62 E11.0264
G1 X31.39 Y72.87 E11.0358
G1 X31.13 Y73.18 E11.0492
;
; 'Perimeter', 16.0 [RPM], 10.0 [mm/s]
G1 F9000
G1 X31.05 Y72.97 E11.0492
G1 F600
G1 X30.85 Y72.9 E11.0564
G1 X30.62 Y73.05 E11.0654
G1 X30.36 Y73.17 E11.075
G1 X30.04 Y73.22 E11.0858
G1 X29.81 Y73.2 E11.0934
G1 X29.4 Y73.04 E11.1079
G1 X29.18 Y72.89 E11.1169
G1 X29.01 Y72.68 E11.1259
G1 X28.84 Y72.28 E11.1402
G1 X28.81 Y72 E11.1497
G1 X28.86 Y71.67 E11.1608
G1 X29.05 Y71.29 E11.1749
G1 X29.23 Y71.09 E11.1838
G1 X29.46 Y70.94 E11.1928
G1 X29.72 Y70.83 E11.2024
G1 X30.07 Y70.8 E11.214
G1 X30.3 Y70.82 E11.2218
G1 X30.69 Y71 E11.236
G1 X30.9 Y71.17 E11.2449
G1 X31.12 Y71.51 E11.2586
G1 X31.21 Y71.8 E11.2686
G1 X31.22 Y72.14 E11.2801
G1 X31.15 Y72.43 E11.2897
G1 X31.02 Y72.69 E11.2997
G1 X30.85 Y72.9 E11.3086
G1 X30.9 Y73.11 E11.3158
;
; 'Wipe', 0.0 [RPM], 10.0 [mm/s]
;
; 'Crown', 16.0 [RPM], 10.0 [mm/s]
G1 F9000
G1 X30.76 Y70.55 E11.3158
G1 F600
G1 X30.58 Y70.54 E11.3217
G1 X30.59 Y70.56 E11.3225
G1 X30.24 Y70.51 E11.3343
G1 X29.78 Y70.51 E11.3494
G1 X29.44 Y70.54 E11.361
G1 X29.42 Y70.57 E11.3619
G1 X29.26 Y70.56 E11.3674
G1 X29.11 Y70.6 E11.3724
;
; 'Wipe', 0.0 [RPM], 10.0 [mm/s]
;
; 'Solid', 16.0 [RPM], 10.0 [mm/s]
G1 F9000
G1 X31.99 Y70.64 E11.3724
G1 F600
G1 X31.77 Y70.86 E11.3827
G1 X31.87 Y71.32 E11.3985
G1 X32.86 Y70.34 E11.4448
;
; 'Solid', 16.0 [RPM], 10.0 [mm/s]
G1 F9000
G1 X34.08 Y69.68 E11.4448
G1 F600
G1 X31.92 Y71.84 E11.5464
;
; 'Solid', 16.0 [RPM], 10.0 [mm/s]
G1 F9000
G1 X31.88 Y72.45 E11.5464
G1 F600
G1 X43.71 Y60.63 E12.1023
G1 X43.61 Y60.17 E12.1181
G1 X36.17 Y67.59 E12.4676
;
; 'Solid', 16.0 [RPM], 10.0 [mm/s]
G1 F9000
G1 X36.82 Y66.38 E12.4676
G1 F600
G1 X43.49 Y59.72 E12.7812
G1 X43.36 Y59.28 E12.7964
G1 X37.2 Y65.44 E13.0861
G1 X37.37 Y64.7 E13.1111
G1 X43.23 Y58.84 E13.3869
G1 X43.08 Y58.43 E13.4016
G1 X37.44 Y64.07 E13.6672
G1 X37.46 Y63.48 E13.6869
G1 X42.91 Y58.03 E13.9432
G1 X42.74 Y57.64 E13.9575
G1 X37.44 Y62.94 E14.2068
G1 X37.39 Y62.43 E14.2239
G1 X42.54 Y57.27 E14.4663
G1 X42.35 Y56.9 E14.4803
G1 X37.3 Y61.95 E14.7176
G1 X37.19 Y61.49 E14.7332
G1 X42.17 Y56.52 E14.9674
G1 X41.96 Y56.16 E14.9811
G1 X37.05 Y61.06 E15.2118
G1 X36.9 Y60.65 E15.2264
G1 X41.73 Y55.82 E15.4536
G1 X41.5 Y55.49 E15.4671
G1 X36.72 Y60.26 E15.6919
G1 X36.53 Y59.89 E15.7059
G1 X41.26 Y55.16 E15.9283
G1 X41.01 Y54.84 E15.9417
G1 X36.32 Y59.53 E16.1624
G1 X36.09 Y59.19 E16.176
G1 X40.76 Y54.53 E16.3953
G1 X40.5 Y54.23 E16.4086
G1 X35.85 Y58.87 E16.627
G1 X35.59 Y58.56 E16.6403
G1 X40.22 Y53.93 E16.8582
G1 X39.95 Y53.65 E16.8715
G1 X35.32 Y58.27 E17.089
G1 X35.04 Y57.99 E17.1023
G1 X39.66 Y53.37 E17.3199
G1 X39.37 Y53.09 E17.3332
G1 X34.73 Y57.73 E17.5514
G1 X34.43 Y57.46 E17.5647
G1 X39.07 Y52.83 E17.7826
G1 X38.76 Y52.57 E17.796
G1 X34.39 Y56.93 E18.0012
G1 X34.31 Y56.45 E18.0175
G1 X38.44 Y52.33 E18.2116
G1 X38.11 Y52.09 E18.225
G1 X34.18 Y56.02 E18.4099
G1 X34.02 Y55.61 E18.4243
G1 X37.78 Y51.85 E18.6012
G1 X37.43 Y51.63 E18.6148
G1 X33.82 Y55.24 E18.7847
G1 X33.6 Y54.9 E18.7983
G1 X37.08 Y51.42 E18.9621
G1 X36.72 Y51.22 E18.9759
G1 X33.35 Y54.58 E19.1343
G1 X33.08 Y54.29 E19.1476
G1 X36.35 Y51.02 E19.3016
G1 X35.97 Y50.83 E19.3156
G1 X32.77 Y54.03 E19.4661
G1 X32.45 Y53.79 E19.4796
G1 X35.58 Y50.66 E19.6269
G1 X35.18 Y50.49 E19.6412
G1 X32.1 Y53.57 E19.7863
G1 X31.71 Y53.39 E19.8004
G1 X34.77 Y50.33 E19.9443
G1 X34.36 Y50.19 E19.959
G1 X31.3 Y53.24 E20.1026
G1 X30.85 Y53.12 E20.1181
G1 X33.92 Y50.05 E20.2626
G1 X33.48 Y49.93 E20.2778
G1 X30.36 Y53.05 E20.4245
G1 X29.8 Y53.04 E20.4431
G1 X33.02 Y49.82 E20.5945
G1 X32.58 Y49.7 E20.6098
G1 X29.19 Y53.09 E20.7693
G1 X28.37 Y53.34 E20.7976
G1 X32.23 Y49.48 E20.9792
G1 X32.02 Y49.13 E20.9929
G1 X16.06 Y65.08 E21.7433
G1 X16.01 Y64.56 E21.7605
G1 X31.95 Y48.63 E22.51
G1 X31.95 Y48.07 E22.5287
G1 X15.98 Y64.02 E23.2793
G1 X15.97 Y63.47 E23.2977
G1 X31.94 Y47.51 E24.0488
G1 X31.94 Y46.94 E24.0675
G1 X15.99 Y62.89 E24.8176
G1 X16.02 Y62.28 E24.8377
G1 X31.94 Y46.38 E25.586
G1 X31.94 Y45.82 E25.6047
G1 X16.1 Y61.64 E26.3494
G1 X16.2 Y60.98 E26.3719
G1 X31.93 Y45.26 E27.1117
G1 X31.93 Y44.69 E27.1304
G1 X27.9 Y48.72 E27.3201
G1 X27.9 Y48.15 E27.3391
G1 X30.1 Y45.96 E27.4423
G1 X29.54 Y45.95 E27.4609
G1 X27.9 Y47.59 E27.538
G1 X27.9 Y47.03 E27.5567
G1 X29.12 Y45.81 E27.614
G1 X28.75 Y45.61 E27.6278
G1 X27.89 Y46.46 E27.668
G1 X27.89 Y45.9 E27.6868
G1 X28.45 Y45.34 E27.7132
G1 X28.22 Y45.01 E27.7267
G1 X27.89 Y45.34 E27.7423
G1 X27.89 Y44.77 E27.761
G1 X28.01 Y44.65 E27.7669
;
; 'Solid', 16.0 [RPM], 10.0 [mm/s]
G1 F9000
G1 X27.92 Y42.48 E27.7669
G1 F600
G1 X27.89 Y43.07 E27.7868
G1 X28.53 Y42.43 E27.8171
;
; 'Solid', 16.0 [RPM], 10.0 [mm/s]
G1 F9000
G1 X31.33 Y42.46 E27.8171
G1 F600
G1 X31.51 Y42.85 E27.8313
G1 X31.89 Y42.47 E27.8491
G1 X31.93 Y43 E27.8666
G1 X31.74 Y43.19 E27.8755
;
; 'Solid', 16.0 [RPM], 10.0 [mm/s]
G1 F9000
G1 X25.56 Y57.28 E27.8755
G1 F600
G1 X16.3 Y66.53 E28.3105
G1 X16.2 Y66.06 E28.3264
G1 X25.54 Y56.73 E28.7656
G1 X25.8 Y55.91 E28.7941
G1 X16.07 Y65.63 E29.2514
;
; 'Solid', 16.0 [RPM], 10.0 [mm/s]
G1 F9000
G1 X16.27 Y60.34 E29.2514
G1 F600
G1 X26.75 Y49.87 E29.7439
G1 X25.98 Y50.07 E29.7702
G1 X16.56 Y59.48 E30.213
G1 X16.84 Y58.64 E30.2424
G1 X25.12 Y50.37 E30.6317
G1 X24.18 Y50.74 E30.6655
G1 X17.12 Y57.79 E30.9971
;
; 'Solid', 16.0 [RPM], 10.0 [mm/s]
G1 F9000
G1 X17.69 Y56.66 E30.9971
G1 F600
G1 X23.15 Y51.2 E31.2539
;
; 'Solid', 16.0 [RPM], 10.0 [mm/s]
G1 F9000
G1 X21.53 Y52.25 E31.2539
G1 F600
G1 X18.74 Y55.05 E31.3853
;
; 'Solid', 16.0 [RPM], 10.0 [mm/s]
G1 F9000
G1 X23.52 Y59.89 E31.3853
G1 F600
G1 X16.41 Y66.99 E31.7195
G1 X16.53 Y67.43 E31.7347
G1 X22.94 Y61.02 E32.0362
G1 X22.7 Y61.83 E32.0644
G1 X16.66 Y67.86 E32.3481
G1 X16.81 Y68.28 E32.3629
G1 X22.58 Y62.51 E32.6344
G1 X22.52 Y63.14 E32.6554
G1 X16.96 Y68.69 E32.9166
G1 X17.13 Y69.09 E32.9309
G1 X22.52 Y63.71 E33.1842
G1 X22.55 Y64.24 E33.202
G1 X17.31 Y69.48 E33.4484
G1 X17.49 Y69.86 E33.4625
G1 X22.62 Y64.74 E33.7034
G1 X22.72 Y65.21 E33.7192
G1 X17.69 Y70.23 E33.9556
G1 X17.89 Y70.59 E33.9694
G1 X22.83 Y65.66 E34.2018
G1 X22.98 Y66.08 E34.2166
G1 X18.11 Y70.94 E34.4456
G1 X18.33 Y71.29 E34.4592
G1 X23.16 Y66.47 E34.6861
G1 X23.32 Y66.86 E34.7005
G1 X18.56 Y71.62 E34.9244
G1 X18.79 Y71.95 E34.9379
G1 X23.51 Y67.24 E35.1599
G1 X23.74 Y67.58 E35.1734
G1 X19.05 Y72.27 E35.3942
G1 X19.3 Y72.58 E35.4076
G1 X23.97 Y67.92 E35.6268
G1 X24.21 Y68.24 E35.6403
G1 X19.57 Y72.88 E35.8584
G1 X19.84 Y73.17 E35.8717
G1 X24.47 Y68.55 E36.0895
G1 X24.74 Y68.84 E36.1029
G1 X20.12 Y73.46 E36.3203
G1 X20.41 Y73.74 E36.3336
G1 X25.04 Y69.11 E36.5514
G1 X25.35 Y69.37 E36.5648
G1 X20.7 Y74.01 E36.7831
G1 X21.01 Y74.27 E36.7964
G1 X25.67 Y69.61 E37.0156
G1 X26.01 Y69.83 E37.0292
G1 X21.32 Y74.52 E37.2497
G1 X21.64 Y74.77 E37.2631
G1 X26.37 Y70.04 E37.4853
G1 X26.74 Y70.24 E37.4992
G1 X21.97 Y75 E37.7233
G1 X22.31 Y75.23 E37.7369
G1 X27.13 Y70.41 E37.9636
G1 X27.54 Y70.57 E37.9782
G1 X22.65 Y75.45 E38.2079
G1 X23.01 Y75.66 E38.2216
G1 X27.97 Y70.7 E38.455
G1 X28.4 Y70.83 E38.4701
G1 X23.37 Y75.86 E38.7068
G1 X23.74 Y76.06 E38.7207
G1 X28.09 Y71.71 E38.925
G1 X28.06 Y72.31 E38.9447
G1 X24.13 Y76.24 E39.1297
G1 X24.52 Y76.41 E39.1439
G1 X28.2 Y72.73 E39.3171
G1 X28.41 Y73.09 E39.3308
G1 X24.92 Y76.57 E39.4949
G1 X25.33 Y76.73 E39.5095
G1 X28.64 Y73.43 E39.665
G1 X28.96 Y73.67 E39.6785
G1 X25.76 Y76.87 E39.829
G1 X26.19 Y77 E39.8441
G1 X29.34 Y73.86 E39.9919
G1 X29.8 Y73.96 E40.0077
G1 X26.64 Y77.12 E40.1562
G1 X27.1 Y77.22 E40.1719
G1 X30.47 Y73.86 E40.3301
;
; 'Solid', 16.0 [RPM], 10.0 [mm/s]
G1 F9000
G1 X27.53 Y77.37 E40.3301
G1 F600
G1 X43.8 Y61.11 E41.0952
G1 X43.87 Y61.6 E41.1117
G1 X28.07 Y77.39 E41.8547
G1 X28.57 Y77.45 E41.8715
G1 X43.93 Y62.1 E42.5939
G1 X43.98 Y62.63 E42.6113
G1 X29.1 Y77.49 E43.3109
G1 X29.64 Y77.52 E43.329
G1 X44 Y63.17 E44.0041
G1 X44.01 Y63.73 E44.0227
G1 X30.2 Y77.52 E44.6717
G1 X30.79 Y77.5 E44.6911
G1 X43.98 Y64.32 E45.3114
G1 X43.93 Y64.93 E45.332
G1 X31.41 Y77.45 E45.9208
G1 X32.05 Y77.37 E45.9424
G1 X43.85 Y65.58 E46.4971
G1 X43.73 Y66.26 E46.5201
G1 X32.74 Y77.25 E47.0369
G1 X33.46 Y77.09 E47.0616
G1 X43.56 Y67 E47.5361
G1 X43.34 Y67.79 E47.5632
G1 X34.27 Y76.85 E47.9896
G1 X35.14 Y76.55 E48.0202
G1 X43.01 Y68.68 E48.3902
G1 X42.58 Y69.68 E48.4263
G1 X36.03 Y76.22 E48.7338
;
; 'Solid', 16.0 [RPM], 10.0 [mm/s]
G1 F9000
G1 X37.26 Y75.56 E48.7338
G1 F600
G1 X42.04 Y70.78 E48.9585
;
; 'Solid', 16.0 [RPM], 10.0 [mm/s]
G1 F9000
G1 X40.25 Y73.14 E48.9585
G1 F600
G1 X39.56 Y73.82 E48.9909
;
; 'Wipe', 0.0 [RPM], 10.0 [mm/s]
;
; 'Loop', 16.0 [RPM], 10.0 [mm/s]
G1 F9000
G1 X79.62 Y74.17 E48.9909
G1 F600
G1 X79.12 Y74.61 E49.0131
G1 X77.92 Y75.5 E49.0624
G1 X77.1 Y75.99 E49.0944
G1 X75.85 Y76.62 E49.1411
G1 X74.9 Y77 E49.1749
G1 X73.61 Y77.4 E49.2199
G1 X72.69 Y77.61 E49.2514
G1 X71.36 Y77.8 E49.2958
G1 X70.29 Y77.86 E49.3314
G1 X68.93 Y77.82 E49.3767
G1 X67.93 Y77.71 E49.4103
G1 X66.66 Y77.47 E49.4532
G1 X65.77 Y77.22 E49.4838
G1 X64.4 Y76.72 E49.5327
G1 X63.49 Y76.3 E49.5658
G1 X62.76 Y75.9 E49.5935
G1 X62.17 Y75.55 E49.6164
G1 X61.4 Y75 E49.6479
G1 X60.57 Y74.32 E49.6835
G1 X60.61 Y74.2 E49.6878
G1 X60.71 Y74.11 E49.6922
G1 X60.81 Y74.08 E49.6958
G1 X61.07 Y74.1 E49.7044
G1 X61.54 Y74 E49.7205
G1 X61.8 Y73.89 E49.7299
G1 X62.13 Y73.65 E49.7434
G1 X62.38 Y73.34 E49.7568
G1 X62.56 Y72.95 E49.771
G1 X62.62 Y72.63 E49.7818
G1 X62.61 Y72.28 E49.7933
G1 X62.54 Y71.97 E49.8039
G1 X62.36 Y71.59 E49.818
G1 X62.19 Y71.38 E49.8269
G1 X61.88 Y71.12 E49.8402
G1 X61.5 Y70.94 E49.8544
G1 X61.18 Y70.88 E49.8651
G1 X60.87 Y70.88 E49.8756
G1 X60.55 Y70.93 E49.8864
G1 X60.16 Y71.11 E49.9006
G1 X59.84 Y71.36 E49.914
G1 X59.61 Y71.69 E49.9274
G1 X59.49 Y71.95 E49.9369
G1 X59.42 Y72.25 E49.9474
G1 X59.41 Y72.65 E49.9606
G1 X59.37 Y72.77 E49.9648
G1 X59.28 Y72.87 E49.9692
G1 X59.15 Y72.91 E49.9737
G1 X58.64 Y72.29 E50.0004
G1 X58.24 Y71.75 E50.0228
G1 X57.38 Y70.35 E50.0775
G1 X57 Y69.6 E50.1055
G1 X56.45 Y68.26 E50.1536
G1 X56.14 Y67.28 E50.1877
G1 X55.86 Y66.02 E50.2306
G1 X55.71 Y65.03 E50.2638
G1 X55.63 Y63.56 E50.3128
G1 X55.66 Y62.64 E50.3435
G1 X55.82 Y61.16 E50.393
G1 X56.01 Y60.22 E50.4249
G1 X56.4 Y58.86 E50.4721
G1 X56.7 Y58.03 E50.5013
G1 X57.24 Y56.87 E50.5438
G1 X57.79 Y55.91 E50.5806
G1 X58.24 Y55.23 E50.6078
G1 X59.14 Y54.06 E50.657
G1 X59.29 Y54.11 E50.6621
G1 X59.37 Y54.22 E50.6666
G1 X59.41 Y54.32 E50.6703
G1 X59.42 Y54.73 E50.684
G1 X59.5 Y55.04 E50.6943
G1 X59.61 Y55.29 E50.7038
G1 X59.86 Y55.62 E50.7172
G1 X60.17 Y55.87 E50.7306
G1 X60.57 Y56.04 E50.7449
G1 X60.89 Y56.09 E50.7558
G1 X61.3 Y56.06 E50.7692
G1 X61.62 Y55.97 E50.7804
G1 X61.87 Y55.85 E50.7898
G1 X62.18 Y55.59 E50.8032
G1 X62.42 Y55.26 E50.8167
G1 X62.54 Y55 E50.8261
G1 X62.62 Y54.52 E50.8424
G1 X62.58 Y54.1 E50.8564
G1 X62.4 Y53.65 E50.8728
G1 X62.15 Y53.33 E50.8863
G1 X61.83 Y53.08 E50.8997
G1 X61.39 Y52.92 E50.9151
G1 X61.1 Y52.87 E50.9251
G1 X60.8 Y52.89 E50.9351
G1 X60.61 Y52.79 E50.9421
G1 X60.56 Y52.65 E50.9471
G1 X61.39 Y51.97 E50.9828
G1 X62.05 Y51.5 E51.0098
G1 X62.87 Y51 E51.0417
G1 X64.21 Y50.32 E51.0917
G1 X65.06 Y49.98 E51.122
G1 X66.5 Y49.54 E51.1721
G1 X67.27 Y49.36 E51.1984
G1 X68.42 Y49.19 E51.2371
G1 X69.65 Y49.11 E51.2781
G1 X71.05 Y49.14 E51.3249
G1 X72.05 Y49.25 E51.3582
G1 X73.19 Y49.46 E51.3967
G1 X74.24 Y49.74 E51.4328
G1 X75.08 Y50.02 E51.4622
G1 X76.43 Y50.62 E51.5115
G1 X77.25 Y51.06 E51.5423
G1 X78.39 Y51.8 E51.5877
G1 X79.14 Y52.37 E51.619
G1 X79.75 Y52.9 E51.6457
G1 X79.88 Y53.12 E51.6545
G1 X79.51 Y52.95 E51.6684
G1 X79.19 Y52.88 E51.6791
G1 X78.88 Y52.87 E51.6895
G1 X78.56 Y52.93 E51.7004
G1 X78.17 Y53.1 E51.7146
G1 X77.85 Y53.35 E51.728
G1 X77.61 Y53.68 E51.7415
G1 X77.45 Y54.09 E51.756
G1 X77.4 Y54.49 E51.7696
G1 X77.47 Y54.98 E51.7861
G1 X77.66 Y55.36 E51.8002
G1 X77.92 Y55.67 E51.8135
G1 X78.13 Y55.83 E51.8224
G1 X78.51 Y56.02 E51.8366
G1 X79 Y56.1 E51.853
G1 X79.41 Y56.04 E51.8667
G1 X79.81 Y55.88 E51.8812
G1 X80.14 Y55.64 E51.8947
G1 X80.39 Y55.33 E51.9081
G1 X80.57 Y54.9 E51.9236
G1 X80.62 Y54.47 E51.9378
G1 X80.6 Y54.21 E51.9465
G1 X80.5 Y53.84 E51.9593
G1 X80.37 Y53.61 E51.9682
G1 X80.59 Y53.75 E51.977
G1 X81.37 Y54.66 E52.017
G1 X81.86 Y55.31 E52.0439
G1 X82.31 Y55.99 E52.0711
G1 X82.36 Y56.13 E52.0758
G1 X82.52 Y56.35 E52.0849
G1 X82.57 Y56.48 E52.0897
G1 X82.72 Y56.71 E52.0987
G1 X82.77 Y56.85 E52.1036
G1 X83.37 Y58.13 E52.1508
G1 X83.63 Y58.82 E52.1752
G1 X83.85 Y59.54 E52.2003
G1 X84.04 Y60.29 E52.2261
G1 X84.2 Y61.08 E52.2528
G1 X84.3 Y61.91 E52.2807
G1 X84.37 Y62.79 E52.3098
G1 X84.39 Y63.52 E52.3344
G1 X84.33 Y64.74 E52.375
G1 X84.18 Y65.92 E52.4143
G1 X83.87 Y67.3 E52.4616
G1 X83.61 Y68.17 E52.4917
G1 X83.03 Y69.6 E52.5431
G1 X82.62 Y70.39 E52.5726
G1 X81.83 Y71.67 E52.6227
G1 X81.35 Y72.33 E52.6496
G1 X80.93 Y72.84 E52.6719
G1 X80.77 Y72.79 E52.6773
G1 X80.68 Y72.69 E52.6817
G1 X80.62 Y72.57 E52.6864
G1 X80.58 Y72.12 E52.7013
G1 X80.46 Y71.78 E52.7133
G1 X80.4 Y71.65 E52.718
G1 X80.16 Y71.34 E52.7314
G1 X79.84 Y71.09 E52.7448
G1 X79.43 Y70.93 E52.7592
G1 X79.11 Y70.87 E52.7701
G1 X78.7 Y70.9 E52.7837
G1 X78.34 Y71.01 E52.7962
G1 X78.1 Y71.15 E52.8055
G1 X77.89 Y71.32 E52.8144
G1 X77.64 Y71.63 E52.8278
G1 X77.46 Y72.02 E52.842
G1 X77.41 Y72.34 E52.8528
G1 X77.42 Y72.75 E52.8665
G1 X77.5 Y73.05 E52.8767
G1 X77.62 Y73.31 E52.8862
G1 X77.86 Y73.63 E52.8996
G1 X78.18 Y73.87 E52.913
G1 X78.58 Y74.04 E52.9274
G1 X78.91 Y74.09 E52.9383
G1 X79.15 Y74.09 E52.9465
G1 X79.47 Y74.03 E52.9573
G1 X79.53 Y74.04 E52.9591
G1 X79.61 Y74.14 E52.9635
G1 X79.62 Y74.17 E52.9648
;
; 'Wipe', 0.0 [RPM], 10.0 [mm/s]
;
; 'Perimeter', 16.0 [RPM], 10.0 [mm/s]
G1 F9000
G1 X62.11 Y55.37 E52.9648
G1 F600
G1 X61.9 Y55.31 E52.9719
G1 X61.69 Y55.48 E52.9808
G1 X61.3 Y55.66 E52.9951
G1 X60.96 Y55.69 E53.0066
G1 X60.75 Y55.67 E53.0137
G1 X60.35 Y55.5 E53.028
G1 X60.14 Y55.33 E53.0369
G1 X59.95 Y55.05 E53.0483
G1 X59.82 Y54.71 E53.0604
G1 X59.81 Y54.35 E53.0725
G1 X59.87 Y54.1 E53.081
G1 X60.01 Y53.8 E53.0921
G1 X60.18 Y53.59 E53.101
G1 X60.41 Y53.44 E53.1101
G1 X60.67 Y53.32 E53.1196
G1 X60.99 Y53.27 E53.1305
G1 X61.24 Y53.29 E53.1388
G1 X61.65 Y53.45 E53.1533
G1 X61.87 Y53.61 E53.1623
G1 X62.03 Y53.82 E53.1712
G1 X62.2 Y54.22 E53.1856
G1 X62.22 Y54.5 E53.1948
G1 X62.17 Y54.83 E53.2058
G1 X62.05 Y55.09 E53.2153
G1 X61.9 Y55.31 E53.2244
G1 X61.97 Y55.51 E53.2315
;
; 'Wipe', 0.0 [RPM], 10.0 [mm/s]
;
; 'Loop', 16.0 [RPM], 10.0 [mm/s]
G1 F9000
G1 X71.16 Y52.13 E53.2315
G1 F600
G1 X70.84 Y52.37 E53.2449
G1 X70.44 Y52.54 E53.2593
G1 X70.12 Y52.59 E53.2702
G1 X69.71 Y52.56 E53.2839
G1 X69.45 Y52.49 E53.2927
G1 X69.16 Y52.36 E53.3034
G1 X68.85 Y52.1 E53.3168
G1 X68.61 Y51.78 E53.3303
G1 X68.45 Y51.37 E53.3449
G1 X68.4 Y51.04 E53.3558
G1 X68.44 Y50.62 E53.3697
G1 X68.56 Y50.28 E53.3819
G1 X68.62 Y50.15 E53.3866
G1 X68.87 Y49.83 E53.4
G1 X69.19 Y49.59 E53.4134
G1 X69.59 Y49.43 E53.4279
G1 X69.91 Y49.37 E53.4388
G1 X70.32 Y49.4 E53.4524
G1 X70.68 Y49.51 E53.4649
G1 X70.92 Y49.65 E53.4741
G1 X71.13 Y49.82 E53.483
G1 X71.39 Y50.13 E53.4964
G1 X71.56 Y50.52 E53.5107
G1 X71.62 Y50.84 E53.5215
G1 X71.6 Y51.25 E53.535
G1 X71.52 Y51.55 E53.5452
G1 X71.4 Y51.8 E53.5547
G1 X71.16 Y52.13 E53.5681
;
; 'Perimeter', 16.0 [RPM], 10.0 [mm/s]
G1 F9000
G1 X71.08 Y51.9 E53.5681
G1 F600
G1 X70.88 Y51.84 E53.5752
G1 X70.62 Y52.03 E53.5857
G1 X70.26 Y52.17 E53.5985
G1 X69.89 Y52.19 E53.6108
G1 X69.66 Y52.14 E53.6186
G1 X69.34 Y51.99 E53.6305
G1 X69.13 Y51.82 E53.6394
G1 X68.97 Y51.6 E53.6484
G1 X68.86 Y51.34 E53.6579
G1 X68.8 Y51.02 E53.6688
G1 X68.83 Y50.73 E53.6782
G1 X68.99 Y50.33 E53.6926
G1 X69.15 Y50.12 E53.7016
G1 X69.37 Y49.95 E53.7106
G1 X69.77 Y49.79 E53.725
G1 X70.05 Y49.77 E53.7342
G1 X70.37 Y49.83 E53.7451
G1 X70.63 Y49.94 E53.7546
G1 X70.85 Y50.1 E53.7636
G1 X71.02 Y50.31 E53.7725
G1 X71.19 Y50.7 E53.7868
G1 X71.22 Y51.05 E53.7983
G1 X71.18 Y51.27 E53.8059
G1 X71.06 Y51.59 E53.8173
G1 X70.88 Y51.84 E53.8276
G1 X70.94 Y52.04 E53.8347
;
; 'Wipe', 0.0 [RPM], 10.0 [mm/s]
;
; 'Perimeter', 16.0 [RPM], 10.0 [mm/s]
G1 F9000
G1 X80.06 Y55.43 E53.8347
G1 F600
G1 X79.86 Y55.36 E53.8418
G1 X79.64 Y55.52 E53.8507
G1 X79.23 Y55.67 E53.8653
G1 X78.85 Y55.68 E53.878
G1 X78.6 Y55.62 E53.8863
G1 X78.3 Y55.47 E53.8974
G1 X78.11 Y55.29 E53.9063
G1 X77.95 Y55.06 E53.9154
G1 X77.84 Y54.8 E53.925
G1 X77.8 Y54.47 E53.9361
G1 X77.82 Y54.26 E53.9431
G1 X77.98 Y53.86 E53.9574
G1 X78.13 Y53.64 E53.9664
G1 X78.34 Y53.47 E53.9753
G1 X78.74 Y53.3 E53.9896
G1 X78.99 Y53.27 E53.9981
G1 X79.33 Y53.31 E54.0094
G1 X79.71 Y53.5 E54.0235
G1 X79.91 Y53.67 E54.0324
G1 X80.06 Y53.9 E54.0415
G1 X80.18 Y54.16 E54.051
G1 X80.22 Y54.5 E54.0623
G1 X80.19 Y54.76 E54.0709
G1 X80.02 Y55.15 E54.0852
G1 X79.86 Y55.36 E54.0941
G1 X79.91 Y55.56 E54.1012
;
; 'Wipe', 0.0 [RPM], 10.0 [mm/s]
;
; 'Loop', 16.0 [RPM], 10.0 [mm/s]
G1 F9000
G1 X83.65 Y64.63 E54.1012
G1 F600
G1 X83.33 Y64.88 E54.1146
G1 X82.93 Y65.04 E54.1291
G1 X82.61 Y65.09 E54.1399
G1 X82.2 Y65.06 E54.1536
G1 X81.83 Y64.95 E54.1663
G1 X81.71 Y64.88 E54.171
G1 X81.38 Y64.64 E54.1844
G1 X81.13 Y64.33 E54.1978
G1 X80.96 Y63.93 E54.2121
G1 X80.9 Y63.57 E54.2242
G1 X80.92 Y63.22 E54.2361
G1 X81 Y62.92 E54.2464
G1 X81.12 Y62.66 E54.2559
G1 X81.36 Y62.34 E54.2693
G1 X81.68 Y62.09 E54.2827
G1 X82.08 Y61.93 E54.2971
G1 X82.41 Y61.87 E54.308
G1 X82.81 Y61.9 E54.3215
G1 X83.1 Y61.98 E54.3316
G1 X83.36 Y62.1 E54.341
G1 X83.67 Y62.36 E54.3544
G1 X83.91 Y62.68 E54.3679
G1 X84.03 Y62.94 E54.3773
G1 X84.12 Y63.41 E54.3934
G1 X84.09 Y63.83 E54.4072
G1 X83.96 Y64.19 E54.4198
G1 X83.9 Y64.31 E54.4245
G1 X83.65 Y64.63 E54.4379
;
; 'Perimeter', 16.0 [RPM], 10.0 [mm/s]
G1 F9000
G1 X83.57 Y64.41 E54.4379
G1 F600
G1 X83.37 Y64.35 E54.445
G1 X83.15 Y64.51 E54.4539
G1 X82.75 Y64.67 E54.4684
G1 X82.47 Y64.69 E54.4778
G1 X82.15 Y64.63 E54.4887
G1 X81.89 Y64.52 E54.4982
G1 X81.67 Y64.36 E54.5071
G1 X81.5 Y64.15 E54.5161
G1 X81.33 Y63.75 E54.5304
G1 X81.3 Y63.41 E54.542
G1 X81.34 Y63.18 E54.5498
G1 X81.48 Y62.85 E54.5614
G1 X81.65 Y62.62 E54.5709
G1 X81.88 Y62.45 E54.5808
G1 X82.26 Y62.3 E54.5943
G1 X82.62 Y62.27 E54.6062
G1 X82.86 Y62.33 E54.6143
G1 X83.18 Y62.47 E54.6261
G1 X83.39 Y62.64 E54.635
G1 X83.55 Y62.86 E54.644
G1 X83.66 Y63.12 E54.6535
G1 X83.72 Y63.44 E54.6643
G1 X83.7 Y63.73 E54.674
G1 X83.53 Y64.13 E54.6885
G1 X83.37 Y64.35 E54.6974
G1 X83.43 Y64.55 E54.7045
;
; 'Perimeter', 16.0 [RPM], 10.0 [mm/s]
G1 F9000
G1 X80.5 Y73.6 E54.7045
G1 F600
G1 X80.58 Y73.81 E54.712
G1 X79.4 Y74.9 E54.7653
G1 X78.65 Y75.47 E54.7966
G1 X77.56 Y76.19 E54.84
G1 X76.71 Y76.67 E54.8726
G1 X75.89 Y77.05 E54.9025
G1 X75.22 Y77.32 E54.9266
G1 X74.38 Y77.61 E54.9563
G1 X73.49 Y77.85 E54.9869
G1 X72.39 Y78.07 E55.0242
G1 X71.21 Y78.21 E55.0635
G1 X70.32 Y78.26 E55.0934
G1 X68.92 Y78.22 E55.1398
G1 X68.07 Y78.14 E55.1684
G1 X67.1 Y77.97 E55.2011
G1 X66.33 Y77.8 E55.2273
G1 X65.59 Y77.59 E55.2527
G1 X64.35 Y77.14 E55.2968
G1 X63.57 Y76.79 E55.3253
G1 X62.7 Y76.33 E55.3578
G1 X61.89 Y75.83 E55.3897
G1 X60.69 Y74.95 E55.439
G1 X59.98 Y74.34 E55.4701
G1 X58.87 Y73.19 E55.5234
G1 X58.28 Y72.46 E55.5546
G1 X57.72 Y71.7 E55.586
G1 X57.11 Y70.7 E55.6249
G1 X56.69 Y69.9 E55.655
G1 X56.34 Y69.12 E55.6834
G1 X55.98 Y68.16 E55.7176
G1 X55.61 Y66.83 E55.7633
G1 X55.42 Y65.89 E55.7953
G1 X55.31 Y65.06 E55.8232
G1 X55.25 Y64.18 E55.8524
G1 X55.24 Y62.8 E55.8985
G1 X55.33 Y61.75 E55.9334
G1 X55.45 Y60.93 E55.961
G1 X55.61 Y60.14 E55.9877
G1 X55.8 Y59.39 E56.0135
G1 X56.08 Y58.54 E56.0434
G1 X56.62 Y57.2 E56.0915
G1 X57.08 Y56.32 E56.1242
G1 X57.79 Y55.16 E56.1697
G1 X58.35 Y54.4 E56.2011
G1 X59.41 Y53.19 E56.2544
G1 X60.18 Y52.45 E56.2899
G1 X61.21 Y51.6 E56.3345
G1 X61.99 Y51.06 E56.366
G1 X62.82 Y50.57 E56.398
G1 X63.69 Y50.12 E56.4306
G1 X64.74 Y49.66 E56.4688
G1 X65.58 Y49.38 E56.4984
G1 X66.47 Y49.13 E56.5289
G1 X67.24 Y48.96 E56.5553
G1 X68.05 Y48.83 E56.5826
G1 X68.91 Y48.74 E56.6112
G1 X70.38 Y48.71 E56.6601
G1 X71.26 Y48.75 E56.6893
G1 X72.1 Y48.85 E56.7177
G1 X73.06 Y49.02 E56.7501
G1 X74.27 Y49.32 E56.7914
G1 X75.26 Y49.66 E56.8261
G1 X76.3 Y50.1 E56.8638
G1 X77.43 Y50.69 E56.9061
G1 X78.24 Y51.2 E56.938
G1 X79.32 Y52 E56.9828
G1 X80.03 Y52.61 E57.0139
G1 X80.69 Y53.27 E57.045
G1 X81.66 Y54.38 E57.0939
G1 X82.22 Y55.14 E57.1253
G1 X82.66 Y55.83 E57.1525
G1 X83.07 Y56.55 E57.1801
G1 X83.45 Y57.3 E57.2081
G1 X83.99 Y58.65 E57.2564
G1 X84.25 Y59.51 E57.2865
G1 X84.44 Y60.27 E57.3123
G1 X84.64 Y61.39 E57.3502
G1 X84.76 Y62.58 E57.3902
G1 X84.79 Y63.51 E57.4209
G1 X84.72 Y64.94 E57.4687
G1 X84.59 Y65.94 E57.5022
G1 X84.43 Y66.73 E57.529
G1 X84.07 Y68.06 E57.5748
G1 X83.72 Y69.03 E57.6092
G1 X83.37 Y69.82 E57.6376
G1 X82.71 Y71.05 E57.6841
G1 X82.2 Y71.85 E57.7158
G1 X81.64 Y72.61 E57.7472
G1 X81.21 Y73.13 E57.7695
G1 X80.58 Y73.81 E57.8006
G1 X80.36 Y73.74 E57.8081
;
; 'Perimeter', 16.0 [RPM], 10.0 [mm/s]
G1 F9000
G1 X80.1 Y73.38 E57.8081
G1 F600
G1 X79.89 Y73.32 E57.8152
G1 X79.69 Y73.49 E57.8241
G1 X79.29 Y73.66 E57.8384
G1 X78.95 Y73.69 E57.8499
G1 X78.73 Y73.66 E57.8574
G1 X78.36 Y73.5 E57.8705
G1 X78.15 Y73.34 E57.8795
G1 X77.96 Y73.08 E57.8901
G1 X77.82 Y72.72 E57.9029
G1 X77.8 Y72.36 E57.915
G1 X77.86 Y72.12 E57.9231
G1 X78 Y71.81 E57.9347
G1 X78.17 Y71.6 E57.9436
G1 X78.4 Y71.44 E57.9526
G1 X78.66 Y71.32 E57.9621
G1 X78.98 Y71.27 E57.973
G1 X79.25 Y71.29 E57.9822
G1 X79.66 Y71.46 E57.9966
G1 X79.87 Y71.62 E58.0056
G1 X80.04 Y71.83 E58.0145
G1 X80.2 Y72.24 E58.029
G1 X80.22 Y72.51 E58.0382
G1 X80.17 Y72.84 E58.0492
G1 X80.05 Y73.1 E58.0587
G1 X79.89 Y73.32 E58.0676
G1 X79.96 Y73.52 E58.0748
;
; 'Wipe', 0.0 [RPM], 10.0 [mm/s]
;
; 'Loop', 16.0 [RPM], 10.0 [mm/s]
G1 F9000
G1 X77.73 Y70.77 E58.0748
G1 F600
G1 X77.26 Y71.24 E58.097
G1 X76.65 Y71.77 E58.1236
G1 X75.54 Y72.55 E58.1687
G1 X74.81 Y72.95 E58.1964
G1 X73.63 Y73.46 E58.2392
G1 X72.88 Y73.7 E58.2654
G1 X71.84 Y73.94 E58.3009
G1 X70.66 Y74.08 E58.3403
G1 X69.34 Y74.08 E58.3842
G1 X68.62 Y74.01 E58.4085
G1 X67.66 Y73.83 E58.4408
G1 X66.48 Y73.5 E58.4815
G1 X65.81 Y73.23 E58.5057
G1 X64.92 Y72.8 E58.5385
G1 X63.99 Y72.22 E58.575
G1 X63.24 Y71.65 E58.6063
G1 X62.36 Y70.84 E58.6462
G1 X61.82 Y70.24 E58.6729
G1 X61.42 Y69.7 E58.6953
G1 X60.96 Y69.03 E58.7223
G1 X60.9 Y68.9 E58.7272
G1 X60.68 Y68.55 E58.7408
G1 X60.31 Y67.79 E58.7689
G1 X60 Y66.97 E58.7981
G1 X59.94 Y66.84 E58.8029
G1 X59.77 Y66.26 E58.823
G1 X59.62 Y65.65 E58.8438
G1 X59.48 Y64.85 E58.8709
G1 X59.41 Y64.14 E58.8946
G1 X59.41 Y62.85 E58.9377
G1 X59.53 Y61.8 E58.9725
G1 X59.76 Y60.72 E59.0095
G1 X60.03 Y59.85 E59.0396
G1 X60.3 Y59.18 E59.0637
G1 X60.88 Y58.06 E59.1056
G1 X61.32 Y57.37 E59.1328
G1 X61.9 Y56.63 E59.1641
G1 X62.72 Y55.76 E59.204
G1 X63.33 Y55.23 E59.2307
G1 X64.09 Y54.67 E59.2621
G1 X65.03 Y54.1 E59.2986
G1 X65.8 Y53.74 E59.3268
G1 X67.04 Y53.29 E59.3709
G1 X67.86 Y53.08 E59.399
G1 X68.77 Y52.94 E59.4295
G1 X69.83 Y52.87 E59.4649
G1 X70.7 Y52.89 E59.4939
G1 X71.55 Y52.98 E59.5224
G1 X72.65 Y53.2 E59.5596
G1 X73.52 Y53.46 E59.5899
G1 X74.2 Y53.73 E59.6141
G1 X75.33 Y54.29 E59.6562
G1 X76.14 Y54.81 E59.688
G1 X76.78 Y55.3 E59.7148
G1 X77.75 Y56.21 E59.7592
G1 X78.27 Y56.82 E59.7859
G1 X78.76 Y57.46 E59.8127
G1 X79.4 Y58.52 E59.8538
G1 X79.76 Y59.29 E59.882
G1 X80.16 Y60.38 E59.9208
G1 X80.4 Y61.29 E59.9521
G1 X80.54 Y62.1 E59.9792
G1 X80.62 Y63.33 E60.0203
G1 X80.6 Y64.22 E60.0499
G1 X80.53 Y64.93 E60.0737
G1 X80.28 Y66.16 E60.1154
G1 X80.02 Y67.03 E60.1456
G1 X79.75 Y67.71 E60.1698
G1 X79.38 Y68.47 E60.198
G1 X78.74 Y69.52 E60.2391
G1 X78.26 Y70.17 E60.266
G1 X77.73 Y70.77 E60.2926
;
; 'Perimeter', 16.0 [RPM], 10.0 [mm/s]
G1 F9000
G1 X77.66 Y70.56 E60.2926
G1 F600
G1 X77.45 Y70.49 E60.3
G1 X76.97 Y70.96 E60.3222
G1 X76.47 Y71.4 E60.3444
G1 X75.36 Y72.18 E60.3894
G1 X74.64 Y72.58 E60.4171
G1 X73.72 Y72.99 E60.4503
G1 X72.74 Y73.33 E60.4849
G1 X71.98 Y73.51 E60.511
G1 X71.27 Y73.62 E60.5348
G1 X70.28 Y73.69 E60.5679
G1 X69.32 Y73.68 E60.5997
G1 X68.47 Y73.58 E60.6282
G1 X67.77 Y73.45 E60.6519
G1 X66.72 Y73.15 E60.6882
G1 X65.85 Y72.81 E60.7191
G1 X65.22 Y72.5 E60.7426
G1 X64.16 Y71.86 E60.7836
G1 X63.52 Y71.37 E60.8105
G1 X63.02 Y70.93 E60.8327
G1 X62.37 Y70.26 E60.8638
G1 X61.7 Y69.42 E60.8995
G1 X61.32 Y68.85 E60.9221
G1 X60.86 Y68 E60.9545
G1 X60.45 Y67.06 E60.9884
G1 X60.17 Y66.23 E61.0175
G1 X59.99 Y65.47 E61.0435
G1 X59.88 Y64.79 E61.0664
G1 X59.8 Y63.58 E61.107
G1 X59.82 Y62.82 E61.1322
G1 X59.91 Y61.98 E61.1604
G1 X60.16 Y60.78 E61.201
G1 X60.4 Y60.03 E61.2272
G1 X60.79 Y59.1 E61.2607
G1 X61.32 Y58.12 E61.2978
G1 X61.69 Y57.55 E61.3204
G1 X62.18 Y56.91 E61.3473
G1 X63.01 Y56.04 E61.3872
G1 X63.51 Y55.6 E61.4094
G1 X64.27 Y55.04 E61.4408
G1 X65.33 Y54.41 E61.482
G1 X65.97 Y54.1 E61.5055
G1 X67.08 Y53.7 E61.5447
G1 X67.98 Y53.47 E61.5756
G1 X68.94 Y53.32 E61.608
G1 X69.94 Y53.27 E61.6413
G1 X70.82 Y53.3 E61.6706
G1 X71.68 Y53.41 E61.6995
G1 X72.64 Y53.61 E61.7322
G1 X73.47 Y53.87 E61.761
G1 X74.02 Y54.09 E61.7808
G1 X75.03 Y54.59 E61.8182
G1 X75.96 Y55.17 E61.8546
G1 X76.49 Y55.58 E61.8769
G1 X77 Y56.02 E61.8992
G1 X77.91 Y57 E61.9435
G1 X78.39 Y57.64 E61.9704
G1 X78.9 Y58.46 E62.0023
G1 X79.4 Y59.46 E62.0397
G1 X79.62 Y60.03 E62.0599
G1 X79.88 Y60.86 E62.089
G1 X80.09 Y61.82 E62.1214
G1 X80.2 Y62.81 E62.1546
G1 X80.2 Y64.12 E62.1984
G1 X80.12 Y64.97 E62.2265
G1 X79.99 Y65.66 E62.2499
G1 X79.79 Y66.42 E62.2763
G1 X79.5 Y67.26 E62.3058
G1 X79.08 Y68.17 E62.339
G1 X78.67 Y68.89 E62.3666
G1 X78.3 Y69.46 E62.3892
G1 X77.89 Y69.99 E62.4116
G1 X77.45 Y70.49 E62.4338
G1 X77.52 Y70.7 E62.4411
;
; 'Loop', 16.0 [RPM], 10.0 [mm/s]
G1 F9000
G1 X71.11 Y77.16 E62.4411
G1 F600
G1 X70.9 Y77.33 E62.4501
G1 X70.52 Y77.52 E62.4642
G1 X70.03 Y77.59 E62.4805
G1 X69.61 Y77.54 E62.4947
G1 X69.2 Y77.38 E62.5092
G1 X68.88 Y77.14 E62.5227
G1 X68.63 Y76.82 E62.5361
G1 X68.45 Y76.39 E62.5517
G1 X68.4 Y75.96 E62.5659
G1 X68.44 Y75.63 E62.5772
G1 X68.53 Y75.34 E62.5872
G1 X68.66 Y75.09 E62.5964
G1 X68.92 Y74.79 E62.6098
G1 X69.14 Y74.62 E62.6187
G1 X69.52 Y74.44 E62.6329
G1 X69.84 Y74.38 E62.6435
G1 X70.14 Y74.37 E62.6535
G1 X70.46 Y74.43 E62.6644
G1 X70.85 Y74.6 E62.6787
G1 X71.17 Y74.85 E62.6921
G1 X71.41 Y75.17 E62.7055
G1 X71.57 Y75.58 E62.72
G1 X71.62 Y75.98 E62.7336
G1 X71.55 Y76.47 E62.7501
G1 X71.37 Y76.86 E62.7642
G1 X71.11 Y77.16 E62.7776
;
; 'Perimeter', 16.0 [RPM], 10.0 [mm/s]
G1 F9000
G1 X71.03 Y76.96 E62.7776
G1 F600
G1 X70.83 Y76.88 E62.7848
G1 X70.6 Y77.03 E62.7939
G1 X70.34 Y77.15 E62.8034
G1 X69.95 Y77.19 E62.8162
G1 X69.79 Y77.17 E62.8218
G1 X69.38 Y77.01 E62.8364
G1 X69.16 Y76.86 E62.8453
G1 X69 Y76.64 E62.8543
G1 X68.83 Y76.25 E62.8686
G1 X68.8 Y75.99 E62.8773
G1 X68.84 Y75.65 E62.8885
G1 X69.03 Y75.27 E62.9026
G1 X69.21 Y75.07 E62.9115
G1 X69.44 Y74.92 E62.9205
G1 X69.7 Y74.81 E62.93
G1 X70.04 Y74.77 E62.9415
G1 X70.28 Y74.8 E62.9495
G1 X70.67 Y74.97 E62.9638
G1 X70.88 Y75.13 E62.9727
G1 X71.1 Y75.45 E62.9855
G1 X71.2 Y75.76 E62.9962
G1 X71.21 Y76.14 E63.0088
G1 X71.15 Y76.38 E63.017
G1 X71 Y76.68 E63.0283
G1 X70.83 Y76.88 E63.0372
G1 X70.88 Y77.09 E63.0444
;
; 'Wipe', 0.0 [RPM], 10.0 [mm/s]
;
; 'Perimeter', 16.0 [RPM], 10.0 [mm/s]
G1 F9000
G1 X62.05 Y73.44 E63.0444
G1 F600
G1 X61.85 Y73.37 E63.0515
G1 X61.5 Y73.58 E63.0652
G1 X61.22 Y73.68 E63.0751
G1 X61 Y73.7 E63.0822
G1 X60.68 Y73.64 E63.0931
G1 X60.3 Y73.46 E63.1072
G1 X60.1 Y73.28 E63.1161
G1 X59.95 Y73.05 E63.1251
G1 X59.84 Y72.79 E63.1347
G1 X59.8 Y72.45 E63.146
G1 X59.86 Y72.13 E63.1569
G1 X59.97 Y71.87 E63.1664
G1 X60.13 Y71.65 E63.1754
G1 X60.33 Y71.48 E63.1843
G1 X60.73 Y71.3 E63.1986
G1 X60.97 Y71.28 E63.2069
G1 X61.32 Y71.31 E63.2184
G1 X61.7 Y71.49 E63.2326
G1 X61.91 Y71.66 E63.2415
G1 X62.12 Y72.01 E63.2551
G1 X62.21 Y72.31 E63.2653
G1 X62.21 Y72.6 E63.2751
G1 X62.19 Y72.77 E63.2807
G1 X62.02 Y73.16 E63.2949
G1 X61.85 Y73.37 E63.3038
G1 X61.9 Y73.57 E63.3109
;
; 'Wipe', 0.0 [RPM], 10.0 [mm/s]
;
; 'Loop', 16.0 [RPM], 10.0 [mm/s]
G1 F9000
G1 X58.61 Y64.66 E63.3109
G1 F600
G1 X58.28 Y64.9 E63.3244
G1 X57.99 Y65.02 E63.335
G1 X57.54 Y65.09 E63.3502
G1 X57.12 Y65.05 E63.3643
G1 X56.78 Y64.91 E63.3765
G1 X56.65 Y64.85 E63.3812
G1 X56.34 Y64.6 E63.3945
G1 X56.1 Y64.27 E63.408
G1 X55.99 Y64.01 E63.4175
G1 X55.9 Y63.53 E63.4336
G1 X55.91 Y63.28 E63.4421
G1 X56.04 Y62.83 E63.4574
G1 X56.17 Y62.59 E63.4667
G1 X56.33 Y62.38 E63.4756
G1 X56.64 Y62.12 E63.489
G1 X57.03 Y61.94 E63.5031
G1 X57.36 Y61.88 E63.5146
G1 X57.73 Y61.89 E63.5268
G1 X58.04 Y61.96 E63.5373
G1 X58.3 Y62.07 E63.5468
G1 X58.63 Y62.31 E63.5602
G1 X58.88 Y62.62 E63.5736
G1 X59.06 Y63.01 E63.5878
G1 X59.12 Y63.33 E63.5986
G1 X59.11 Y63.65 E63.6092
G1 X59.05 Y63.97 E63.6199
G1 X58.87 Y64.35 E63.6341
G1 X58.61 Y64.66 E63.6474
;
; 'Perimeter', 16.0 [RPM], 10.0 [mm/s]
G1 F9000
G1 X58.53 Y64.45 E63.6474
G1 F600
G1 X58.33 Y64.38 E63.6546
G1 X57.98 Y64.59 E63.6683
G1 X57.69 Y64.68 E63.6784
G1 X57.31 Y64.67 E63.691
G1 X57.08 Y64.61 E63.6989
G1 X56.83 Y64.48 E63.7082
G1 X56.62 Y64.31 E63.7172
G1 X56.41 Y63.96 E63.7308
G1 X56.31 Y63.68 E63.7408
G1 X56.3 Y63.47 E63.7478
G1 X56.35 Y63.15 E63.7586
G1 X56.53 Y62.77 E63.7727
G1 X56.71 Y62.57 E63.7816
G1 X56.94 Y62.42 E63.7907
G1 X57.21 Y62.31 E63.8003
G1 X57.54 Y62.27 E63.8114
G1 X57.86 Y62.33 E63.8222
G1 X58.12 Y62.44 E63.8317
G1 X58.34 Y62.6 E63.8407
G1 X58.51 Y62.8 E63.8496
G1 X58.69 Y63.19 E63.8639
G1 X58.72 Y63.44 E63.8722
G1 X58.68 Y63.79 E63.8838
G1 X58.5 Y64.17 E63.8979
G1 X58.33 Y64.38 E63.9068
G1 X58.39 Y64.59 E63.914
;
; 'Wipe', 0.0 [RPM], 10.0 [mm/s]
;
; 'Crown', 16.0 [RPM], 10.0 [mm/s]
G1 F9000
G1 X60.3 Y52.96 E63.914
G1 F600
G1 X59.9 Y53.3 E63.9318
G1 X59.62 Y53.59 E63.9451
G1 X59.46 Y53.81 E63.9541
;
; 'Crown', 16.0 [RPM], 10.0 [mm/s]
G1 F9000
G1 X59.48 Y73.14 E63.9541
G1 F600
G1 X59.62 Y73.38 E63.9633
G1 X60.09 Y73.85 E63.9855
G1 X60.31 Y74.01 E63.9945
;
; 'Crown', 16.0 [RPM], 10.0 [mm/s]
G1 F9000
G1 X79.88 Y73.88 E63.9945
G1 F600
G1 X80.27 Y73.51 E64.0122
G1 X80.6 Y73.08 E64.0301
;
; 'Solid', 16.0 [RPM], 10.0 [mm/s]
G1 F9000
G1 X80.92 Y72.08 E64.0301
G1 F600
G1 X81.75 Y71.25 E64.0691
;
; 'Solid', 16.0 [RPM], 10.0 [mm/s]
G1 F9000
G1 X82.54 Y69.9 E64.0691
G1 F600
G1 X80.79 Y71.64 E64.1512
G1 X80.58 Y71.29 E64.1649
G1 X82.93 Y68.95 E64.275
G1 X83.26 Y68.05 E64.3069
G1 X80.31 Y70.99 E64.4457
G1 X79.98 Y70.76 E64.4592
G1 X83.52 Y67.22 E64.6258
G1 X83.7 Y66.47 E64.6513
G1 X79.58 Y70.59 E64.845
G1 X79.08 Y70.52 E64.8617
G1 X83.84 Y65.77 E65.0854
G1 X83.93 Y65.11 E65.1075
G1 X78.35 Y70.69 E65.3702
;
; 'Solid', 16.0 [RPM], 10.0 [mm/s]
G1 F9000
G1 X79.36 Y69.11 E65.3702
G1 F600
G1 X83.16 Y65.32 E65.5486
G1 X82.44 Y65.47 E65.5731
G1 X80.09 Y67.82 E65.6837
G1 X80.45 Y66.9 E65.7169
G1 X81.97 Y65.37 E65.7886
G1 X81.56 Y65.22 E65.8032
G1 X80.66 Y66.12 E65.8457
G1 X80.82 Y65.39 E65.8705
G1 X81.23 Y64.98 E65.8898
;
; 'Wipe', 0.0 [RPM], 10.0 [mm/s]
;
; 'Solid', 16.0 [RPM], 10.0 [mm/s]
G1 F9000
G1 X83.97 Y61.68 E65.8898
G1 F600
G1 X83.85 Y61.81 E65.8957
G1 X83.38 Y61.71 E65.9116
G1 X83.86 Y61.23 E65.9339
G1 X83.76 Y60.76 E65.9499
G1 X82.96 Y61.56 E65.9874
G1 X82.43 Y61.53 E66.0052
G1 X83.67 Y60.29 E66.0634
G1 X83.55 Y59.84 E66.0788
G1 X81.62 Y61.77 E66.1694
G1 X80.9 Y61.92 E66.1937
G1 X83.43 Y59.39 E66.3126
G1 X83.31 Y58.95 E66.3279
G1 X80.8 Y61.46 E66.4461
G1 X80.7 Y60.99 E66.462
G1 X83.16 Y58.53 E66.5778
G1 X82.99 Y58.13 E66.5921
G1 X80.58 Y60.54 E66.7055
G1 X80.45 Y60.11 E66.7206
G1 X82.82 Y57.74 E66.832
G1 X82.64 Y57.36 E66.846
G1 X80.31 Y59.68 E66.9554
G1 X80.15 Y59.28 E66.9699
G1 X82.47 Y56.96 E67.0788
G1 X82.26 Y56.61 E67.0926
G1 X79.98 Y58.89 E67.2
G1 X79.79 Y58.5 E67.2141
G1 X82.05 Y56.25 E67.3202
G1 X81.82 Y55.91 E67.3337
G1 X79.59 Y58.14 E67.4386
G1 X79.39 Y57.78 E67.4524
G1 X81.6 Y55.57 E67.5563
G1 X81.36 Y55.24 E67.5698
G1 X79.17 Y57.43 E67.6728
G1 X78.94 Y57.09 E67.6864
G1 X79.76 Y56.28 E67.7248
G1 X79 Y56.47 E67.751
G1 X78.71 Y56.76 E67.7646
;
; 'Solid', 16.0 [RPM], 10.0 [mm/s]
G1 F9000
G1 X77.16 Y54.92 E67.7646
G1 F600
G1 X76.73 Y54.78 E67.7795
G1 X77.02 Y54.49 E67.7929
G1 X77.22 Y53.72 E67.8192
G1 X76.39 Y54.55 E67.858
G1 X76.06 Y54.32 E67.8716
G1 X78.24 Y52.14 E67.9744
G1 X77.91 Y51.9 E67.988
G1 X75.71 Y54.1 E68.0913
G1 X75.35 Y53.9 E68.1051
G1 X77.57 Y51.68 E68.2095
G1 X77.22 Y51.46 E68.2232
G1 X74.99 Y53.7 E68.3283
G1 X74.6 Y53.51 E68.3424
G1 X76.86 Y51.26 E68.4487
G1 X76.5 Y51.06 E68.4626
G1 X74.21 Y53.34 E68.5702
G1 X73.8 Y53.18 E68.5847
G1 X76.12 Y50.87 E68.6936
G1 X75.74 Y50.68 E68.7077
G1 X73.38 Y53.04 E68.8184
G1 X72.94 Y52.91 E68.8335
G1 X75.34 Y50.52 E68.946
G1 X74.93 Y50.35 E68.9605
G1 X72.49 Y52.79 E69.0751
G1 X72.02 Y52.7 E69.0911
G1 X74.51 Y50.21 E69.2081
G1 X74.09 Y50.07 E69.223
G1 X71.57 Y52.58 E69.3413
G1 X71.74 Y51.85 E69.3665
G1 X73.64 Y49.95 E69.456
G1 X73.19 Y49.83 E69.4715
G1 X71.97 Y51.06 E69.5291
G1 X71.93 Y50.53 E69.5468
G1 X72.73 Y49.73 E69.5842
G1 X72.25 Y49.65 E69.6004
G1 X71.78 Y50.11 E69.6222
G1 X71.69 Y49.64 E69.6381
G1 X71.77 Y49.56 E69.6419
;
; 'Wipe', 0.0 [RPM], 10.0 [mm/s]
;
; 'Solid', 16.0 [RPM], 10.0 [mm/s]
G1 F9000
G1 X68.55 Y52.21 E69.6419
G1 F600
G1 X68.08 Y52.67 E69.6639
G1 X67.35 Y52.84 E69.6888
G1 X68.27 Y51.92 E69.7318
G1 X68.12 Y51.51 E69.7466
G1 X66.58 Y53.05 E69.819
G1 X65.64 Y53.42 E69.8526
G1 X68.02 Y51.04 E69.9644
G1 X68.18 Y50.32 E69.989
G1 X64.34 Y54.16 E70.1696
;
; 'Solid', 16.0 [RPM], 10.0 [mm/s]
G1 F9000
G1 X62.8 Y55.13 E70.1696
G1 F600
G1 X68.37 Y49.56 E70.4313
G1 X67.71 Y49.65 E70.4535
G1 X62.97 Y54.39 E70.6764
G1 X62.9 Y53.9 E70.693
G1 X67 Y49.79 E70.886
G1 X66.26 Y49.97 E70.9115
G1 X62.73 Y53.5 E71.0776
G1 X62.49 Y53.17 E71.0911
G1 X65.43 Y50.24 E71.229
G1 X64.52 Y50.58 E71.2611
G1 X62.2 Y52.9 E71.3704
G1 X61.84 Y52.69 E71.3842
G1 X63.57 Y50.96 E71.4656
;
; 'Solid', 16.0 [RPM], 10.0 [mm/s]
G1 F9000
G1 X62.18 Y51.78 E71.4656
G1 F600
G1 X61.44 Y52.53 E71.5004
;
; 'Wipe', 0.0 [RPM], 10.0 [mm/s]
;
; 'Solid', 16.0 [RPM], 10.0 [mm/s]
G1 F9000
G1 X58.36 Y55.61 E71.5004
G1 F600
G1 X59.09 Y54.88 E71.5347
G1 X59.22 Y55.31 E71.5497
G1 X57.63 Y56.9 E71.6246
G1 X57.13 Y57.96 E71.6635
G1 X59.44 Y55.65 E71.7721
G1 X59.7 Y55.96 E71.7854
G1 X56.76 Y58.9 E71.9237
G1 X56.51 Y59.71 E71.952
G1 X60.03 Y56.2 E72.1173
G1 X60.43 Y56.37 E72.1317
G1 X56.32 Y60.47 E72.3249
G1 X56.19 Y61.17 E72.3485
G1 X60.9 Y56.46 E72.5702
G1 X61.57 Y56.36 E72.5927
G1 X56.1 Y61.82 E72.8497
G1 X56.84 Y61.65 E72.8748
G1 X60.69 Y57.8 E73.056
;
; 'Solid', 16.0 [RPM], 10.0 [mm/s]
G1 F9000
G1 X60.06 Y58.99 E73.056
G1 F600
G1 X57.53 Y61.52 E73.175
G1 X58.04 Y61.58 E73.192
G1 X59.6 Y60.02 E73.2654
G1 X59.36 Y60.83 E73.2936
G1 X58.44 Y61.74 E73.3366
G1 X58.78 Y61.97 E73.3502
G1 X59.21 Y61.55 E73.3702
G1 X59.05 Y62.27 E73.3947
G1 X59.01 Y62.3 E73.3963
;
; 'Wipe', 0.0 [RPM], 10.0 [mm/s]
;
; 'Solid', 16.0 [RPM], 10.0 [mm/s]
G1 F9000
G1 X56.29 Y65.03 E73.3963
G1 F600
G1 X56.12 Y65.2 E73.4043
G1 X56.17 Y65.71 E73.4213
G1 X56.63 Y65.25 E73.4428
G1 X57.05 Y65.4 E73.4575
G1 X56.26 Y66.19 E73.4946
G1 X56.36 Y66.65 E73.5104
G1 X57.54 Y65.47 E73.566
G1 X58.34 Y65.24 E73.5936
G1 X56.47 Y67.11 E73.6814
G1 X56.6 Y67.54 E73.6965
G1 X59.15 Y65 E73.8163
G1 X59.22 Y65.49 E73.8328
G1 X56.73 Y67.98 E73.9499
G1 X56.88 Y68.39 E73.9646
G1 X59.32 Y65.95 E74.0794
G1 X59.44 Y66.4 E74.0949
G1 X57.04 Y68.8 E74.2078
G1 X57.21 Y69.19 E74.222
G1 X59.58 Y66.83 E74.3332
G1 X59.71 Y67.26 E74.3482
G1 X57.39 Y69.58 E74.4572
G1 X57.58 Y69.96 E74.4713
G1 X59.89 Y67.65 E74.58
G1 X60.05 Y68.05 E74.5945
G1 X57.78 Y70.32 E74.7014
G1 X57.98 Y70.68 E74.7152
G1 X60.23 Y68.43 E74.8209
G1 X60.42 Y68.81 E74.8349
G1 X58.2 Y71.03 E74.9394
G1 X58.43 Y71.37 E74.953
G1 X60.65 Y69.15 E75.0575
G1 X60.86 Y69.51 E75.0712
G1 X58.66 Y71.7 E75.1746
G1 X58.94 Y71.99 E75.1879
G1 X59.3 Y71.63 E75.2047
;
; 'Solid', 16.0 [RPM], 10.0 [mm/s]
G1 F9000
G1 X60.15 Y70.78 E75.2047
G1 F600
G1 X61.08 Y69.85 E75.2486
G1 X61.32 Y70.17 E75.2621
G1 X60.98 Y70.51 E75.2781
G1 X61.61 Y70.45 E75.2991
;
; 'Solid', 16.0 [RPM], 10.0 [mm/s]
G1 F9000
G1 X62.98 Y71.91 E75.2991
G1 F600
G1 X62.98 Y72.47 E75.3179
G1 X63.3 Y72.16 E75.3326
G1 X63.62 Y72.41 E75.346
G1 X62.75 Y73.27 E75.3869
;
; 'Solid', 16.0 [RPM], 10.0 [mm/s]
G1 F9000
G1 X61.72 Y74.86 E75.3869
G1 F600
G1 X63.95 Y72.63 E75.4919
G1 X64.3 Y72.85 E75.5055
G1 X62.1 Y75.05 E75.6088
G1 X62.44 Y75.28 E75.6223
G1 X64.66 Y73.06 E75.7267
G1 X65.03 Y73.26 E75.7406
G1 X62.79 Y75.49 E75.8458
G1 X63.15 Y75.7 E75.8596
G1 X65.41 Y73.44 E75.9659
G1 X65.8 Y73.62 E75.9802
G1 X63.51 Y75.9 E76.0877
G1 X63.89 Y76.09 E76.1017
G1 X66.21 Y73.78 E76.2106
G1 X66.63 Y73.92 E76.2254
G1 X64.28 Y76.27 E76.336
G1 X64.67 Y76.44 E76.3503
G1 X67.06 Y74.06 E76.4625
G1 X67.51 Y74.17 E76.4781
G1 X65.07 Y76.6 E76.5927
G1 X65.49 Y76.75 E76.6075
G1 X67.98 Y74.27 E76.7244
G1 X68.47 Y74.35 E76.7408
G1 X65.92 Y76.89 E76.8605
G1 X66.36 Y77.01 E76.8757
G1 X68.28 Y75.1 E76.9658
G1 X68.02 Y75.92 E76.9943
G1 X66.81 Y77.13 E77.0511
G1 X67.28 Y77.23 E77.0668
G1 X68.11 Y76.4 E77.1059
G1 X68.26 Y76.82 E77.1206
G1 X67.76 Y77.31 E77.1441
G1 X68.26 Y77.38 E77.1609
G1 X68.5 Y77.14 E77.1722
;
; 'Wipe', 0.0 [RPM], 10.0 [mm/s]
;
; 'Solid', 16.0 [RPM], 10.0 [mm/s]
G1 F9000
G1 X71.22 Y74.42 E77.1722
G1 F600
G1 X71.92 Y74.29 E77.1958
G1 X71.51 Y74.7 E77.2148
G1 X71.74 Y75.03 E77.2284
G1 X72.63 Y74.14 E77.2701
G1 X73.44 Y73.9 E77.2981
G1 X71.91 Y75.43 E77.3699
G1 X71.97 Y75.93 E77.3868
G1 X74.45 Y73.45 E77.5036
;
; 'Solid', 16.0 [RPM], 10.0 [mm/s]
G1 F9000
G1 X75.64 Y72.83 E77.5036
G1 F600
G1 X71.87 Y76.6 E77.6807
G1 X71.65 Y77.38 E77.7079
G1 X77.15 Y71.89 E77.9665
G1 X77.03 Y72.57 E77.9897
G1 X72.29 Y77.31 E78.2125
G1 X72.98 Y77.18 E78.236
G1 X77.13 Y73.04 E78.4308
G1 X77.3 Y73.43 E78.445
G1 X73.74 Y76.99 E78.6123
G1 X74.55 Y76.74 E78.6405
G1 X77.53 Y73.77 E78.7803
G1 X77.82 Y74.05 E78.7936
G1 X75.49 Y76.38 E78.903
G1 X76.54 Y75.89 E78.9414
G1 X78.17 Y74.27 E79.018
G1 X78.59 Y74.4 E79.0329
G1 X77.76 Y75.24 E79.072
;
; 'Wipe', 0.0 [RPM], 10.0 [mm/s]
G1 F210
G1 X77.76 Y75.24 Z0.65 E79.072
; END_LAYER_OBJECT z=0.20
; Reset extruder pos
G92 E0
; BEGIN_LAYER_OBJECT z=0.40
; fan on
M106
;
; 'Loop', 53.3 [RPM], 33.4 [mm/s]
G1 F9000
G1 X31.03 Y45.17 E0
G1 F210
G1 X31.03 Y45.17 Z0.4 E0
G1 F2004.6
G1 X30.71 Y45.41 E0.0134
G1 X30.45 Y45.52 E0.0229
G1 X29.98 Y45.62 E0.0389
G1 X29.7 Y45.6 E0.0482
G1 X29.26 Y45.48 E0.0635
G1 X29.01 Y45.35 E0.0727
G1 X28.8 Y45.18 E0.0816
G1 X28.54 Y44.87 E0.095
G1 X28.36 Y44.49 E0.1092
G1 X28.3 Y44.13 E0.1212
G1 X28.31 Y43.77 E0.1333
G1 X28.39 Y43.46 E0.1437
G1 X28.51 Y43.2 E0.1532
G1 X28.75 Y42.88 E0.1666
G1 X29.06 Y42.63 E0.18
G1 X29.45 Y42.45 E0.1943
G1 X29.78 Y42.4 E0.2051
G1 X30.07 Y42.4 E0.2149
G1 X30.39 Y42.47 E0.2257
G1 X30.77 Y42.64 E0.2398
G1 X31.08 Y42.9 E0.2532
G1 X31.25 Y43.11 E0.2621
G1 X31.44 Y43.49 E0.2762
G1 X31.52 Y43.97 E0.2925
G1 X31.46 Y44.46 E0.3088
G1 X31.28 Y44.85 E0.3231
G1 X31.03 Y45.17 E0.3364
;
; 'Perimeter', 27.9 [RPM], 17.5 [mm/s]
G1 F9000
G1 X30.95 Y44.95 E0.3364
G1 F1050
G1 X30.75 Y44.88 E0.3436
G1 X30.53 Y45.04 E0.3526
G1 X30.12 Y45.2 E0.3671
G1 X29.89 Y45.22 E0.3747
G1 X29.57 Y45.17 E0.3856
G1 X29.19 Y44.98 E0.3997
G1 X28.99 Y44.8 E0.4086
G1 X28.84 Y44.57 E0.4176
G1 X28.73 Y44.31 E0.4273
G1 X28.69 Y43.97 E0.4386
G1 X28.73 Y43.75 E0.4459
G1 X28.84 Y43.45 E0.4565
G1 X29.03 Y43.16 E0.468
G1 X29.24 Y42.99 E0.477
G1 X29.63 Y42.82 E0.4912
G1 X29.86 Y42.8 E0.499
G1 X30.21 Y42.83 E0.5105
G1 X30.6 Y43.01 E0.5247
G1 X30.8 Y43.18 E0.5336
G1 X31.02 Y43.53 E0.5473
G1 X31.1 Y43.83 E0.5574
G1 X31.1 Y44.2 E0.5699
G1 X31.04 Y44.42 E0.5774
G1 X30.92 Y44.67 E0.5868
G1 X30.75 Y44.88 E0.5957
G1 X30.81 Y45.09 E0.6029
; fan off
M107
;
; 'Wipe', 0.0 [RPM], 40.0 [mm/s]
; fan on
M106
;
; 'Loop', 53.3 [RPM], 33.4 [mm/s]
G1 F9000
G1 X40.41 Y73.41 E0.6029
G1 F2004.6
G1 X39.74 Y74.07 E0.6339
G1 X38.61 Y75.01 E0.6829
G1 X37.83 Y75.55 E0.7144
G1 X36.48 Y76.34 E0.7665
G1 X35.62 Y76.74 E0.7979
G1 X34.67 Y77.1 E0.8319
G1 X33.47 Y77.46 E0.8733
G1 X32.51 Y77.66 E0.9061
G1 X31.59 Y77.79 E0.937
G1 X30.22 Y77.88 E0.9828
G1 X29.11 Y77.86 E1.0196
G1 X27.58 Y77.69 E1.0707
G1 X26.8 Y77.53 E1.0974
G1 X25.9 Y77.29 E1.1282
G1 X24.37 Y76.75 E1.1821
G1 X23.58 Y76.38 E1.2111
G1 X22.27 Y75.64 E1.2611
G1 X21.49 Y75.11 E1.2928
G1 X20.35 Y74.17 E1.3418
G1 X19.58 Y73.43 E1.3773
G1 X19.04 Y72.84 E1.4039
G1 X18.54 Y72.21 E1.4307
G1 X17.63 Y70.86 E1.4849
G1 X17.1 Y69.88 E1.5219
G1 X16.58 Y68.7 E1.5647
G1 X16.24 Y67.72 E1.5992
G1 X15.9 Y66.37 E1.6456
G1 X15.73 Y65.4 E1.6782
G1 X15.62 Y64.01 E1.7248
G1 X15.62 Y62.94 E1.7603
G1 X15.7 Y61.89 E1.7953
G1 X15.92 Y60.5 E1.8422
G1 X16.13 Y59.67 E1.8704
G1 X16.4 Y58.81 E1.9004
G1 X16.98 Y57.37 E1.9523
G1 X17.38 Y56.59 E1.9813
G1 X17.79 Y55.87 E2.0089
G1 X18.33 Y55.09 E2.0405
G1 X19.25 Y53.94 E2.0896
G1 X19.9 Y53.26 E2.1206
G1 X20.58 Y52.63 E2.1517
G1 X21.75 Y51.72 E2.2008
G1 X22.55 Y51.2 E2.2326
G1 X23.48 Y50.69 E2.268
G1 X24.69 Y50.14 E2.3122
G1 X25.52 Y49.84 E2.3416
G1 X26.24 Y49.62 E2.3666
G1 X27.01 Y49.44 E2.3927
G1 X27.26 Y49.31 E2.4021
G1 X27.45 Y49.12 E2.4109
G1 X27.54 Y48.84 E2.4208
G1 X27.54 Y48.7 E2.4255
G1 X27.52 Y42.21 E2.6412
G1 X27.62 Y42.13 E2.6457
G1 X32.25 Y42.11 E2.7995
G1 X32.28 Y42.27 E2.8047
G1 X32.31 Y48.65 E3.017
G1 X32.35 Y48.99 E3.0284
G1 X32.49 Y49.22 E3.0375
G1 X32.81 Y49.4 E3.0495
G1 X33.63 Y49.59 E3.0776
G1 X34.5 Y49.85 E3.1078
G1 X35.87 Y50.39 E3.1568
G1 X36.75 Y50.81 E3.1891
G1 X38.04 Y51.6 E3.2394
G1 X38.81 Y52.15 E3.2708
G1 X40.02 Y53.2 E3.3242
G1 X40.66 Y53.87 E3.3552
G1 X41.27 Y54.59 E3.3864
G1 X42.14 Y55.79 E3.4358
G1 X42.63 Y56.62 E3.4677
G1 X42.68 Y56.76 E3.4727
G1 X43.29 Y58.03 E3.5197
G1 X43.56 Y58.71 E3.544
G1 X43.79 Y59.42 E3.5689
G1 X43.86 Y59.72 E3.5791
G1 X44.04 Y60.45 E3.604
G1 X44.19 Y61.28 E3.6321
G1 X44.31 Y62.29 E3.666
G1 X44.37 Y63.61 E3.7097
G1 X44.31 Y64.69 E3.7457
G1 X44.14 Y66.04 E3.7912
G1 X43.93 Y67 E3.8238
G1 X43.5 Y68.4 E3.8725
G1 X43.13 Y69.35 E3.9063
G1 X42.43 Y70.72 E3.9576
G1 X41.92 Y71.53 E3.9894
G1 X41.45 Y72.19 E4.0164
G1 X41.03 Y72.72 E4.0387
G1 X40.41 Y73.41 E4.0698
;
; 'Perimeter', 27.9 [RPM], 17.5 [mm/s]
G1 F9000
G1 X40.61 Y73.48 E4.0698
G1 F1050
G1 X40.69 Y73.7 E4.0773
G1 X40.02 Y74.35 E4.1084
G1 X38.79 Y75.38 E4.1618
G1 X38.01 Y75.92 E4.1934
G1 X37.19 Y76.42 E4.2253
G1 X36.32 Y76.87 E4.2579
G1 X35.26 Y77.32 E4.2962
G1 X34.28 Y77.65 E4.3307
G1 X33.54 Y77.86 E4.3562
G1 X32.61 Y78.06 E4.3879
G1 X31.44 Y78.21 E4.427
G1 X30.01 Y78.29 E4.4747
G1 X29.09 Y78.26 E4.5054
G1 X28.39 Y78.2 E4.5287
G1 X27.4 Y78.06 E4.562
G1 X26.46 Y77.86 E4.5937
G1 X25.72 Y77.66 E4.6193
G1 X24.47 Y77.22 E4.6636
G1 X23.42 Y76.76 E4.7016
G1 X22.52 Y76.27 E4.7356
G1 X21.31 Y75.47 E4.7839
G1 X20.57 Y74.89 E4.8151
G1 X19.96 Y74.37 E4.8418
G1 X18.85 Y73.22 E4.895
G1 X18.17 Y72.39 E4.9307
G1 X17.7 Y71.73 E4.9577
G1 X16.97 Y70.52 E5.0045
G1 X16.55 Y69.67 E5.036
G1 X16.16 Y68.74 E5.0696
G1 X15.83 Y67.76 E5.1042
G1 X15.56 Y66.71 E5.1403
G1 X15.35 Y65.59 E5.178
G1 X15.24 Y64.57 E5.2121
G1 X15.21 Y63.66 E5.2424
G1 X15.26 Y62.21 E5.2908
G1 X15.39 Y61.2 E5.3246
G1 X15.53 Y60.4 E5.3515
G1 X15.76 Y59.5 E5.3826
G1 X16.08 Y58.5 E5.4175
G1 X16.45 Y57.55 E5.4513
G1 X17.01 Y56.41 E5.4935
G1 X17.43 Y55.7 E5.521
G1 X17.96 Y54.91 E5.5526
G1 X18.97 Y53.65 E5.6062
G1 X19.61 Y52.98 E5.6372
G1 X20.3 Y52.35 E5.6683
G1 X21.57 Y51.35 E5.7219
G1 X22.37 Y50.83 E5.7536
G1 X23.26 Y50.34 E5.7874
G1 X24.38 Y49.82 E5.8284
G1 X25.34 Y49.47 E5.8626
G1 X26.22 Y49.21 E5.8929
G1 X26.83 Y49.07 E5.9138
G1 X27.08 Y48.94 E5.9231
G1 X27.14 Y48.72 E5.9307
G1 X27.12 Y41.81 E6.1606
G1 X27.22 Y41.73 E6.1651
G1 X32.65 Y41.71 E6.3455
G1 X32.68 Y41.87 E6.3508
G1 X32.71 Y48.63 E6.5756
G1 X32.77 Y48.94 E6.5862
G1 X33.04 Y49.05 E6.5959
G1 X33.81 Y49.23 E6.622
G1 X34.68 Y49.49 E6.6522
G1 X35.37 Y49.73 E6.6768
G1 X36.42 Y50.2 E6.7148
G1 X37.52 Y50.79 E6.7565
G1 X38.33 Y51.3 E6.7883
G1 X39.09 Y51.86 E6.8197
G1 X40.3 Y52.92 E6.873
G1 X40.95 Y53.59 E6.9041
G1 X41.55 Y54.31 E6.9352
G1 X42.42 Y55.51 E6.9847
G1 X42.92 Y56.33 E7.0166
G1 X43.3 Y57.08 E7.0445
G1 X43.65 Y57.86 E7.073
G1 X44.01 Y58.82 E7.1072
G1 X44.19 Y59.4 E7.1272
G1 X44.42 Y60.3 E7.1582
G1 X44.57 Y61.09 E7.1849
G1 X44.75 Y62.79 E7.2419
G1 X44.77 Y63.63 E7.2698
G1 X44.73 Y64.54 E7.2999
G1 X44.65 Y65.4 E7.3286
G1 X44.49 Y66.37 E7.3614
G1 X44.32 Y67.14 E7.3876
G1 X44.11 Y67.88 E7.4132
G1 X43.82 Y68.72 E7.4428
G1 X43.5 Y69.51 E7.4711
G1 X42.93 Y70.65 E7.5137
G1 X42.28 Y71.71 E7.5548
G1 X41.82 Y72.37 E7.5818
G1 X41.31 Y73 E7.6086
G1 X40.69 Y73.7 E7.6396
G1 X40.48 Y73.63 E7.6472
;
; 'Perimeter', 27.9 [RPM], 17.5 [mm/s]
G1 F9000
G1 X35.02 Y68.25 E7.6472
G1 F1050
G1 X34.81 Y68.19 E7.6545
G1 X34.32 Y68.64 E7.6767
G1 X33.55 Y69.19 E7.7081
G1 X32.82 Y69.59 E7.7359
G1 X32.24 Y69.83 E7.7566
G1 X31.69 Y70 E7.7758
G1 X30.76 Y70.18 E7.8073
G1 X30.05 Y70.22 E7.8309
G1 X29.42 Y70.2 E7.852
G1 X28.59 Y70.07 E7.88
G1 X27.8 Y69.85 E7.9071
G1 X27.06 Y69.54 E7.9339
G1 X26.45 Y69.21 E7.957
G1 X25.68 Y68.66 E7.9885
G1 X25.19 Y68.21 E8.0107
G1 X24.74 Y67.71 E8.0329
G1 X24.21 Y66.92 E8.0645
G1 X23.83 Y66.17 E8.0925
G1 X23.62 Y65.63 E8.1119
G1 X23.37 Y64.67 E8.1449
G1 X23.28 Y63.89 E8.1709
G1 X23.28 Y63.25 E8.1922
G1 X23.31 Y62.72 E8.2098
G1 X23.5 Y61.79 E8.2413
G1 X23.74 Y61.07 E8.2667
G1 X24.03 Y60.42 E8.2904
G1 X24.38 Y59.82 E8.3133
G1 X24.94 Y59.07 E8.3447
G1 X25.41 Y58.59 E8.3668
G1 X25.81 Y58.24 E8.3846
G1 X26.25 Y57.93 E8.4026
G1 X26.26 Y57.34 E8.4223
G1 X26.34 Y56.69 E8.4439
G1 X26.47 Y56.26 E8.459
G1 X26.7 Y55.74 E8.478
G1 X26.91 Y55.38 E8.4917
G1 X27.44 Y54.77 E8.5184
G1 X27.86 Y54.45 E8.5363
G1 X28.34 Y54.17 E8.5547
G1 X28.89 Y53.96 E8.5741
G1 X29.5 Y53.82 E8.595
G1 X30.04 Y53.8 E8.6131
G1 X30.68 Y53.86 E8.6343
G1 X31.26 Y54.03 E8.6545
G1 X31.78 Y54.27 E8.6734
G1 X32.13 Y54.49 E8.6871
G1 X32.54 Y54.83 E8.7049
G1 X32.97 Y55.34 E8.7271
G1 X33.26 Y55.81 E8.7454
G1 X33.48 Y56.33 E8.7645
G1 X33.61 Y56.8 E8.7805
G1 X33.67 Y57.43 E8.8016
G1 X33.66 Y57.86 E8.8158
G1 X33.75 Y57.95 E8.8202
G1 X34.5 Y58.53 E8.8515
G1 X34.97 Y59 E8.8737
G1 X35.54 Y59.74 E8.905
G1 X35.9 Y60.33 E8.9278
G1 X36.2 Y60.97 E8.9514
G1 X36.44 Y61.67 E8.976
G1 X36.62 Y62.45 E9.0026
G1 X36.7 Y63.29 E9.0306
G1 X36.69 Y63.87 E9.05
G1 X36.62 Y64.53 E9.0721
G1 X36.41 Y65.45 E9.1035
G1 X36.1 Y66.27 E9.1327
G1 X35.78 Y66.89 E9.1559
G1 X35.25 Y67.68 E9.1876
G1 X34.81 Y68.19 E9.2098
G1 X34.88 Y68.4 E9.2171
;
; 'Loop', 53.3 [RPM], 33.4 [mm/s]
G1 F9000
G1 X31.13 Y73.18 E9.2171
G1 F2004.6
G1 X30.92 Y73.35 E9.2261
G1 X30.54 Y73.53 E9.2401
G1 X30.06 Y73.62 E9.2563
G1 X29.79 Y73.6 E9.2654
G1 X29.48 Y73.53 E9.2758
G1 X29.22 Y73.41 E9.2853
G1 X28.9 Y73.17 E9.2987
G1 X28.73 Y72.96 E9.3077
G1 X28.67 Y72.83 E9.3124
G1 X28.59 Y72.73 E9.3168
G1 X28.45 Y72.39 E9.3289
G1 X28.41 Y71.97 E9.3429
G1 X28.49 Y71.49 E9.3592
G1 X28.61 Y71.23 E9.3687
G1 X28.85 Y70.9 E9.3822
G1 X28.82 Y70.8 E9.3856
G1 X28.71 Y70.57 E9.3939
G1 X28.73 Y70.51 E9.3962
G1 X28.11 Y70.37 E9.4172
G1 X27.54 Y70.19 E9.4372
G1 X26.51 Y69.71 E9.475
G1 X25.93 Y69.35 E9.4978
G1 X25.29 Y68.86 E9.5246
G1 X24.55 Y68.09 E9.56
G1 X24.14 Y67.55 E9.5824
G1 X23.77 Y66.98 E9.6051
G1 X23.52 Y66.48 E9.6238
G1 X23.31 Y65.93 E9.6432
G1 X23.16 Y65.52 E9.6579
G1 X23.08 Y65.22 E9.6681
G1 X22.96 Y64.63 E9.6883
G1 X22.88 Y63.91 E9.7122
G1 X22.88 Y63.22 E9.7351
G1 X22.94 Y62.54 E9.7581
G1 X23.09 Y61.75 E9.7849
G1 X23.37 Y60.89 E9.8148
G1 X23.66 Y60.24 E9.8385
G1 X24.01 Y59.64 E9.8614
G1 X24.66 Y58.79 E9.8972
G1 X25.12 Y58.31 E9.9194
G1 X25.85 Y57.71 E9.9506
G1 X25.86 Y57.16 E9.9691
G1 X25.97 Y56.51 E9.9908
G1 X26.16 Y55.94 E10.0107
G1 X26.48 Y55.32 E10.034
G1 X26.88 Y54.78 E10.0564
G1 X27.16 Y54.49 E10.0697
G1 X27.57 Y54.15 E10.0876
G1 X28.04 Y53.87 E10.1058
G1 X28.56 Y53.64 E10.1248
G1 X29.18 Y53.47 E10.1461
G1 X29.83 Y53.39 E10.1678
G1 X30.37 Y53.41 E10.1859
G1 X31.01 Y53.53 E10.2075
G1 X31.44 Y53.66 E10.2225
G1 X31.96 Y53.9 E10.2414
G1 X32.31 Y54.12 E10.2551
G1 X32.82 Y54.55 E10.2773
G1 X33.34 Y55.16 E10.304
G1 X33.67 Y55.73 E10.3261
G1 X33.94 Y56.45 E10.3514
G1 X34.06 Y57.08 E10.3729
G1 X34.08 Y57.63 E10.3911
G1 X34.15 Y57.74 E10.3956
G1 X34.78 Y58.24 E10.4223
G1 X35.25 Y58.72 E10.4445
G1 X35.68 Y59.23 E10.4668
G1 X36.26 Y60.15 E10.5031
G1 X36.62 Y60.93 E10.5315
G1 X36.81 Y61.49 E10.5513
G1 X36.96 Y62.1 E10.572
G1 X37.09 Y63.1 E10.6056
G1 X37.09 Y63.87 E10.6313
G1 X37.02 Y64.56 E10.6542
G1 X36.82 Y65.48 E10.6858
G1 X36.52 Y66.32 E10.7153
G1 X36.21 Y66.95 E10.7387
G1 X35.85 Y67.53 E10.7615
G1 X35.18 Y68.37 E10.7972
G1 X34.7 Y68.84 E10.8194
G1 X34.07 Y69.33 E10.8462
G1 X33.25 Y69.83 E10.8782
G1 X32.46 Y70.18 E10.9066
G1 X31.89 Y70.36 E10.9266
G1 X31.28 Y70.5 E10.9475
G1 X31.11 Y70.71 E10.9565
G1 X31.08 Y70.8 E10.9594
G1 X31.18 Y70.88 E10.9639
G1 X31.42 Y71.21 E10.9773
G1 X31.54 Y71.47 E10.9868
G1 X31.63 Y71.94 E11.0029
G1 X31.59 Y72.36 E11.0168
G1 X31.51 Y72.62 E11.0259
G1 X31.38 Y72.87 E11.0352
G1 X31.13 Y73.18 E11.0486
;
; 'Perimeter', 27.9 [RPM], 17.5 [mm/s]
G1 F9000
G1 X31.05 Y72.97 E11.0486
G1 F1050
G1 X30.85 Y72.9 E11.0558
G1 X30.62 Y73.05 E11.0648
G1 X30.36 Y73.17 E11.0743
G1 X30.04 Y73.22 E11.0852
G1 X29.81 Y73.2 E11.0928
G1 X29.4 Y73.04 E11.1073
G1 X29.18 Y72.89 E11.1163
G1 X29.01 Y72.68 E11.1252
G1 X28.84 Y72.28 E11.1395
G1 X28.81 Y72 E11.1491
G1 X28.86 Y71.67 E11.1602
G1 X29.05 Y71.29 E11.1742
G1 X29.23 Y71.09 E11.1831
G1 X29.46 Y70.94 E11.1922
G1 X29.72 Y70.83 E11.2017
G1 X30.07 Y70.8 E11.2134
G1 X30.3 Y70.82 E11.2211
G1 X30.69 Y71 E11.2354
G1 X30.9 Y71.17 E11.2443
G1 X31.12 Y71.51 E11.2579
G1 X31.21 Y71.8 E11.2679
G1 X31.22 Y72.14 E11.2794
G1 X31.15 Y72.43 E11.2891
G1 X31.02 Y72.69 E11.299
G1 X30.85 Y72.9 E11.3079
G1 X30.9 Y73.11 E11.3151
; fan off
M107
;
; 'Wipe', 0.0 [RPM], 40.0 [mm/s]
; fan on
M106
;
; 'Crown', 27.9 [RPM], 17.5 [mm/s]
G1 F9000
G1 X30.76 Y70.55 E11.3151
G1 F1050
G1 X30.58 Y70.54 E11.321
G1 X30.59 Y70.56 E11.3218
G1 X30.24 Y70.51 E11.3336
G1 X29.78 Y70.51 E11.3487
G1 X29.44 Y70.54 E11.3603
G1 X29.42 Y70.57 E11.3613
G1 X29.26 Y70.56 E11.3667
G1 X29.11 Y70.6 E11.3717
; fan off
M107
;
; 'Solid', 63.9 [RPM], 40.0 [mm/s]
G1 F9000
G1 X27.78 Y70.58 E11.3717
G1 F2400
G1 X28.28 Y71.08 E11.3952
G1 X28.12 Y71.5 E11.4099
G1 X26.86 Y70.23 E11.4693
;
; 'Solid', 63.9 [RPM], 40.0 [mm/s]
G1 F9000
G1 X25.38 Y69.32 E11.4693
G1 F2400
G1 X28.03 Y71.97 E11.5939
G1 X28.24 Y72.75 E11.6208
G1 X16.25 Y60.74 E12.1853
G1 X16.16 Y61.22 E12.2015
G1 X32.26 Y77.34 E12.9594
G1 X31.77 Y77.41 E12.976
G1 X16.09 Y61.71 E13.714
G1 X16.03 Y62.22 E13.731
G1 X31.26 Y77.46 E14.4478
G1 X30.74 Y77.5 E14.4653
G1 X15.99 Y62.75 E15.159
G1 X15.97 Y63.29 E15.1772
G1 X30.19 Y77.52 E15.8461
G1 X29.62 Y77.52 E15.8649
G1 X15.98 Y63.86 E16.5069
G1 X16 Y64.46 E16.5266
G1 X29.03 Y77.49 E17.1394
G1 X28.41 Y77.44 E17.1601
G1 X16.06 Y65.08 E17.741
G1 X16.15 Y65.73 E17.763
G1 X27.74 Y77.34 E18.3086
G1 X27.05 Y77.21 E18.3321
G1 X16.28 Y66.43 E18.8388
G1 X16.45 Y67.17 E18.864
G1 X26.3 Y77.02 E19.3271
G1 X25.49 Y76.78 E19.355
G1 X16.71 Y68 E19.7681
G1 X17.04 Y68.89 E19.7997
G1 X24.57 Y76.43 E20.1542
G1 X23.54 Y75.96 E20.1921
G1 X17.41 Y69.83 E20.4805
;
; 'Solid', 63.9 [RPM], 40.0 [mm/s]
G1 F9000
G1 X18.17 Y71.15 E20.4805
G1 F2400
G1 X22.29 Y75.28 E20.6746
;
; 'Solid', 63.9 [RPM], 40.0 [mm/s]
G1 F9000
G1 X24.2 Y68.14 E20.6746
G1 F2400
G1 X16.35 Y60.28 E21.0441
G1 X16.46 Y59.82 E21.0596
G1 X23.2 Y66.56 E21.3766
G1 X22.8 Y65.6 E21.4113
G1 X16.59 Y59.39 E21.7035
G1 X16.73 Y58.96 E21.7185
G1 X22.64 Y64.88 E21.9969
G1 X22.54 Y64.21 E22.0193
G1 X16.88 Y58.54 E22.2859
G1 X17.04 Y58.14 E22.3004
G1 X22.52 Y63.62 E22.5581
G1 X22.52 Y63.06 E22.5767
G1 X17.21 Y57.74 E22.8268
G1 X17.39 Y57.36 E22.8409
G1 X22.58 Y62.55 E23.085
G1 X22.65 Y62.06 E23.1014
G1 X17.58 Y56.98 E23.3401
G1 X17.78 Y56.62 E23.3539
G1 X22.76 Y61.6 E23.5883
G1 X22.89 Y61.16 E23.6035
G1 X17.99 Y56.26 E23.834
G1 X18.21 Y55.91 E23.8476
G1 X23.04 Y60.75 E24.075
G1 X23.21 Y60.35 E24.0893
G1 X18.43 Y55.57 E24.3141
G1 X18.67 Y55.24 E24.3276
G1 X23.4 Y59.97 E24.5501
G1 X23.6 Y59.61 E24.5639
G1 X18.91 Y54.92 E24.7847
G1 X19.16 Y54.6 E24.7981
G1 X23.83 Y59.27 E25.0177
G1 X24.06 Y58.94 E25.0312
G1 X19.42 Y54.3 E25.2497
G1 X19.69 Y54 E25.263
G1 X24.32 Y58.63 E25.4809
G1 X24.59 Y58.34 E25.4942
G1 X19.96 Y53.71 E25.7118
G1 X20.25 Y53.43 E25.7251
G1 X24.87 Y58.05 E25.9426
G1 X25.17 Y57.79 E25.9559
G1 X20.54 Y53.15 E26.174
G1 X20.84 Y52.89 E26.1873
G1 X25.46 Y57.51 E26.4048
G1 X25.52 Y57 E26.4219
G1 X21.15 Y52.63 E26.6275
G1 X21.46 Y52.38 E26.6409
G1 X25.6 Y56.52 E26.8355
G1 X25.72 Y56.08 E26.8508
G1 X21.79 Y52.14 E27.0359
G1 X22.12 Y51.9 E27.0494
G1 X25.88 Y55.67 E27.2266
G1 X26.07 Y55.29 E27.2406
G1 X22.46 Y51.68 E27.4105
G1 X22.81 Y51.47 E27.4241
G1 X26.29 Y54.95 E27.5878
G1 X26.54 Y54.62 E27.6012
G1 X23.17 Y51.26 E27.7595
G1 X23.54 Y51.06 E27.7734
G1 X26.81 Y54.33 E27.9272
G1 X27.11 Y54.06 E27.9405
G1 X23.92 Y50.87 E28.0906
G1 X24.3 Y50.69 E28.1048
G1 X27.43 Y53.82 E28.2518
G1 X27.78 Y53.6 E28.2654
G1 X24.7 Y50.53 E28.4101
G1 X25.11 Y50.37 E28.4247
G1 X28.15 Y53.41 E28.5679
G1 X28.56 Y53.26 E28.5825
G1 X25.52 Y50.22 E28.7256
G1 X25.95 Y50.08 E28.7406
G1 X29 Y53.13 E28.8841
G1 X29.49 Y53.06 E28.9006
G1 X26.39 Y49.96 E29.0465
G1 X26.85 Y49.85 E29.062
G1 X30.03 Y53.03 E29.2117
G1 X30.66 Y53.09 E29.2328
G1 X27.27 Y49.71 E29.392
G1 X27.62 Y49.48 E29.4056
G1 X31.51 Y53.38 E29.5886
;
; 'Solid', 63.9 [RPM], 40.0 [mm/s]
G1 F9000
G1 X33.01 Y54.32 E29.5886
G1 F2400
G1 X27.84 Y49.14 E29.8319
G1 X27.9 Y48.63 E29.849
G1 X43.95 Y64.7 E30.6043
G1 X43.99 Y64.17 E30.6219
G1 X27.9 Y48.07 E31.3789
G1 X27.9 Y47.5 E31.3978
G1 X44 Y63.62 E32.1556
G1 X44 Y63.05 E32.1747
G1 X27.9 Y46.93 E32.9323
G1 X27.89 Y46.36 E32.9512
G1 X43.96 Y62.44 E33.7072
G1 X43.9 Y61.82 E33.728
G1 X27.89 Y45.8 E34.4815
G1 X27.89 Y45.23 E34.5004
G1 X43.8 Y61.16 E35.2492
G1 X43.67 Y60.46 E35.2728
G1 X33.05 Y49.83 E35.7724
G1 X33.81 Y50.02 E35.7983
G1 X43.48 Y59.7 E36.2536
G1 X43.25 Y58.91 E36.2811
G1 X34.65 Y50.29 E36.6862
G1 X35.56 Y50.64 E36.7187
G1 X42.88 Y57.97 E37.0632
G1 X42.38 Y56.9 E37.1024
G1 X36.53 Y51.04 E37.3778
;
; 'Solid', 63.9 [RPM], 40.0 [mm/s]
G1 F9000
G1 X37.95 Y51.9 E37.3778
G1 F2400
G1 X41.66 Y55.61 E37.5525
;
; 'Solid', 63.9 [RPM], 40.0 [mm/s]
G1 F9000
G1 X34.1 Y55.97 E37.5525
G1 F2400
G1 X43.83 Y65.71 E38.0104
G1 X43.74 Y66.19 E38.0266
G1 X34.37 Y56.81 E38.4675
G1 X34.44 Y57.44 E38.4887
G1 X43.65 Y66.66 E38.9219
G1 X43.53 Y67.11 E38.9374
G1 X36.72 Y60.29 E39.2578
G1 X37.13 Y61.27 E39.293
G1 X43.41 Y67.55 E39.5885
G1 X43.27 Y67.98 E39.6034
G1 X37.31 Y62.01 E39.8838
G1 X37.42 Y62.69 E39.9067
G1 X43.13 Y68.4 E40.1751
G1 X42.96 Y68.8 E40.1895
G1 X37.46 Y63.29 E40.4486
G1 X37.45 Y63.86 E40.4674
G1 X42.8 Y69.2 E40.7187
G1 X42.61 Y69.59 E40.7329
G1 X37.41 Y64.38 E40.9779
G1 X37.34 Y64.87 E40.9945
G1 X42.43 Y69.97 E41.234
G1 X42.23 Y70.33 E41.2479
G1 X37.23 Y65.33 E41.4829
G1 X37.11 Y65.78 E41.4981
G1 X42.02 Y70.69 E41.7293
G1 X41.8 Y71.04 E41.7429
G1 X36.96 Y66.19 E41.9709
G1 X36.8 Y66.59 E41.9853
G1 X41.58 Y71.38 E42.2104
G1 X41.35 Y71.71 E42.2239
G1 X36.61 Y66.97 E42.4469
G1 X36.41 Y67.33 E42.4607
G1 X41.11 Y72.04 E42.6819
G1 X40.86 Y72.35 E42.6953
G1 X36.19 Y67.68 E42.9149
G1 X35.95 Y68.01 E42.9284
G1 X40.6 Y72.66 E43.1471
G1 X40.33 Y72.96 E43.1604
G1 X35.7 Y68.33 E43.3784
G1 X35.44 Y68.63 E43.3918
G1 X40.06 Y73.25 E43.6093
G1 X39.78 Y73.54 E43.6226
G1 X35.15 Y68.91 E43.8402
G1 X34.86 Y69.18 E43.8535
G1 X39.49 Y73.81 E44.0714
G1 X39.19 Y74.08 E44.0848
G1 X34.54 Y69.43 E44.3033
G1 X34.22 Y69.67 E44.3168
G1 X38.88 Y74.34 E44.5364
G1 X38.57 Y74.59 E44.5497
G1 X33.87 Y69.89 E44.7705
G1 X33.51 Y70.09 E44.7843
G1 X38.24 Y74.83 E45.0071
G1 X37.91 Y75.07 E45.0206
G1 X33.14 Y70.29 E45.2453
G1 X32.74 Y70.46 E45.2597
G1 X37.57 Y75.29 E45.4871
G1 X37.22 Y75.51 E45.5007
G1 X32.32 Y70.61 E45.7313
G1 X31.89 Y70.73 E45.7464
G1 X36.87 Y75.72 E45.9808
G1 X36.5 Y75.92 E45.9946
G1 X31.79 Y71.2 E46.2163
G1 X32.01 Y71.99 E46.2436
G1 X36.13 Y76.11 E46.4371
G1 X35.74 Y76.29 E46.4513
G1 X31.93 Y72.48 E46.6303
G1 X31.78 Y72.89 E46.645
G1 X35.34 Y76.46 E46.8126
G1 X34.94 Y76.62 E46.827
G1 X31.56 Y73.24 E46.9861
G1 X31.28 Y73.52 E46.9994
G1 X34.52 Y76.77 E47.1519
G1 X34.1 Y76.91 E47.1669
G1 X30.94 Y73.75 E47.3152
G1 X30.53 Y73.9 E47.3299
G1 X33.66 Y77.03 E47.4769
G1 X33.21 Y77.15 E47.4923
G1 X30.06 Y74 E47.6405
G1 X29.32 Y73.82 E47.6659
G1 X32.79 Y77.3 E47.8294
;
; 'Solid', 63.9 [RPM], 40.0 [mm/s]
G1 F9000
G1 X43.95 Y65.27 E47.8294
G1 F2400
G1 X33.08 Y54.38 E48.3414
;
; 'Solid', 63.9 [RPM], 40.0 [mm/s]
G1 F9000
G1 X32.02 Y48.79 E48.3414
G1 F2400
G1 X28.85 Y45.62 E48.4906
G1 X29.81 Y46.01 E48.5252
G1 X31.95 Y48.16 E48.6259
G1 X31.94 Y47.59 E48.6448
G1 X30.29 Y45.93 E48.7225
G1 X30.73 Y45.8 E48.7376
G1 X31.94 Y47.02 E48.7947
G1 X31.94 Y46.45 E48.8136
G1 X31.08 Y45.59 E48.8541
G1 X31.37 Y45.32 E48.8674
G1 X31.94 Y45.88 E48.8938
G1 X31.93 Y45.31 E48.9127
G1 X31.62 Y45 E48.9277
G1 X31.84 Y44.66 E48.9412
G1 X31.99 Y44.81 E48.9482
G1 X31.95 Y44.2 E48.9686
G1 X31.82 Y44.06 E48.9747
G1 X31.99 Y43.67 E48.989
G1 X31.78 Y43.46 E48.9988
G1 X31.94 Y43.06 E49.0133
G1 X31.36 Y42.48 E49.0405
G1 X31.93 Y42.48 E49.0592
G1 X31.95 Y42.5 E49.0603
;
; 'Solid', 63.9 [RPM], 40.0 [mm/s]
G1 F9000
G1 X28.54 Y42.48 E49.0603
G1 F2400
G1 X27.98 Y42.49 E49.0787
G1 X28.32 Y42.83 E49.0947
G1 X28.07 Y43.14 E49.108
G1 X27.86 Y42.94 E49.1177
G1 X27.84 Y43.48 E49.1359
G1 X27.99 Y43.63 E49.1426
G1 X27.91 Y44.12 E49.1593
G1 X28.01 Y44.22 E49.1639
G1 X27.83 Y44.6 E49.178
G1 X28.44 Y45.21 E49.2067
;
; 'Wipe', 0.0 [RPM], 40.0 [mm/s]
; fan on
M106
;
; 'Perimeter', 27.9 [RPM], 17.5 [mm/s]
G1 F9000
G1 X62.05 Y73.44 E49.2067
G1 F1050
G1 X61.85 Y73.37 E49.2138
G1 X61.5 Y73.58 E49.2275
G1 X61.22 Y73.68 E49.2374
G1 X61 Y73.7 E49.2445
G1 X60.68 Y73.64 E49.2554
G1 X60.3 Y73.46 E49.2695
G1 X60.1 Y73.28 E49.2784
G1 X59.95 Y73.05 E49.2874
G1 X59.84 Y72.79 E49.297
G1 X59.8 Y72.45 E49.3082
G1 X59.86 Y72.13 E49.3192
G1 X59.97 Y71.87 E49.3287
G1 X60.13 Y71.64 E49.3377
G1 X60.33 Y71.48 E49.3466
G1 X60.73 Y71.3 E49.3609
G1 X60.98 Y71.27 E49.3692
G1 X61.32 Y71.31 E49.3807
G1 X61.7 Y71.49 E49.3949
G1 X61.91 Y71.66 E49.4038
G1 X62.12 Y72.01 E49.4175
G1 X62.21 Y72.31 E49.4276
G1 X62.2 Y72.69 E49.4402
G1 X62.14 Y72.91 E49.4478
G1 X62.02 Y73.16 E49.4572
G1 X61.85 Y73.37 E49.4661
G1 X61.9 Y73.57 E49.4732
; fan off
M107
;
; 'Wipe', 0.0 [RPM], 40.0 [mm/s]
; fan on
M106
;
; 'Loop', 53.3 [RPM], 33.4 [mm/s]
G1 F9000
G1 X71.11 Y77.16 E49.4732
G1 F2004.6
G1 X70.9 Y77.33 E49.4822
G1 X70.52 Y77.52 E49.4962
G1 X70.03 Y77.6 E49.5126
G1 X69.61 Y77.54 E49.5268
G1 X69.2 Y77.38 E49.5413
G1 X68.88 Y77.14 E49.5548
G1 X68.63 Y76.82 E49.5682
G1 X68.45 Y76.39 E49.5839
G1 X68.4 Y75.96 E49.5981
G1 X68.44 Y75.63 E49.6093
G1 X68.53 Y75.34 E49.6193
G1 X68.66 Y75.09 E49.6286
G1 X68.83 Y74.88 E49.6375
G1 X69.14 Y74.62 E49.6509
G1 X69.52 Y74.44 E49.665
G1 X69.83 Y74.38 E49.6757
G1 X70.14 Y74.37 E49.6857
G1 X70.46 Y74.43 E49.6966
G1 X70.85 Y74.6 E49.7109
G1 X71.17 Y74.85 E49.7243
G1 X71.41 Y75.17 E49.7377
G1 X71.57 Y75.58 E49.7522
G1 X71.62 Y75.98 E49.7657
G1 X71.55 Y76.47 E49.7823
G1 X71.37 Y76.86 E49.7964
G1 X71.11 Y77.16 E49.8097
;
; 'Perimeter', 27.9 [RPM], 17.5 [mm/s]
G1 F9000
G1 X71.03 Y76.96 E49.8097
G1 F1050
G1 X70.83 Y76.88 E49.817
G1 X70.6 Y77.03 E49.826
G1 X70.34 Y77.15 E49.8356
G1 X69.95 Y77.19 E49.8484
G1 X69.79 Y77.17 E49.854
G1 X69.38 Y77.01 E49.8685
G1 X69.16 Y76.86 E49.8775
G1 X68.99 Y76.64 E49.8864
G1 X68.83 Y76.25 E49.9008
G1 X68.8 Y75.99 E49.9095
G1 X68.84 Y75.65 E49.9207
G1 X69.03 Y75.27 E49.9348
G1 X69.21 Y75.07 E49.9437
G1 X69.44 Y74.92 E49.9527
G1 X69.7 Y74.81 E49.9622
G1 X70.04 Y74.77 E49.9737
G1 X70.28 Y74.8 E49.9817
G1 X70.67 Y74.97 E49.996
G1 X70.88 Y75.13 E50.0049
G1 X71.1 Y75.45 E50.0177
G1 X71.2 Y75.76 E50.0284
G1 X71.21 Y76.14 E50.041
G1 X71.15 Y76.37 E50.0492
G1 X71 Y76.68 E50.0605
G1 X70.83 Y76.88 E50.0694
G1 X70.88 Y77.09 E50.0766
;
; 'Loop', 53.3 [RPM], 33.4 [mm/s]
G1 F9000
G1 X80.48 Y73.34 E50.0766
G1 F2004.6
G1 X80.28 Y73.48 E50.0848
G1 X80.5 Y73.17 E50.0975
G1 X80.6 Y72.71 E50.1131
G1 X80.62 Y72.38 E50.1241
G1 X80.57 Y72.06 E50.135
G1 X80.4 Y71.65 E50.1494
G1 X80.16 Y71.34 E50.1628
G1 X79.84 Y71.09 E50.1763
G1 X79.43 Y70.93 E50.1907
G1 X79.11 Y70.87 E50.2015
G1 X78.71 Y70.9 E50.2151
G1 X78.45 Y70.97 E50.2241
G1 X78.22 Y71.08 E50.2324
G1 X77.89 Y71.31 E50.2459
G1 X77.64 Y71.63 E50.2593
G1 X77.46 Y72.02 E50.2735
G1 X77.41 Y72.34 E50.2843
G1 X77.42 Y72.75 E50.298
G1 X77.5 Y73.05 E50.3082
G1 X77.62 Y73.31 E50.3177
G1 X77.86 Y73.62 E50.3311
G1 X78.18 Y73.87 E50.3445
G1 X78.58 Y74.04 E50.3589
G1 X78.91 Y74.09 E50.3698
G1 X79.15 Y74.09 E50.378
G1 X79.57 Y73.99 E50.3923
G1 X79.75 Y73.93 E50.3985
G1 X79.86 Y73.86 E50.4031
G1 X80.01 Y73.74 E50.4093
G1 X79.72 Y74.09 E50.4243
G1 X78.59 Y75.03 E50.4733
G1 X77.8 Y75.56 E50.5049
G1 X77.1 Y75.99 E50.5323
G1 X75.85 Y76.62 E50.579
G1 X75.04 Y76.95 E50.6078
G1 X73.61 Y77.4 E50.6578
G1 X72.76 Y77.6 E50.687
G1 X71.36 Y77.8 E50.7337
G1 X70.29 Y77.86 E50.7693
G1 X68.93 Y77.82 E50.8146
G1 X67.93 Y77.71 E50.8482
G1 X66.66 Y77.47 E50.8911
G1 X65.77 Y77.22 E50.9217
G1 X64.93 Y76.93 E50.9514
G1 X63.49 Y76.3 E51.0037
G1 X62.88 Y75.97 E51.0268
G1 X62.17 Y75.55 E51.0543
G1 X61.4 Y75 E51.0858
G1 X60.57 Y74.32 E51.1214
G1 X60.61 Y74.2 E51.1257
G1 X60.71 Y74.11 E51.1301
G1 X60.81 Y74.08 E51.1337
G1 X61.07 Y74.1 E51.1423
G1 X61.54 Y74 E51.1584
G1 X61.8 Y73.89 E51.1679
G1 X62.13 Y73.65 E51.1813
G1 X62.38 Y73.34 E51.1947
G1 X62.56 Y72.95 E51.2089
G1 X62.62 Y72.46 E51.2253
G1 X62.54 Y71.97 E51.2417
G1 X62.36 Y71.59 E51.2558
G1 X62.19 Y71.38 E51.2647
G1 X61.88 Y71.12 E51.2781
G1 X61.5 Y70.94 E51.2922
G1 X61.18 Y70.88 E51.3029
G1 X60.87 Y70.88 E51.3134
G1 X60.55 Y70.93 E51.3242
G1 X60.16 Y71.11 E51.3385
G1 X59.84 Y71.36 E51.3518
G1 X59.6 Y71.69 E51.3653
G1 X59.49 Y71.95 E51.3748
G1 X59.42 Y72.25 E51.3852
G1 X59.41 Y72.65 E51.3985
G1 X59.37 Y72.77 E51.4027
G1 X59.28 Y72.87 E51.4071
G1 X59.15 Y72.91 E51.4115
G1 X58.24 Y71.75 E51.4607
G1 X57.79 Y71.06 E51.4879
G1 X57.31 Y70.22 E51.52
G1 X56.82 Y69.2 E51.5576
G1 X56.4 Y68.12 E51.5964
G1 X56.14 Y67.28 E51.6256
G1 X55.86 Y66.02 E51.6684
G1 X55.71 Y65.03 E51.7017
G1 X55.63 Y63.56 E51.7507
G1 X55.66 Y62.64 E51.7813
G1 X55.82 Y61.16 E51.8309
G1 X56.01 Y60.22 E51.8628
G1 X56.4 Y58.86 E51.91
G1 X56.7 Y58.03 E51.9392
G1 X57.24 Y56.87 E51.9817
G1 X57.79 Y55.91 E52.0185
G1 X58.24 Y55.23 E52.0457
G1 X59.14 Y54.06 E52.0949
G1 X59.29 Y54.11 E52.1
G1 X59.37 Y54.22 E52.1044
G1 X59.41 Y54.32 E52.1082
G1 X59.42 Y54.74 E52.1219
G1 X59.5 Y55.04 E52.1322
G1 X59.61 Y55.29 E52.1416
G1 X59.86 Y55.62 E52.1551
G1 X60.17 Y55.87 E52.1685
G1 X60.57 Y56.04 E52.1828
G1 X60.89 Y56.09 E52.1937
G1 X61.3 Y56.06 E52.2071
G1 X61.62 Y55.97 E52.2183
G1 X61.87 Y55.85 E52.2277
G1 X62.18 Y55.59 E52.2411
G1 X62.42 Y55.26 E52.2545
G1 X62.54 Y55 E52.264
G1 X62.62 Y54.52 E52.2803
G1 X62.58 Y54.1 E52.2943
G1 X62.4 Y53.65 E52.3107
G1 X62.15 Y53.33 E52.3241
G1 X61.83 Y53.09 E52.3376
G1 X61.39 Y52.92 E52.353
G1 X61.1 Y52.87 E52.3629
G1 X60.8 Y52.89 E52.373
G1 X60.61 Y52.79 E52.38
G1 X60.56 Y52.65 E52.385
G1 X61.39 Y51.97 E52.4207
G1 X62.17 Y51.43 E52.4522
G1 X63.48 Y50.67 E52.5027
G1 X64.25 Y50.31 E52.531
G1 X65.62 Y49.79 E52.5796
G1 X66.5 Y49.54 E52.61
G1 X67.92 Y49.26 E52.6583
G1 X68.93 Y49.14 E52.6921
G1 X70.34 Y49.11 E52.7388
G1 X71.23 Y49.15 E52.7686
G1 X72.24 Y49.28 E52.8024
G1 X73.5 Y49.53 E52.845
G1 X74.38 Y49.78 E52.8755
G1 X75.75 Y50.3 E52.9242
G1 X76.52 Y50.66 E52.9525
G1 X77.83 Y51.42 E53.003
G1 X78.61 Y51.96 E53.0345
G1 X79.75 Y52.9 E53.0835
G1 X79.88 Y53.12 E53.0924
G1 X79.51 Y52.94 E53.1062
G1 X79.2 Y52.88 E53.1168
G1 X78.88 Y52.87 E53.1273
G1 X78.56 Y52.93 E53.1382
G1 X78.17 Y53.1 E53.1524
G1 X77.85 Y53.35 E53.1658
G1 X77.61 Y53.68 E53.1793
G1 X77.45 Y54.08 E53.1938
G1 X77.4 Y54.49 E53.2074
G1 X77.47 Y54.98 E53.2239
G1 X77.66 Y55.36 E53.238
G1 X77.92 Y55.67 E53.2513
G1 X78.13 Y55.83 E53.2603
G1 X78.51 Y56.02 E53.2744
G1 X79 Y56.1 E53.2908
G1 X79.41 Y56.04 E53.3045
G1 X79.81 Y55.88 E53.319
G1 X80.14 Y55.64 E53.3325
G1 X80.39 Y55.33 E53.3459
G1 X80.57 Y54.9 E53.3614
G1 X80.62 Y54.47 E53.3756
G1 X80.6 Y54.21 E53.3843
G1 X80.5 Y53.84 E53.3971
G1 X80.37 Y53.61 E53.406
G1 X80.59 Y53.75 E53.4147
G1 X81.37 Y54.66 E53.4548
G1 X81.86 Y55.31 E53.4817
G1 X82.31 Y55.99 E53.5088
G1 X82.36 Y56.13 E53.5136
G1 X82.45 Y56.23 E53.518
G1 X82.57 Y56.48 E53.5274
G1 X82.72 Y56.71 E53.5364
G1 X82.77 Y56.85 E53.5414
G1 X83.37 Y58.13 E53.5886
G1 X83.63 Y58.82 E53.6129
G1 X83.85 Y59.54 E53.638
G1 X84.04 Y60.29 E53.6638
G1 X84.2 Y61.08 E53.6905
G1 X84.3 Y61.91 E53.7184
G1 X84.37 Y62.79 E53.7476
G1 X84.39 Y63.52 E53.7721
G1 X84.33 Y64.74 E53.8127
G1 X84.18 Y65.92 E53.852
G1 X83.87 Y67.3 E53.8993
G1 X83.61 Y68.17 E53.9294
G1 X83.06 Y69.51 E53.9776
G1 X82.63 Y70.37 E54.0095
G1 X81.83 Y71.67 E54.0604
G1 X81.35 Y72.33 E54.0874
G1 X80.93 Y72.84 E54.1096
G1 X80.48 Y73.34 E54.1318
;
; 'Perimeter', 27.9 [RPM], 17.5 [mm/s]
G1 F9000
G1 X80.5 Y73.6 E54.1318
G1 F1050
G1 X80.58 Y73.81 E54.1393
G1 X79.4 Y74.9 E54.1926
G1 X78.76 Y75.39 E54.2194
G1 X77.75 Y76.08 E54.2601
G1 X76.71 Y76.67 E54.3
G1 X75.89 Y77.05 E54.3298
G1 X75.22 Y77.32 E54.3539
G1 X74.38 Y77.61 E54.3835
G1 X73.49 Y77.85 E54.4142
G1 X72.39 Y78.07 E54.4515
G1 X71.21 Y78.21 E54.4908
G1 X70.32 Y78.26 E54.5207
G1 X68.92 Y78.22 E54.5671
G1 X68.07 Y78.14 E54.5957
G1 X67.1 Y77.97 E54.6284
G1 X66.33 Y77.8 E54.6546
G1 X65.59 Y77.59 E54.68
G1 X64.35 Y77.14 E54.7241
G1 X63.57 Y76.79 E54.7526
G1 X62.7 Y76.34 E54.7851
G1 X61.33 Y75.44 E54.8395
G1 X60.59 Y74.87 E54.8708
G1 X59.51 Y73.87 E54.9196
G1 X58.87 Y73.19 E54.9507
G1 X58.27 Y72.47 E54.9819
G1 X57.43 Y71.24 E55.0314
G1 X56.88 Y70.28 E55.068
G1 X56.34 Y69.12 E55.1107
G1 X56.03 Y68.3 E55.14
G1 X55.81 Y67.58 E55.1649
G1 X55.61 Y66.83 E55.1907
G1 X55.42 Y65.89 E55.2226
G1 X55.31 Y65.06 E55.2505
G1 X55.23 Y63.63 E55.298
G1 X55.25 Y62.62 E55.3318
G1 X55.33 Y61.75 E55.3607
G1 X55.45 Y60.93 E55.3883
G1 X55.61 Y60.14 E55.415
G1 X55.98 Y58.82 E55.4608
G1 X56.34 Y57.85 E55.495
G1 X56.67 Y57.11 E55.5221
G1 X57.35 Y55.85 E55.5697
G1 X57.87 Y55.05 E55.6015
G1 X58.78 Y53.88 E55.6506
G1 X59.4 Y53.19 E55.6817
G1 X60.58 Y52.1 E55.735
G1 X61.32 Y51.52 E55.7663
G1 X62.22 Y50.92 E55.8024
G1 X63.27 Y50.32 E55.8426
G1 X64.07 Y49.94 E55.872
G1 X64.74 Y49.66 E55.8961
G1 X65.58 Y49.38 E55.9257
G1 X66.47 Y49.13 E55.9562
G1 X67.4 Y48.93 E55.988
G1 X68.73 Y48.75 E56.0326
G1 X69.6 Y48.71 E56.0616
G1 X70.9 Y48.73 E56.1048
G1 X72.1 Y48.85 E56.145
G1 X73.06 Y49.02 E56.1774
G1 X73.82 Y49.2 E56.2034
G1 X74.55 Y49.41 E56.2287
G1 X75.52 Y49.76 E56.263
G1 X76.66 Y50.27 E56.3043
G1 X78.01 Y51.05 E56.3562
G1 X78.79 Y51.59 E56.3878
G1 X79.93 Y52.53 E56.4368
G1 X80.6 Y53.17 E56.4678
G1 X81.23 Y53.86 E56.4989
G1 X82.14 Y55.03 E56.5481
G1 X82.66 Y55.83 E56.5798
G1 X83.07 Y56.55 E56.6074
G1 X83.45 Y57.3 E56.6354
G1 X83.99 Y58.65 E56.6837
G1 X84.25 Y59.51 E56.7138
G1 X84.44 Y60.27 E56.7396
G1 X84.64 Y61.39 E56.7775
G1 X84.76 Y62.58 E56.8175
G1 X84.79 Y63.51 E56.8482
G1 X84.72 Y64.94 E56.896
G1 X84.59 Y65.94 E56.9295
G1 X84.43 Y66.73 E56.9563
G1 X84.07 Y68.06 E57.0021
G1 X83.72 Y69.03 E57.0365
G1 X83.37 Y69.82 E57.0649
G1 X82.97 Y70.59 E57.094
G1 X82.2 Y71.85 E57.1431
G1 X81.64 Y72.61 E57.1745
G1 X81.12 Y73.23 E57.2012
G1 X80.58 Y73.81 E57.2279
G1 X80.36 Y73.74 E57.2354
;
; 'Perimeter', 27.9 [RPM], 17.5 [mm/s]
G1 F9000
G1 X80.1 Y73.38 E57.2354
G1 F1050
G1 X79.89 Y73.32 E57.2425
G1 X79.69 Y73.49 E57.2514
G1 X79.29 Y73.66 E57.2657
G1 X78.93 Y73.69 E57.2778
G1 X78.73 Y73.66 E57.2847
G1 X78.36 Y73.5 E57.2978
G1 X78.15 Y73.34 E57.3068
G1 X77.96 Y73.08 E57.3174
G1 X77.82 Y72.72 E57.3302
G1 X77.8 Y72.36 E57.3423
G1 X77.86 Y72.12 E57.3503
G1 X78 Y71.8 E57.362
G1 X78.17 Y71.6 E57.371
G1 X78.4 Y71.44 E57.38
G1 X78.66 Y71.32 E57.3894
G1 X78.98 Y71.27 E57.4004
G1 X79.25 Y71.29 E57.4095
G1 X79.66 Y71.46 E57.424
G1 X79.87 Y71.62 E57.4329
G1 X80.04 Y71.83 E57.4419
G1 X80.2 Y72.24 E57.4564
G1 X80.22 Y72.51 E57.4656
G1 X80.17 Y72.84 E57.4765
G1 X80.05 Y73.1 E57.486
G1 X79.89 Y73.32 E57.495
G1 X79.96 Y73.52 E57.5021
; fan off
M107
;
; 'Wipe', 0.0 [RPM], 40.0 [mm/s]
; fan on
M106
;
; 'Loop', 53.3 [RPM], 33.4 [mm/s]
G1 F9000
G1 X77.73 Y70.77 E57.5021
G1 F2004.6
G1 X77.26 Y71.24 E57.5243
G1 X76.65 Y71.77 E57.551
G1 X75.54 Y72.55 E57.596
G1 X74.56 Y73.07 E57.6331
G1 X73.63 Y73.46 E57.6666
G1 X72.88 Y73.7 E57.6928
G1 X71.84 Y73.94 E57.7282
G1 X70.66 Y74.08 E57.7676
G1 X69.34 Y74.08 E57.8115
G1 X68.62 Y74.01 E57.8358
G1 X67.66 Y73.83 E57.8682
G1 X66.48 Y73.5 E57.9088
G1 X65.68 Y73.17 E57.9377
G1 X64.56 Y72.59 E57.9796
G1 X63.88 Y72.15 E58.0068
G1 X63.24 Y71.65 E58.0336
G1 X62.26 Y70.74 E58.078
G1 X61.82 Y70.24 E58.1002
G1 X61.42 Y69.7 E58.1226
G1 X60.96 Y69.03 E58.1497
G1 X60.9 Y68.9 E58.1545
G1 X60.68 Y68.55 E58.1682
G1 X60.31 Y67.79 E58.1963
G1 X60 Y66.97 E58.2254
G1 X59.94 Y66.84 E58.2302
G1 X59.77 Y66.26 E58.2503
G1 X59.62 Y65.65 E58.2711
G1 X59.48 Y64.85 E58.2982
G1 X59.41 Y64.14 E58.3219
G1 X59.41 Y62.85 E58.365
G1 X59.53 Y61.8 E58.3998
G1 X59.76 Y60.72 E58.4369
G1 X60.03 Y59.85 E58.4669
G1 X60.3 Y59.18 E58.491
G1 X60.95 Y57.94 E58.5375
G1 X61.32 Y57.37 E58.5601
G1 X61.81 Y56.73 E58.587
G1 X62.72 Y55.76 E58.6313
G1 X63.33 Y55.23 E58.658
G1 X63.98 Y54.75 E58.6849
G1 X65.03 Y54.11 E58.726
G1 X65.8 Y53.74 E58.7542
G1 X66.56 Y53.44 E58.7815
G1 X67.8 Y53.1 E58.8241
G1 X68.6 Y52.96 E58.8512
G1 X69.83 Y52.87 E58.8922
G1 X70.7 Y52.89 E58.9212
G1 X71.55 Y52.98 E58.9497
G1 X72.65 Y53.2 E58.9869
G1 X73.52 Y53.46 E59.0172
G1 X74.32 Y53.78 E59.0459
G1 X75.45 Y54.36 E59.088
G1 X76.14 Y54.81 E59.1153
G1 X76.78 Y55.3 E59.1421
G1 X77.75 Y56.21 E59.1865
G1 X78.27 Y56.82 E59.2132
G1 X78.76 Y57.46 E59.24
G1 X79.4 Y58.52 E59.2811
G1 X79.76 Y59.29 E59.3093
G1 X80.16 Y60.38 E59.3481
G1 X80.4 Y61.29 E59.3794
G1 X80.54 Y62.1 E59.4065
G1 X80.62 Y63.33 E59.4476
G1 X80.6 Y64.22 E59.4772
G1 X80.53 Y64.93 E59.501
G1 X80.28 Y66.16 E59.5427
G1 X80.02 Y67.03 E59.5729
G1 X79.75 Y67.71 E59.5971
G1 X79.11 Y68.95 E59.6437
G1 X78.66 Y69.63 E59.6709
G1 X78.17 Y70.27 E59.6977
G1 X77.73 Y70.77 E59.7199
;
; 'Perimeter', 27.9 [RPM], 17.5 [mm/s]
G1 F9000
G1 X77.66 Y70.56 E59.7199
G1 F1050
G1 X77.45 Y70.49 E59.7273
G1 X76.97 Y70.96 E59.7495
G1 X75.93 Y71.81 E59.794
G1 X75.36 Y72.18 E59.8167
G1 X74.38 Y72.71 E59.8537
G1 X73.45 Y73.1 E59.8873
G1 X72.74 Y73.33 E59.9122
G1 X71.98 Y73.51 E59.9383
G1 X70.85 Y73.66 E59.9761
G1 X70.06 Y73.7 E60.0024
G1 X69.32 Y73.68 E60.027
G1 X68.47 Y73.58 E60.0555
G1 X67.77 Y73.45 E60.0792
G1 X66.72 Y73.15 E60.1155
G1 X65.85 Y72.81 E60.1464
G1 X65.22 Y72.5 E60.1698
G1 X64.62 Y72.16 E60.1928
G1 X63.62 Y71.45 E60.2333
G1 X63.02 Y70.93 E60.26
G1 X62.46 Y70.36 E60.2866
G1 X61.7 Y69.42 E60.3268
G1 X61.25 Y68.73 E60.354
G1 X60.86 Y68 E60.3817
G1 X60.45 Y67.06 E60.4157
G1 X60.17 Y66.23 E60.4448
G1 X59.99 Y65.47 E60.4708
G1 X59.88 Y64.79 E60.4937
G1 X59.8 Y63.58 E60.5342
G1 X59.82 Y62.82 E60.5595
G1 X59.91 Y61.98 E60.5877
G1 X60.16 Y60.78 E60.6283
G1 X60.4 Y60.03 E60.6545
G1 X60.79 Y59.1 E60.688
G1 X61.32 Y58.12 E60.7251
G1 X61.69 Y57.55 E60.7477
G1 X62.1 Y57.02 E60.7701
G1 X63.01 Y56.04 E60.8145
G1 X63.61 Y55.52 E60.8411
G1 X64.61 Y54.81 E60.8816
G1 X65.33 Y54.41 E60.9092
G1 X65.97 Y54.1 E60.9328
G1 X66.79 Y53.79 E60.9619
G1 X67.57 Y53.57 E60.9889
G1 X68.51 Y53.38 E61.0209
G1 X69.31 Y53.29 E61.0474
G1 X70.62 Y53.29 E61.0912
G1 X71.46 Y53.37 E61.1192
G1 X72.15 Y53.49 E61.1424
G1 X72.91 Y53.69 E61.1686
G1 X73.75 Y53.98 E61.1984
G1 X74.67 Y54.39 E61.2316
G1 X75.39 Y54.8 E61.2592
G1 X75.96 Y55.17 E61.2819
G1 X76.9 Y55.93 E61.322
G1 X77.47 Y56.49 E61.3486
G1 X77.99 Y57.1 E61.3753
G1 X78.69 Y58.1 E61.4158
G1 X79.1 Y58.82 E61.4434
G1 X79.4 Y59.46 E61.467
G1 X79.72 Y60.31 E61.4972
G1 X79.99 Y61.32 E61.5319
G1 X80.12 Y62.04 E61.5563
G1 X80.2 Y62.81 E61.5819
G1 X80.2 Y64.12 E61.6257
G1 X80.12 Y64.97 E61.6538
G1 X79.99 Y65.66 E61.6772
G1 X79.79 Y66.42 E61.7036
G1 X79.5 Y67.26 E61.7331
G1 X79.08 Y68.17 E61.7662
G1 X78.67 Y68.89 E61.7938
G1 X78.3 Y69.46 E61.8165
G1 X77.89 Y69.99 E61.8388
G1 X77.45 Y70.49 E61.861
G1 X77.52 Y70.7 E61.8684
;
; 'Loop', 53.3 [RPM], 33.4 [mm/s]
G1 F9000
G1 X83.65 Y64.63 E61.8684
G1 F2004.6
G1 X83.33 Y64.88 E61.8818
G1 X82.93 Y65.04 E61.8963
G1 X82.61 Y65.09 E61.9071
G1 X82.2 Y65.06 E61.9207
G1 X81.94 Y64.99 E61.9298
G1 X81.71 Y64.88 E61.9382
G1 X81.38 Y64.64 E61.9516
G1 X81.13 Y64.33 E61.965
G1 X80.96 Y63.93 E61.9793
G1 X80.9 Y63.57 E61.9915
G1 X80.92 Y63.22 E62.0034
G1 X81 Y62.92 E62.0136
G1 X81.12 Y62.66 E62.0231
G1 X81.36 Y62.34 E62.0365
G1 X81.68 Y62.09 E62.0499
G1 X82.08 Y61.93 E62.0643
G1 X82.4 Y61.87 E62.0752
G1 X82.81 Y61.9 E62.0887
G1 X83.1 Y61.98 E62.0989
G1 X83.36 Y62.1 E62.1083
G1 X83.67 Y62.36 E62.1217
G1 X83.91 Y62.68 E62.1351
G1 X84.03 Y62.94 E62.1446
G1 X84.12 Y63.41 E62.1606
G1 X84.09 Y63.83 E62.1744
G1 X83.96 Y64.19 E62.187
G1 X83.9 Y64.31 E62.1917
G1 X83.65 Y64.63 E62.2051
;
; 'Perimeter', 27.9 [RPM], 17.5 [mm/s]
G1 F9000
G1 X83.57 Y64.41 E62.2051
G1 F1050
G1 X83.37 Y64.35 E62.2122
G1 X83.15 Y64.51 E62.2212
G1 X82.75 Y64.67 E62.2357
G1 X82.47 Y64.69 E62.2451
G1 X82.15 Y64.63 E62.2559
G1 X81.77 Y64.44 E62.2699
G1 X81.58 Y64.26 E62.2787
G1 X81.43 Y64.03 E62.2878
G1 X81.33 Y63.75 E62.2976
G1 X81.3 Y63.41 E62.3091
G1 X81.34 Y63.18 E62.3169
G1 X81.48 Y62.85 E62.3285
G1 X81.65 Y62.62 E62.3381
G1 X81.89 Y62.45 E62.348
G1 X82.26 Y62.3 E62.3615
G1 X82.62 Y62.27 E62.3735
G1 X82.86 Y62.32 E62.3815
G1 X83.18 Y62.47 E62.3933
G1 X83.39 Y62.64 E62.4022
G1 X83.61 Y62.98 E62.4158
G1 X83.7 Y63.27 E62.4258
G1 X83.72 Y63.56 E62.4356
G1 X83.65 Y63.87 E62.4462
G1 X83.53 Y64.13 E62.4556
G1 X83.37 Y64.35 E62.4646
G1 X83.43 Y64.55 E62.4717
; fan off
M107
;
; 'Wipe', 0.0 [RPM], 40.0 [mm/s]
; fan on
M106
;
; 'Perimeter', 27.9 [RPM], 17.5 [mm/s]
G1 F9000
G1 X80.06 Y55.43 E62.4717
G1 F1050
G1 X79.86 Y55.36 E62.4788
G1 X79.64 Y55.52 E62.4878
G1 X79.23 Y55.68 E62.5023
G1 X78.84 Y55.68 E62.5151
G1 X78.61 Y55.62 E62.5233
G1 X78.31 Y55.47 E62.5345
G1 X78.11 Y55.29 E62.5434
G1 X77.95 Y55.06 E62.5524
G1 X77.84 Y54.8 E62.562
G1 X77.8 Y54.47 E62.5731
G1 X77.82 Y54.26 E62.5801
G1 X77.98 Y53.86 E62.5945
G1 X78.13 Y53.64 E62.6034
G1 X78.34 Y53.47 E62.6124
G1 X78.74 Y53.3 E62.6267
G1 X78.99 Y53.27 E62.6351
G1 X79.33 Y53.31 E62.6465
G1 X79.71 Y53.49 E62.6606
G1 X79.91 Y53.67 E62.6695
G1 X80.06 Y53.9 E62.6786
G1 X80.18 Y54.16 E62.6881
G1 X80.22 Y54.5 E62.6994
G1 X80.19 Y54.76 E62.708
G1 X80.02 Y55.15 E62.7223
G1 X79.86 Y55.36 E62.7312
G1 X79.91 Y55.56 E62.7383
; fan off
M107
;
; 'Wipe', 0.0 [RPM], 40.0 [mm/s]
; fan on
M106
;
; 'Loop', 53.3 [RPM], 33.4 [mm/s]
G1 F9000
G1 X71.16 Y52.13 E62.7383
G1 F2004.6
G1 X70.84 Y52.37 E62.7517
G1 X70.44 Y52.54 E62.7661
G1 X70.12 Y52.59 E62.777
G1 X69.71 Y52.56 E62.7905
G1 X69.45 Y52.49 E62.7994
G1 X69.16 Y52.36 E62.8102
G1 X68.85 Y52.1 E62.8236
G1 X68.61 Y51.78 E62.8371
G1 X68.45 Y51.37 E62.8516
G1 X68.4 Y51.04 E62.8626
G1 X68.44 Y50.63 E62.8765
G1 X68.56 Y50.28 E62.8887
G1 X68.62 Y50.15 E62.8934
G1 X68.87 Y49.83 E62.9068
G1 X69.19 Y49.59 E62.9202
G1 X69.59 Y49.42 E62.9347
G1 X69.91 Y49.37 E62.9456
G1 X70.32 Y49.4 E62.9592
G1 X70.58 Y49.47 E62.9682
G1 X70.81 Y49.58 E62.9764
G1 X71.13 Y49.82 E62.9899
G1 X71.39 Y50.13 E63.0032
G1 X71.56 Y50.52 E63.0175
G1 X71.62 Y50.84 E63.0283
G1 X71.6 Y51.25 E63.0418
G1 X71.52 Y51.54 E63.0521
G1 X71.4 Y51.8 E63.0615
G1 X71.16 Y52.13 E63.075
;
; 'Perimeter', 27.9 [RPM], 17.5 [mm/s]
G1 F9000
G1 X71.08 Y51.9 E63.075
G1 F1050
G1 X70.88 Y51.84 E63.082
G1 X70.62 Y52.03 E63.0926
G1 X70.26 Y52.17 E63.1054
G1 X69.89 Y52.19 E63.1176
G1 X69.66 Y52.14 E63.1254
G1 X69.34 Y51.99 E63.1374
G1 X69.13 Y51.82 E63.1463
G1 X68.91 Y51.47 E63.1599
G1 X68.82 Y51.19 E63.1699
G1 X68.8 Y50.9 E63.1795
G1 X68.87 Y50.59 E63.19
G1 X68.99 Y50.33 E63.1995
G1 X69.15 Y50.12 E63.2084
G1 X69.37 Y49.95 E63.2174
G1 X69.77 Y49.79 E63.2319
G1 X70.05 Y49.77 E63.2411
G1 X70.37 Y49.83 E63.252
G1 X70.74 Y50.02 E63.2659
G1 X70.94 Y50.2 E63.2748
G1 X71.08 Y50.43 E63.2839
G1 X71.19 Y50.7 E63.2936
G1 X71.22 Y51.05 E63.3051
G1 X71.18 Y51.27 E63.3127
G1 X71.06 Y51.59 E63.3241
G1 X70.88 Y51.84 E63.3344
G1 X70.94 Y52.04 E63.3414
; fan off
M107
;
; 'Wipe', 0.0 [RPM], 40.0 [mm/s]
; fan on
M106
;
; 'Perimeter', 27.9 [RPM], 17.5 [mm/s]
G1 F9000
G1 X62.11 Y55.37 E63.3414
G1 F1050
G1 X61.9 Y55.31 E63.3486
G1 X61.7 Y55.48 E63.3575
G1 X61.31 Y55.66 E63.3717
G1 X60.96 Y55.69 E63.3832
G1 X60.75 Y55.67 E63.3904
G1 X60.35 Y55.5 E63.4047
G1 X60.14 Y55.33 E63.4136
G1 X59.95 Y55.05 E63.425
G1 X59.82 Y54.71 E63.4371
G1 X59.81 Y54.35 E63.4491
G1 X59.87 Y54.1 E63.4577
G1 X60.01 Y53.8 E63.4689
G1 X60.18 Y53.59 E63.4778
G1 X60.41 Y53.44 E63.4868
G1 X60.67 Y53.32 E63.4963
G1 X60.99 Y53.27 E63.5073
G1 X61.24 Y53.29 E63.5156
G1 X61.65 Y53.45 E63.5301
G1 X61.86 Y53.61 E63.539
G1 X62.03 Y53.82 E63.548
G1 X62.2 Y54.22 E63.5624
G1 X62.22 Y54.5 E63.5715
G1 X62.17 Y54.83 E63.5826
G1 X62.05 Y55.09 E63.5921
G1 X61.9 Y55.31 E63.6011
G1 X61.97 Y55.51 E63.6082
; fan off
M107
;
; 'Wipe', 0.0 [RPM], 40.0 [mm/s]
; fan on
M106
;
; 'Loop', 53.3 [RPM], 33.4 [mm/s]
G1 F9000
G1 X58.61 Y64.66 E63.6082
G1 F2004.6
G1 X58.28 Y64.9 E63.6217
G1 X57.99 Y65.02 E63.6324
G1 X57.54 Y65.09 E63.6476
G1 X57.12 Y65.05 E63.6617
G1 X56.81 Y64.93 E63.6727
G1 X56.65 Y64.85 E63.6785
G1 X56.34 Y64.6 E63.6919
G1 X56.1 Y64.27 E63.7054
G1 X55.99 Y64.01 E63.7149
G1 X55.9 Y63.53 E63.731
G1 X55.91 Y63.28 E63.7395
G1 X56.03 Y62.83 E63.7548
G1 X56.17 Y62.59 E63.7641
G1 X56.33 Y62.38 E63.773
G1 X56.64 Y62.12 E63.7864
G1 X57.03 Y61.94 E63.8005
G1 X57.37 Y61.88 E63.812
G1 X57.73 Y61.89 E63.8242
G1 X58.04 Y61.96 E63.8347
G1 X58.3 Y62.07 E63.8441
G1 X58.63 Y62.31 E63.8576
G1 X58.88 Y62.62 E63.871
G1 X59.06 Y63.01 E63.8852
G1 X59.12 Y63.33 E63.896
G1 X59.11 Y63.65 E63.9065
G1 X59.05 Y63.97 E63.9173
G1 X58.87 Y64.35 E63.9314
G1 X58.61 Y64.66 E63.9448
;
; 'Perimeter', 27.9 [RPM], 17.5 [mm/s]
G1 F9000
G1 X58.53 Y64.45 E63.9448
G1 F1050
G1 X58.33 Y64.38 E63.952
G1 X57.98 Y64.59 E63.9657
G1 X57.69 Y64.68 E63.9758
G1 X57.38 Y64.69 E63.9859
G1 X57.08 Y64.61 E63.9963
G1 X56.83 Y64.48 E64.0057
G1 X56.62 Y64.31 E64.0146
G1 X56.41 Y63.97 E64.0282
G1 X56.31 Y63.68 E64.0382
G1 X56.3 Y63.47 E64.0452
G1 X56.35 Y63.15 E64.0561
G1 X56.53 Y62.77 E64.0702
G1 X56.71 Y62.57 E64.079
G1 X56.94 Y62.42 E64.0881
G1 X57.21 Y62.31 E64.0977
G1 X57.54 Y62.27 E64.1088
G1 X57.86 Y62.33 E64.1196
G1 X58.12 Y62.44 E64.1291
G1 X58.34 Y62.6 E64.1381
G1 X58.51 Y62.8 E64.1471
G1 X58.69 Y63.19 E64.1613
G1 X58.72 Y63.44 E64.1696
G1 X58.68 Y63.79 E64.1812
G1 X58.51 Y64.17 E64.1954
G1 X58.33 Y64.38 E64.2043
G1 X58.39 Y64.59 E64.2114
; fan off
M107
;
; 'Wipe', 0.0 [RPM], 40.0 [mm/s]
; fan on
M106
;
; 'Crown', 27.9 [RPM], 17.5 [mm/s]
G1 F9000
G1 X60.3 Y52.95 E64.2114
G1 F1050
G1 X59.89 Y53.3 E64.2292
G1 X59.62 Y53.59 E64.2426
G1 X59.46 Y53.81 E64.2515
;
; 'Crown', 27.9 [RPM], 17.5 [mm/s]
G1 F9000
G1 X59.48 Y73.14 E64.2515
G1 F1050
G1 X59.62 Y73.38 E64.2607
G1 X60.09 Y73.85 E64.2829
G1 X60.31 Y74.01 E64.2919
; fan off
M107
;
; 'Solid', 63.9 [RPM], 40.0 [mm/s]
G1 F9000
G1 X61.53 Y74.37 E64.2919
G1 F2400
G1 X62.62 Y75.46 E64.3431
;
; 'Solid', 63.9 [RPM], 40.0 [mm/s]
G1 F9000
G1 X63.87 Y76.15 E64.3431
G1 F2400
G1 X61.95 Y74.22 E64.4339
G1 X62.28 Y73.99 E64.4474
G1 X64.78 Y76.49 E64.565
G1 X65.66 Y76.8 E64.5959
G1 X62.56 Y73.7 E64.7416
G1 X62.78 Y73.35 E64.7553
G1 X66.46 Y77.04 E64.9288
G1 X67.2 Y77.21 E64.9538
G1 X62.93 Y72.95 E65.1544
G1 X62.97 Y72.41 E65.1721
G1 X67.89 Y77.34 E65.4037
G1 X68.53 Y77.41 E65.425
G1 X62.74 Y71.62 E65.6972
;
; 'Solid', 63.9 [RPM], 40.0 [mm/s]
G1 F9000
G1 X64.7 Y73.02 E65.6972
G1 F2400
G1 X68.14 Y76.46 E65.8588
G1 X68.04 Y75.79 E65.8812
G1 X65.9 Y73.65 E65.9816
G1 X66.8 Y73.98 E66.0132
G1 X68.15 Y75.34 E66.077
G1 X68.33 Y74.95 E66.0912
G1 X67.55 Y74.17 E66.1276
G1 X68.26 Y74.32 E66.1516
G1 X68.58 Y74.63 E66.1665
;
; 'Wipe', 0.0 [RPM], 40.0 [mm/s]
;
; 'Solid', 63.9 [RPM], 40.0 [mm/s]
G1 F9000
G1 X71.89 Y77.39 E66.1665
G1 F2400
G1 X71.65 Y77.14 E66.1779
G1 X71.82 Y76.75 E66.1922
G1 X72.37 Y77.3 E66.218
G1 X72.85 Y77.21 E66.2341
G1 X71.96 Y76.32 E66.276
G1 X71.95 Y75.75 E66.2949
G1 X73.31 Y77.11 E66.3587
G1 X73.76 Y76.99 E66.3741
G1 X71.21 Y74.43 E66.4942
G1 X71.66 Y74.33 E66.5098
G1 X74.2 Y76.86 E66.629
G1 X74.62 Y76.72 E66.6438
G1 X72.15 Y74.25 E66.76
G1 X72.61 Y74.14 E66.7758
G1 X75.04 Y76.57 E66.8899
G1 X75.44 Y76.4 E66.9043
G1 X73.06 Y74.03 E67.0161
G1 X73.49 Y73.89 E67.0311
G1 X75.83 Y76.23 E67.1412
G1 X76.22 Y76.05 E67.1553
G1 X73.91 Y73.74 E67.264
G1 X74.31 Y73.58 E67.2785
G1 X76.59 Y75.86 E67.3855
G1 X76.96 Y75.66 E67.3994
G1 X74.7 Y73.4 E67.5055
G1 X75.08 Y73.22 E67.5196
G1 X77.31 Y75.45 E67.6244
G1 X77.66 Y75.23 E67.638
G1 X75.44 Y73.02 E67.7422
G1 X75.8 Y72.81 E67.756
G1 X77.99 Y75 E67.8592
G1 X78.33 Y74.77 E67.8727
G1 X76.14 Y72.58 E67.9756
G1 X76.48 Y72.35 E67.9891
G1 X77.13 Y73 E68.0198
G1 X77.01 Y72.32 E68.043
G1 X76.8 Y72.11 E68.0528
G1 X77.16 Y71.9 E68.0665
G1 X77.18 Y71.92 E68.0677
;
; 'Solid', 63.9 [RPM], 40.0 [mm/s]
G1 F9000
G1 X78.64 Y70.55 E68.0677
G1 F2400
G1 X78.51 Y70.43 E68.0737
G1 X78.76 Y70.11 E68.0871
G1 X79.12 Y70.47 E68.1043
G1 X80.1 Y70.89 E68.1397
G1 X79 Y69.78 E68.1917
G1 X79.22 Y69.44 E68.2053
G1 X81.41 Y71.63 E68.3082
G1 X81.65 Y71.3 E68.3217
G1 X79.44 Y69.1 E68.4254
G1 X79.65 Y68.73 E68.4392
G1 X81.87 Y70.96 E68.5437
G1 X82.08 Y70.61 E68.5574
G1 X79.84 Y68.36 E68.6628
G1 X80.02 Y67.98 E68.677
G1 X82.29 Y70.24 E68.7836
G1 X82.48 Y69.87 E68.7975
G1 X80.19 Y67.58 E68.9053
G1 X80.35 Y67.17 E68.9199
G1 X82.67 Y69.5 E69.0292
G1 X82.85 Y69.11 E69.0434
G1 X80.49 Y66.74 E69.1545
G1 X80.61 Y66.3 E69.1697
G1 X83.02 Y68.71 E69.2828
G1 X83.17 Y68.3 E69.2974
G1 X80.73 Y65.85 E69.4124
G1 X80.82 Y65.38 E69.4286
G1 X83.32 Y67.88 E69.5462
G1 X83.46 Y67.45 E69.5612
G1 X80.96 Y64.95 E69.6787
G1 X81.95 Y65.37 E69.7143
G1 X83.58 Y67.01 E69.7911
G1 X83.69 Y66.55 E69.8066
G1 X82.59 Y65.45 E69.8585
G1 X83.08 Y65.37 E69.875
G1 X83.78 Y66.08 E69.9083
G1 X83.87 Y65.6 E69.9246
G1 X83.48 Y65.21 E69.9428
G1 X83.91 Y65.07 E69.9577
G1 X83.99 Y65.16 E69.9616
;
; 'Wipe', 0.0 [RPM], 40.0 [mm/s]
;
; 'Solid', 63.9 [RPM], 40.0 [mm/s]
G1 F9000
G1 X80.84 Y62 E69.9616
G1 F2400
G1 X81.3 Y61.9 E69.9774
G1 X80.79 Y61.38 E70.0016
G1 X80.61 Y60.64 E70.0271
G1 X81.66 Y61.7 E70.0769
G1 X82.09 Y61.56 E70.0919
G1 X80.38 Y59.84 E70.1727
G1 X79.95 Y58.85 E70.2085
G1 X82.59 Y61.49 E70.3324
G1 X83.46 Y61.79 E70.363
G1 X79.21 Y57.54 E70.5631
G1 X78.7 Y56.47 E70.6024
G1 X83.91 Y61.68 E70.8476
G1 X83.82 Y61.03 E70.8696
G1 X79.24 Y56.44 E71.0854
G1 X79.7 Y56.33 E71.1012
G1 X83.66 Y60.3 E71.2878
G1 X83.48 Y59.55 E71.3136
G1 X80.07 Y56.14 E71.4739
G1 X80.39 Y55.9 E71.4873
G1 X83.23 Y58.74 E71.621
G1 X82.85 Y57.79 E71.6553
G1 X80.65 Y55.59 E71.7587
G1 X80.84 Y55.21 E71.7727
G1 X82.46 Y56.84 E71.849
;
; 'Wipe', 0.0 [RPM], 40.0 [mm/s]
;
; 'Solid', 63.9 [RPM], 40.0 [mm/s]
G1 F9000
G1 X78.29 Y52.1 E71.849
G1 F2400
G1 X78.64 Y52.44 E71.8652
G1 X78.28 Y52.65 E71.8789
G1 X76.89 Y51.26 E71.9442
G1 X75.78 Y50.71 E71.9856
G1 X77.91 Y52.84 E72.0857
G1 X77.6 Y53.1 E72.0991
G1 X74.81 Y50.31 E72.2303
G1 X73.98 Y50.04 E72.2592
G1 X77.35 Y53.42 E72.4178
G1 X77.16 Y53.8 E72.4319
G1 X73.2 Y49.83 E72.6183
G1 X72.49 Y49.69 E72.6424
G1 X77.04 Y54.24 E72.8563
G1 X77.1 Y54.86 E72.877
G1 X71.8 Y49.56 E73.1264
G1 X71.63 Y49.96 E73.1408
G1 X76.09 Y54.42 E73.3505
;
; 'Solid', 63.9 [RPM], 40.0 [mm/s]
G1 F9000
G1 X74.76 Y53.66 E73.3505
G1 F2400
G1 X71.96 Y50.86 E73.4822
G1 X71.94 Y51.4 E73.5004
G1 X73.68 Y53.14 E73.5822
G1 X72.85 Y52.88 E73.6112
G1 X71.79 Y51.82 E73.661
G1 X71.58 Y52.17 E73.6747
G1 X72.13 Y52.72 E73.7002
G1 X71.51 Y52.66 E73.7209
;
; 'Wipe', 0.0 [RPM], 40.0 [mm/s]
;
; 'Solid', 63.9 [RPM], 40.0 [mm/s]
G1 F9000
G1 X68.46 Y49.61 E73.7209
G1 F2400
G1 X68.4 Y49.56 E73.7235
G1 X67.91 Y49.63 E73.7401
G1 X68.28 Y50 E73.7579
G1 X68.13 Y50.41 E73.7724
G1 X67.42 Y49.7 E73.8057
G1 X66.95 Y49.8 E73.8216
G1 X68.02 Y50.87 E73.8718
G1 X68.15 Y51.57 E73.8954
G1 X66.5 Y49.91 E73.9735
G1 X66.05 Y50.04 E73.9887
G1 X68.61 Y52.6 E74.1091
G1 X68.12 Y52.67 E74.1256
G1 X65.62 Y50.17 E74.2432
G1 X65.2 Y50.31 E74.258
G1 X67.65 Y52.76 E74.3732
G1 X67.2 Y52.88 E74.3887
G1 X64.79 Y50.47 E74.5017
G1 X64.39 Y50.64 E74.5161
G1 X66.76 Y53 E74.6273
G1 X66.33 Y53.14 E74.6423
G1 X64.01 Y50.82 E74.7514
G1 X63.63 Y51 E74.7655
G1 X65.92 Y53.3 E74.8735
G1 X65.52 Y53.46 E74.8879
G1 X63.26 Y51.2 E74.9944
G1 X62.9 Y51.4 E75.0082
G1 X65.14 Y53.65 E75.1137
G1 X64.77 Y53.84 E75.1276
G1 X62.55 Y51.62 E75.2321
G1 X62.2 Y51.84 E75.2457
G1 X64.41 Y54.04 E75.3493
G1 X64.06 Y54.26 E75.363
G1 X61.87 Y52.07 E75.466
G1 X61.54 Y52.31 E75.4794
G1 X63.72 Y54.49 E75.5817
G1 X63.39 Y54.73 E75.5952
G1 X62.96 Y54.3 E75.6154
G1 X62.95 Y54.85 E75.6338
G1 X63.07 Y54.97 E75.6395
;
; 'Solid', 63.9 [RPM], 40.0 [mm/s]
G1 F9000
G1 X61.62 Y56.35 E75.6395
G1 F2400
G1 X61.16 Y56.45 E75.6552
G1 X61.39 Y56.69 E75.6662
G1 X61.15 Y57.01 E75.6796
G1 X60.45 Y56.31 E75.7125
;
; 'Solid', 63.9 [RPM], 40.0 [mm/s]
G1 F9000
G1 X59.19 Y55.05 E75.7125
G1 F2400
G1 X59.02 Y54.87 E75.7209
G1 X58.73 Y55.16 E75.7342
G1 X60.91 Y57.34 E75.8368
G1 X60.69 Y57.68 E75.8504
G1 X58.5 Y55.49 E75.9537
G1 X58.27 Y55.83 E75.9673
G1 X60.48 Y58.04 E76.0713
G1 X60.28 Y58.4 E76.0852
G1 X58.05 Y56.17 E76.1901
G1 X57.84 Y56.53 E76.2039
G1 X60.09 Y58.78 E76.3098
G1 X59.92 Y59.17 E76.324
G1 X57.64 Y56.89 E76.4312
G1 X57.45 Y57.27 E76.4452
G1 X59.76 Y59.58 E76.5537
G1 X59.61 Y59.99 E76.5685
G1 X57.27 Y57.65 E76.6786
G1 X57.09 Y58.04 E76.6929
G1 X59.47 Y60.42 E76.8047
G1 X59.35 Y60.87 E76.8202
G1 X56.93 Y58.45 E76.9342
G1 X56.78 Y58.86 E76.9489
G1 X59.25 Y61.33 E77.0651
G1 X59.17 Y61.82 E77.0815
G1 X56.64 Y59.29 E77.2004
G1 X56.51 Y59.72 E77.2154
G1 X59.11 Y62.32 E77.3378
;
; 'Solid', 63.9 [RPM], 40.0 [mm/s]
G1 F9000
G1 X57.82 Y61.6 E77.3378
G1 F2400
G1 X56.39 Y60.17 E77.405
G1 X56.29 Y60.63 E77.4207
G1 X57.2 Y61.54 E77.4635
G1 X56.75 Y61.66 E77.4789
G1 X56.2 Y61.11 E77.5049
G1 X56.12 Y61.6 E77.5214
G1 X56.35 Y61.83 E77.5322
;
; 'Wipe', 0.0 [RPM], 40.0 [mm/s]
;
; 'Solid', 63.9 [RPM], 40.0 [mm/s]
G1 F9000
G1 X59.25 Y65.3 E77.5322
G1 F2400
G1 X58.9 Y64.95 E77.5486
G1 X58.55 Y65.16 E77.5624
G1 X59.31 Y65.92 E77.5984
G1 X59.55 Y66.72 E77.6261
G1 X58.17 Y65.35 E77.6909
G1 X57.69 Y65.44 E77.707
G1 X59.86 Y67.61 E77.8093
G1 X60.37 Y68.68 E77.8487
G1 X57.14 Y65.45 E78.0009
G1 X56.13 Y65.01 E78.0373
G1 X61.79 Y70.66 E78.3033
G1 X61.06 Y70.5 E78.328
G1 X56.16 Y65.6 E78.5587
G1 X56.28 Y66.28 E78.5819
G1 X60.56 Y70.57 E78.7834
G1 X60.14 Y70.71 E78.7982
G1 X56.45 Y67.03 E78.9715
G1 X56.68 Y67.82 E78.9988
G1 X59.79 Y70.93 E79.1453
G1 X59.5 Y71.21 E79.1586
G1 X57.01 Y68.72 E79.2757
G1 X57.45 Y69.72 E79.3123
G1 X59.27 Y71.54 E79.3978
G1 X59.12 Y71.95 E79.4124
G1 X58.07 Y70.9 E79.4618
;
; 'Wipe', 0.0 [RPM], 40.0 [mm/s]
;
; 'Solid', 63.9 [RPM], 40.0 [mm/s]
G1 F9000
G1 X81.22 Y72 E79.4618
G1 F2400
G1 X80.43 Y71.22 E79.4986
;
; 'Wipe', 0.0 [RPM], 40.0 [mm/s]
G1 F210
G1 X80.43 Y71.22 Z0.85 E79.4986
; END_LAYER_OBJECT z=0.40
; Reset extruder pos
G92 E0
; BEGIN_LAYER_OBJECT z=0.60
; fan on
M106
;
; 'Loop', 53.3 [RPM], 33.4 [mm/s]
G1 F9000
G1 X31.03 Y45.17 E0
G1 F210
G1 X31.03 Y45.17 Z0.6 E0
G1 F2004.6
G1 X30.71 Y45.41 E0.0134
G1 X30.45 Y45.52 E0.0229
G1 X29.98 Y45.62 E0.0389
G1 X29.7 Y45.6 E0.0482
G1 X29.26 Y45.48 E0.0635
G1 X29.01 Y45.35 E0.0727
G1 X28.8 Y45.18 E0.0816
G1 X28.54 Y44.87 E0.095
G1 X28.36 Y44.49 E0.1092
G1 X28.3 Y44.13 E0.1212
G1 X28.31 Y43.77 E0.1333
G1 X28.39 Y43.46 E0.1437
G1 X28.51 Y43.2 E0.1532
G1 X28.75 Y42.88 E0.1666
G1 X29.06 Y42.63 E0.18
G1 X29.45 Y42.45 E0.1943
G1 X29.78 Y42.4 E0.2051
G1 X30.07 Y42.4 E0.2149
G1 X30.39 Y42.47 E0.2257
G1 X30.77 Y42.64 E0.2398
G1 X31.08 Y42.9 E0.2532
G1 X31.25 Y43.11 E0.2621
G1 X31.44 Y43.49 E0.2762
G1 X31.52 Y43.97 E0.2925
G1 X31.46 Y44.46 E0.3088
G1 X31.28 Y44.85 E0.3231
G1 X31.03 Y45.17 E0.3364
;
